%
(Header)
(Generated by gcodetools from Inkscape.)
(Using default header. To add your own header create file "header" in the output dir.)
M3
(Header end.)
G20 (All units in inches)

(Pass at depth -0.998999999952)
(Start cutting path id: path1723)
(Change tool to Default tool)

G00 Z0.000100
G00 X9.326104 Y14.847813

G01 Z0.000000 F100.0(Penetrate)
G03 X9.282746 Y14.791307 Z0.000000 I0.105760 J-0.126040 F400.000000
G03 X9.267330 Y14.721772 Z0.000000 I0.149119 J-0.069535
G03 X9.282746 Y14.652237 Z0.000000 I0.164534 J-0.000000
G03 X9.326104 Y14.595732 Z0.000000 I0.149119 J0.069535
G00 Z0.000100

(End cutting path id: path1723)

(Start cutting path id: path1721)
(Change tool to Default tool)

G00 Z0.000100
G00 X9.525968 Y14.595732

G01 Z0.000000 F100.0(Penetrate)
G03 X9.569326 Y14.652237 Z0.000000 I-0.105760 J0.126040 F400.000000
G03 X9.584742 Y14.721772 Z0.000000 I-0.149119 J0.069535
G03 X9.569326 Y14.791307 Z0.000000 I-0.164534 J-0.000000
G03 X9.525968 Y14.847813 Z0.000000 I-0.149119 J-0.069535
G00 Z0.000100

(End cutting path id: path1721)

(Start cutting path id: line1717)
(Change tool to Default tool)

G00 Z0.000100
G00 X9.525968 Y14.847813

G01 Z0.000000 F100.0(Penetrate)
G01 X9.326104 Y14.847813 Z0.000000 F400.000000
G00 Z0.000100

(End cutting path id: line1717)

(Start cutting path id: line1719)
(Change tool to Default tool)

G00 Z0.000100
G00 X9.525968 Y14.595732

G01 Z0.000000 F100.0(Penetrate)
G01 X9.326104 Y14.595732 Z0.000000 F400.000000
G00 Z0.000100

(End cutting path id: line1719)

(Start cutting path id: path1611)
(Change tool to Default tool)

G00 Z0.000100
G00 X9.326104 Y13.947524

G01 Z0.000000 F100.0(Penetrate)
G03 X9.282746 Y13.891019 Z0.000000 I0.105760 J-0.126040 F400.000000
G03 X9.267330 Y13.821483 Z0.000000 I0.149119 J-0.069535
G03 X9.282746 Y13.751948 Z0.000000 I0.164534 J0.000000
G03 X9.326104 Y13.695443 Z0.000000 I0.149119 J0.069535
G00 Z0.000100

(End cutting path id: path1611)

(Start cutting path id: path1609)
(Change tool to Default tool)

G00 Z0.000100
G00 X9.525968 Y13.695443

G01 Z0.000000 F100.0(Penetrate)
G03 X9.569326 Y13.751948 Z0.000000 I-0.105760 J0.126040 F400.000000
G03 X9.584742 Y13.821483 Z0.000000 I-0.149119 J0.069535
G03 X9.569326 Y13.891019 Z0.000000 I-0.164534 J0.000000
G03 X9.525968 Y13.947524 Z0.000000 I-0.149119 J-0.069535
G00 Z0.000100

(End cutting path id: path1609)

(Start cutting path id: line1605)
(Change tool to Default tool)

G00 Z0.000100
G00 X9.525968 Y13.947524

G01 Z0.000000 F100.0(Penetrate)
G01 X9.326104 Y13.947524 Z0.000000 F400.000000
G00 Z0.000100

(End cutting path id: line1605)

(Start cutting path id: line1607)
(Change tool to Default tool)

G00 Z0.000100
G00 X9.525968 Y13.695443

G01 Z0.000000 F100.0(Penetrate)
G01 X9.326104 Y13.695443 Z0.000000 F400.000000
G00 Z0.000100

(End cutting path id: line1607)

(Start cutting path id: path1499)
(Change tool to Default tool)

G00 Z0.000100
G00 X9.326104 Y13.047235

G01 Z0.000000 F100.0(Penetrate)
G03 X9.282746 Y12.990730 Z0.000000 I0.105760 J-0.126040 F400.000000
G03 X9.267330 Y12.921195 Z0.000000 I0.149119 J-0.069535
G03 X9.282746 Y12.851659 Z0.000000 I0.164534 J0.000000
G03 X9.326104 Y12.795154 Z0.000000 I0.149119 J0.069535
G00 Z0.000100

(End cutting path id: path1499)

(Start cutting path id: path1497)
(Change tool to Default tool)

G00 Z0.000100
G00 X9.525968 Y12.795154

G01 Z0.000000 F100.0(Penetrate)
G03 X9.569326 Y12.851659 Z0.000000 I-0.105760 J0.126040 F400.000000
G03 X9.584742 Y12.921195 Z0.000000 I-0.149119 J0.069535
G03 X9.569326 Y12.990730 Z0.000000 I-0.164534 J0.000000
G03 X9.525968 Y13.047235 Z0.000000 I-0.149119 J-0.069535
G00 Z0.000100

(End cutting path id: path1497)

(Start cutting path id: line1493)
(Change tool to Default tool)

G00 Z0.000100
G00 X9.525968 Y13.047234

G01 Z0.000000 F100.0(Penetrate)
G01 X9.326104 Y13.047234 Z0.000000 F400.000000
G00 Z0.000100

(End cutting path id: line1493)

(Start cutting path id: line1495)
(Change tool to Default tool)

G00 Z0.000100
G00 X9.525968 Y12.795153

G01 Z0.000000 F100.0(Penetrate)
G01 X9.326104 Y12.795153 Z0.000000 F400.000000
G00 Z0.000100

(End cutting path id: line1495)

(Start cutting path id: path1387)
(Change tool to Default tool)

G00 Z0.000100
G00 X9.326104 Y12.146946

G01 Z0.000000 F100.0(Penetrate)
G03 X9.282746 Y12.090441 Z0.000000 I0.105760 J-0.126040 F400.000000
G03 X9.267330 Y12.020906 Z0.000000 I0.149119 J-0.069535
G03 X9.282746 Y11.951371 Z0.000000 I0.164534 J-0.000000
G03 X9.326104 Y11.894865 Z0.000000 I0.149119 J0.069535
G00 Z0.000100

(End cutting path id: path1387)

(Start cutting path id: path1385)
(Change tool to Default tool)

G00 Z0.000100
G00 X9.525968 Y11.894865

G01 Z0.000000 F100.0(Penetrate)
G03 X9.569326 Y11.951371 Z0.000000 I-0.105760 J0.126040 F400.000000
G03 X9.584742 Y12.020906 Z0.000000 I-0.149119 J0.069535
G03 X9.569326 Y12.090441 Z0.000000 I-0.164534 J0.000000
G03 X9.525968 Y12.146946 Z0.000000 I-0.149119 J-0.069535
G00 Z0.000100

(End cutting path id: path1385)

(Start cutting path id: line1381)
(Change tool to Default tool)

G00 Z0.000100
G00 X9.525968 Y12.146945

G01 Z0.000000 F100.0(Penetrate)
G01 X9.326104 Y12.146945 Z0.000000 F400.000000
G00 Z0.000100

(End cutting path id: line1381)

(Start cutting path id: line1383)
(Change tool to Default tool)

G00 Z0.000100
G00 X9.525968 Y11.894865

G01 Z0.000000 F100.0(Penetrate)
G01 X9.326104 Y11.894865 Z0.000000 F400.000000
G00 Z0.000100

(End cutting path id: line1383)

(Start cutting path id: path1275)
(Change tool to Default tool)

G00 Z0.000100
G00 X9.326104 Y11.246657

G01 Z0.000000 F100.0(Penetrate)
G03 X9.282746 Y11.190152 Z0.000000 I0.105760 J-0.126040 F400.000000
G03 X9.267330 Y11.120617 Z0.000000 I0.149119 J-0.069535
G03 X9.282746 Y11.051082 Z0.000000 I0.164534 J-0.000000
G03 X9.326104 Y10.994576 Z0.000000 I0.149119 J0.069535
G00 Z0.000100

(End cutting path id: path1275)

(Start cutting path id: path1273)
(Change tool to Default tool)

G00 Z0.000100
G00 X9.525968 Y10.994576

G01 Z0.000000 F100.0(Penetrate)
G03 X9.569326 Y11.051082 Z0.000000 I-0.105760 J0.126040 F400.000000
G03 X9.584742 Y11.120617 Z0.000000 I-0.149119 J0.069535
G03 X9.569326 Y11.190152 Z0.000000 I-0.164534 J0.000000
G03 X9.525968 Y11.246657 Z0.000000 I-0.149119 J-0.069535
G00 Z0.000100

(End cutting path id: path1273)

(Start cutting path id: line1269)
(Change tool to Default tool)

G00 Z0.000100
G00 X9.525968 Y11.246657

G01 Z0.000000 F100.0(Penetrate)
G01 X9.326104 Y11.246657 Z0.000000 F400.000000
G00 Z0.000100

(End cutting path id: line1269)

(Start cutting path id: line1271)
(Change tool to Default tool)

G00 Z0.000100
G00 X9.525968 Y10.994577

G01 Z0.000000 F100.0(Penetrate)
G01 X9.326104 Y10.994577 Z0.000000 F400.000000
G00 Z0.000100

(End cutting path id: line1271)

(Start cutting path id: path1163)
(Change tool to Default tool)

G00 Z0.000100
G00 X9.326104 Y10.346368

G01 Z0.000000 F100.0(Penetrate)
G03 X9.282746 Y10.289863 Z0.000000 I0.105760 J-0.126040 F400.000000
G03 X9.267330 Y10.220328 Z0.000000 I0.149119 J-0.069535
G03 X9.282746 Y10.150793 Z0.000000 I0.164534 J-0.000000
G03 X9.326104 Y10.094287 Z0.000000 I0.149119 J0.069535
G00 Z0.000100

(End cutting path id: path1163)

(Start cutting path id: path1161)
(Change tool to Default tool)

G00 Z0.000100
G00 X9.525968 Y10.094287

G01 Z0.000000 F100.0(Penetrate)
G03 X9.569326 Y10.150793 Z0.000000 I-0.105760 J0.126040 F400.000000
G03 X9.584742 Y10.220328 Z0.000000 I-0.149119 J0.069535
G03 X9.569326 Y10.289863 Z0.000000 I-0.164534 J0.000000
G03 X9.525968 Y10.346368 Z0.000000 I-0.149119 J-0.069535
G00 Z0.000100

(End cutting path id: path1161)

(Start cutting path id: line1157)
(Change tool to Default tool)

G00 Z0.000100
G00 X9.525968 Y10.346369

G01 Z0.000000 F100.0(Penetrate)
G01 X9.326104 Y10.346369 Z0.000000 F400.000000
G00 Z0.000100

(End cutting path id: line1157)

(Start cutting path id: line1159)
(Change tool to Default tool)

G00 Z0.000100
G00 X9.525968 Y10.094288

G01 Z0.000000 F100.0(Penetrate)
G01 X9.326104 Y10.094288 Z0.000000 F400.000000
G00 Z0.000100

(End cutting path id: line1159)

(Start cutting path id: path1051)
(Change tool to Default tool)

G00 Z0.000100
G00 X9.326104 Y9.446079

G01 Z0.000000 F100.0(Penetrate)
G03 X9.282746 Y9.389574 Z0.000000 I0.105760 J-0.126040 F400.000000
G03 X9.267330 Y9.320039 Z0.000000 I0.149119 J-0.069535
G03 X9.282746 Y9.250504 Z0.000000 I0.164534 J-0.000000
G03 X9.326104 Y9.193999 Z0.000000 I0.149119 J0.069535
G00 Z0.000100

(End cutting path id: path1051)

(Start cutting path id: path1049)
(Change tool to Default tool)

G00 Z0.000100
G00 X9.525968 Y9.193999

G01 Z0.000000 F100.0(Penetrate)
G03 X9.569326 Y9.250504 Z0.000000 I-0.105760 J0.126040 F400.000000
G03 X9.584742 Y9.320039 Z0.000000 I-0.149119 J0.069535
G03 X9.569326 Y9.389574 Z0.000000 I-0.164534 J-0.000000
G03 X9.525968 Y9.446079 Z0.000000 I-0.149119 J-0.069535
G00 Z0.000100

(End cutting path id: path1049)

(Start cutting path id: line1045)
(Change tool to Default tool)

G00 Z0.000100
G00 X9.525968 Y9.446079

G01 Z0.000000 F100.0(Penetrate)
G01 X9.326104 Y9.446079 Z0.000000 F400.000000
G00 Z0.000100

(End cutting path id: line1045)

(Start cutting path id: line1047)
(Change tool to Default tool)

G00 Z0.000100
G00 X9.525968 Y9.193999

G01 Z0.000000 F100.0(Penetrate)
G01 X9.326104 Y9.193999 Z0.000000 F400.000000
G00 Z0.000100

(End cutting path id: line1047)

(Start cutting path id: path939)
(Change tool to Default tool)

G00 Z0.000100
G00 X9.326104 Y8.545791

G01 Z0.000000 F100.0(Penetrate)
G03 X9.282746 Y8.489285 Z0.000000 I0.105760 J-0.126040 F400.000000
G03 X9.267330 Y8.419750 Z0.000000 I0.149119 J-0.069535
G03 X9.282746 Y8.350215 Z0.000000 I0.164534 J-0.000000
G03 X9.326104 Y8.293710 Z0.000000 I0.149119 J0.069535
G00 Z0.000100

(End cutting path id: path939)

(Start cutting path id: path937)
(Change tool to Default tool)

G00 Z0.000100
G00 X9.525968 Y8.293710

G01 Z0.000000 F100.0(Penetrate)
G03 X9.569326 Y8.350215 Z0.000000 I-0.105760 J0.126040 F400.000000
G03 X9.584742 Y8.419750 Z0.000000 I-0.149119 J0.069535
G03 X9.569326 Y8.489285 Z0.000000 I-0.164534 J0.000000
G03 X9.525968 Y8.545791 Z0.000000 I-0.149119 J-0.069535
G00 Z0.000100

(End cutting path id: path937)

(Start cutting path id: line933)
(Change tool to Default tool)

G00 Z0.000100
G00 X9.525968 Y8.545791

G01 Z0.000000 F100.0(Penetrate)
G01 X9.326104 Y8.545791 Z0.000000 F400.000000
G00 Z0.000100

(End cutting path id: line933)

(Start cutting path id: line935)
(Change tool to Default tool)

G00 Z0.000100
G00 X9.525968 Y8.293710

G01 Z0.000000 F100.0(Penetrate)
G01 X9.326104 Y8.293710 Z0.000000 F400.000000
G00 Z0.000100

(End cutting path id: line935)

(Start cutting path id: path827)
(Change tool to Default tool)

G00 Z0.000100
G00 X9.326104 Y7.645502

G01 Z0.000000 F100.0(Penetrate)
G03 X9.282746 Y7.588996 Z0.000000 I0.105760 J-0.126040 F400.000000
G03 X9.267330 Y7.519461 Z0.000000 I0.149119 J-0.069535
G03 X9.282746 Y7.449926 Z0.000000 I0.164534 J0.000000
G03 X9.326104 Y7.393421 Z0.000000 I0.149119 J0.069535
G00 Z0.000100

(End cutting path id: path827)

(Start cutting path id: path825)
(Change tool to Default tool)

G00 Z0.000100
G00 X9.525968 Y7.393421

G01 Z0.000000 F100.0(Penetrate)
G03 X9.569326 Y7.449926 Z0.000000 I-0.105760 J0.126040 F400.000000
G03 X9.584742 Y7.519461 Z0.000000 I-0.149119 J0.069535
G03 X9.569326 Y7.588996 Z0.000000 I-0.164534 J0.000000
G03 X9.525968 Y7.645502 Z0.000000 I-0.149119 J-0.069535
G00 Z0.000100

(End cutting path id: path825)

(Start cutting path id: line821)
(Change tool to Default tool)

G00 Z0.000100
G00 X9.525968 Y7.645502

G01 Z0.000000 F100.0(Penetrate)
G01 X9.326104 Y7.645502 Z0.000000 F400.000000
G00 Z0.000100

(End cutting path id: line821)

(Start cutting path id: line823)
(Change tool to Default tool)

G00 Z0.000100
G00 X9.525968 Y7.393421

G01 Z0.000000 F100.0(Penetrate)
G01 X9.326104 Y7.393421 Z0.000000 F400.000000
G00 Z0.000100

(End cutting path id: line823)

(Start cutting path id: path715)
(Change tool to Default tool)

G00 Z0.000100
G00 X9.326104 Y6.745213

G01 Z0.000000 F100.0(Penetrate)
G03 X9.282746 Y6.688707 Z0.000000 I0.105760 J-0.126040 F400.000000
G03 X9.267330 Y6.619172 Z0.000000 I0.149119 J-0.069535
G03 X9.282746 Y6.549637 Z0.000000 I0.164534 J-0.000000
G03 X9.326104 Y6.493132 Z0.000000 I0.149119 J0.069535
G00 Z0.000100

(End cutting path id: path715)

(Start cutting path id: path713)
(Change tool to Default tool)

G00 Z0.000100
G00 X9.525968 Y6.493132

G01 Z0.000000 F100.0(Penetrate)
G03 X9.569326 Y6.549637 Z0.000000 I-0.105760 J0.126040 F400.000000
G03 X9.584742 Y6.619172 Z0.000000 I-0.149119 J0.069535
G03 X9.569326 Y6.688707 Z0.000000 I-0.164534 J0.000000
G03 X9.525968 Y6.745213 Z0.000000 I-0.149119 J-0.069535
G00 Z0.000100

(End cutting path id: path713)

(Start cutting path id: line709)
(Change tool to Default tool)

G00 Z0.000100
G00 X9.525968 Y6.745213

G01 Z0.000000 F100.0(Penetrate)
G01 X9.326104 Y6.745213 Z0.000000 F400.000000
G00 Z0.000100

(End cutting path id: line709)

(Start cutting path id: line711)
(Change tool to Default tool)

G00 Z0.000100
G00 X9.525968 Y6.493132

G01 Z0.000000 F100.0(Penetrate)
G01 X9.326104 Y6.493132 Z0.000000 F400.000000
G00 Z0.000100

(End cutting path id: line711)

(Start cutting path id: path603)
(Change tool to Default tool)

G00 Z0.000100
G00 X9.326104 Y5.844924

G01 Z0.000000 F100.0(Penetrate)
G03 X9.282746 Y5.788419 Z0.000000 I0.105761 J-0.126040 F400.000000
G03 X9.267330 Y5.718884 Z0.000000 I0.149119 J-0.069535
G03 X9.282746 Y5.649348 Z0.000000 I0.164534 J-0.000000
G03 X9.326104 Y5.592843 Z0.000000 I0.149119 J0.069535
G00 Z0.000100

(End cutting path id: path603)

(Start cutting path id: path601)
(Change tool to Default tool)

G00 Z0.000100
G00 X9.525968 Y5.592843

G01 Z0.000000 F100.0(Penetrate)
G03 X9.569326 Y5.649348 Z0.000000 I-0.105761 J0.126040 F400.000000
G03 X9.584742 Y5.718884 Z0.000000 I-0.149119 J0.069535
G03 X9.569326 Y5.788419 Z0.000000 I-0.164534 J0.000000
G03 X9.525968 Y5.844924 Z0.000000 I-0.149119 J-0.069535
G00 Z0.000100

(End cutting path id: path601)

(Start cutting path id: line597)
(Change tool to Default tool)

G00 Z0.000100
G00 X9.525968 Y5.844924

G01 Z0.000000 F100.0(Penetrate)
G01 X9.326104 Y5.844924 Z0.000000 F400.000000
G00 Z0.000100

(End cutting path id: line597)

(Start cutting path id: line599)
(Change tool to Default tool)

G00 Z0.000100
G00 X9.525968 Y5.592843

G01 Z0.000000 F100.0(Penetrate)
G01 X9.326104 Y5.592843 Z0.000000 F400.000000
G00 Z0.000100

(End cutting path id: line599)

(Start cutting path id: path491)
(Change tool to Default tool)

G00 Z0.000100
G00 X9.326104 Y4.944635

G01 Z0.000000 F100.0(Penetrate)
G03 X9.282746 Y4.888130 Z0.000000 I0.105760 J-0.126040 F400.000000
G03 X9.267330 Y4.818595 Z0.000000 I0.149119 J-0.069535
G03 X9.282746 Y4.749060 Z0.000000 I0.164534 J-0.000000
G03 X9.326104 Y4.692554 Z0.000000 I0.149119 J0.069535
G00 Z0.000100

(End cutting path id: path491)

(Start cutting path id: path489)
(Change tool to Default tool)

G00 Z0.000100
G00 X9.525968 Y4.692554

G01 Z0.000000 F100.0(Penetrate)
G03 X9.569326 Y4.749060 Z0.000000 I-0.105760 J0.126040 F400.000000
G03 X9.584742 Y4.818595 Z0.000000 I-0.149119 J0.069535
G03 X9.569326 Y4.888130 Z0.000000 I-0.164534 J0.000000
G03 X9.525968 Y4.944635 Z0.000000 I-0.149119 J-0.069535
G00 Z0.000100

(End cutting path id: path489)

(Start cutting path id: line485)
(Change tool to Default tool)

G00 Z0.000100
G00 X9.525968 Y4.944635

G01 Z0.000000 F100.0(Penetrate)
G01 X9.326104 Y4.944635 Z0.000000 F400.000000
G00 Z0.000100

(End cutting path id: line485)

(Start cutting path id: line487)
(Change tool to Default tool)

G00 Z0.000100
G00 X9.525968 Y4.692554

G01 Z0.000000 F100.0(Penetrate)
G01 X9.326104 Y4.692554 Z0.000000 F400.000000
G00 Z0.000100

(End cutting path id: line487)

(Start cutting path id: path379)
(Change tool to Default tool)

G00 Z0.000100
G00 X9.326104 Y4.044346

G01 Z0.000000 F100.0(Penetrate)
G03 X9.282746 Y3.987841 Z0.000000 I0.105760 J-0.126040 F400.000000
G03 X9.267330 Y3.918306 Z0.000000 I0.149119 J-0.069535
G03 X9.282746 Y3.848771 Z0.000000 I0.164534 J0.000000
G03 X9.326104 Y3.792265 Z0.000000 I0.149119 J0.069535
G00 Z0.000100

(End cutting path id: path379)

(Start cutting path id: path377)
(Change tool to Default tool)

G00 Z0.000100
G00 X9.525968 Y3.792265

G01 Z0.000000 F100.0(Penetrate)
G03 X9.569326 Y3.848771 Z0.000000 I-0.105760 J0.126040 F400.000000
G03 X9.584742 Y3.918306 Z0.000000 I-0.149119 J0.069535
G03 X9.569326 Y3.987841 Z0.000000 I-0.164534 J0.000000
G03 X9.525968 Y4.044346 Z0.000000 I-0.149119 J-0.069535
G00 Z0.000100

(End cutting path id: path377)

(Start cutting path id: line373)
(Change tool to Default tool)

G00 Z0.000100
G00 X9.525968 Y4.044346

G01 Z0.000000 F100.0(Penetrate)
G01 X9.326104 Y4.044346 Z0.000000 F400.000000
G00 Z0.000100

(End cutting path id: line373)

(Start cutting path id: line375)
(Change tool to Default tool)

G00 Z0.000100
G00 X9.525968 Y3.792265

G01 Z0.000000 F100.0(Penetrate)
G01 X9.326104 Y3.792265 Z0.000000 F400.000000
G00 Z0.000100

(End cutting path id: line375)

(Start cutting path id: path267)
(Change tool to Default tool)

G00 Z0.000100
G00 X9.326104 Y3.144057

G01 Z0.000000 F100.0(Penetrate)
G03 X9.282746 Y3.087552 Z0.000000 I0.105760 J-0.126040 F400.000000
G03 X9.267330 Y3.018017 Z0.000000 I0.149119 J-0.069535
G03 X9.282746 Y2.948482 Z0.000000 I0.164534 J-0.000000
G03 X9.326104 Y2.891976 Z0.000000 I0.149119 J0.069535
G00 Z0.000100

(End cutting path id: path267)

(Start cutting path id: path265)
(Change tool to Default tool)

G00 Z0.000100
G00 X9.525968 Y2.891976

G01 Z0.000000 F100.0(Penetrate)
G03 X9.569326 Y2.948482 Z0.000000 I-0.105760 J0.126040 F400.000000
G03 X9.584742 Y3.018017 Z0.000000 I-0.149119 J0.069535
G03 X9.569326 Y3.087552 Z0.000000 I-0.164534 J-0.000000
G03 X9.525968 Y3.144057 Z0.000000 I-0.149119 J-0.069535
G00 Z0.000100

(End cutting path id: path265)

(Start cutting path id: line261)
(Change tool to Default tool)

G00 Z0.000100
G00 X9.525968 Y3.144057

G01 Z0.000000 F100.0(Penetrate)
G01 X9.326104 Y3.144057 Z0.000000 F400.000000
G00 Z0.000100

(End cutting path id: line261)

(Start cutting path id: line263)
(Change tool to Default tool)

G00 Z0.000100
G00 X9.525968 Y2.891976

G01 Z0.000000 F100.0(Penetrate)
G01 X9.326104 Y2.891976 Z0.000000 F400.000000
G00 Z0.000100

(End cutting path id: line263)

(Start cutting path id: path155)
(Change tool to Default tool)

G00 Z0.000100
G00 X9.326104 Y2.243768

G01 Z0.000000 F100.0(Penetrate)
G03 X9.282746 Y2.187263 Z0.000000 I0.105760 J-0.126040 F400.000000
G03 X9.267330 Y2.117728 Z0.000000 I0.149119 J-0.069535
G03 X9.282746 Y2.048193 Z0.000000 I0.164534 J0.000000
G03 X9.326104 Y1.991688 Z0.000000 I0.149119 J0.069535
G00 Z0.000100

(End cutting path id: path155)

(Start cutting path id: path153)
(Change tool to Default tool)

G00 Z0.000100
G00 X9.525968 Y1.991688

G01 Z0.000000 F100.0(Penetrate)
G03 X9.569326 Y2.048193 Z0.000000 I-0.105760 J0.126040 F400.000000
G03 X9.584742 Y2.117728 Z0.000000 I-0.149119 J0.069535
G03 X9.569326 Y2.187263 Z0.000000 I-0.164534 J0.000000
G03 X9.525968 Y2.243768 Z0.000000 I-0.149119 J-0.069535
G00 Z0.000100

(End cutting path id: path153)

(Start cutting path id: line149)
(Change tool to Default tool)

G00 Z0.000100
G00 X9.525968 Y2.243768

G01 Z0.000000 F100.0(Penetrate)
G01 X9.326104 Y2.243768 Z0.000000 F400.000000
G00 Z0.000100

(End cutting path id: line149)

(Start cutting path id: line151)
(Change tool to Default tool)

G00 Z0.000100
G00 X9.525968 Y1.991688

G01 Z0.000000 F100.0(Penetrate)
G01 X9.326104 Y1.991688 Z0.000000 F400.000000
G00 Z0.000100

(End cutting path id: line151)

(Start cutting path id: path147)
(Change tool to Default tool)

G00 Z0.000100
G00 X10.226393 Y2.243768

G01 Z0.000000 F100.0(Penetrate)
G03 X10.183035 Y2.187263 Z0.000000 I0.105760 J-0.126040 F400.000000
G03 X10.167619 Y2.117728 Z0.000000 I0.149119 J-0.069535
G03 X10.183035 Y2.048193 Z0.000000 I0.164534 J-0.000000
G03 X10.226393 Y1.991688 Z0.000000 I0.149119 J0.069535
G00 Z0.000100

(End cutting path id: path147)

(Start cutting path id: path145)
(Change tool to Default tool)

G00 Z0.000100
G00 X10.426257 Y1.991688

G01 Z0.000000 F100.0(Penetrate)
G03 X10.469615 Y2.048193 Z0.000000 I-0.105760 J0.126040 F400.000000
G03 X10.485031 Y2.117728 Z0.000000 I-0.149119 J0.069535
G03 X10.469615 Y2.187263 Z0.000000 I-0.164534 J0.000000
G03 X10.426257 Y2.243768 Z0.000000 I-0.149119 J-0.069535
G00 Z0.000100

(End cutting path id: path145)

(Start cutting path id: line141)
(Change tool to Default tool)

G00 Z0.000100
G00 X10.426257 Y2.243768

G01 Z0.000000 F100.0(Penetrate)
G01 X10.226393 Y2.243768 Z0.000000 F400.000000
G00 Z0.000100

(End cutting path id: line141)

(Start cutting path id: line143)
(Change tool to Default tool)

G00 Z0.000100
G00 X10.426257 Y1.991688

G01 Z0.000000 F100.0(Penetrate)
G01 X10.226393 Y1.991688 Z0.000000 F400.000000
G00 Z0.000100

(End cutting path id: line143)

(Start cutting path id: path257)
(Change tool to Default tool)

G00 Z0.000100
G00 X10.426257 Y2.891976

G01 Z0.000000 F100.0(Penetrate)
G03 X10.469615 Y2.948482 Z0.000000 I-0.105760 J0.126040 F400.000000
G03 X10.485031 Y3.018017 Z0.000000 I-0.149119 J0.069535
G03 X10.469615 Y3.087552 Z0.000000 I-0.164534 J0.000000
G03 X10.426257 Y3.144057 Z0.000000 I-0.149119 J-0.069535
G00 Z0.000100

(End cutting path id: path257)

(Start cutting path id: line253)
(Change tool to Default tool)

G00 Z0.000100
G00 X10.426257 Y3.144057

G01 Z0.000000 F100.0(Penetrate)
G01 X10.226393 Y3.144057 Z0.000000 F400.000000
G00 Z0.000100

(End cutting path id: line253)

(Start cutting path id: path259)
(Change tool to Default tool)

G00 Z0.000100
G00 X10.226393 Y3.144057

G01 Z0.000000 F100.0(Penetrate)
G03 X10.183035 Y3.087552 Z0.000000 I0.105760 J-0.126040 F400.000000
G03 X10.167619 Y3.018017 Z0.000000 I0.149119 J-0.069535
G03 X10.183035 Y2.948482 Z0.000000 I0.164534 J-0.000000
G03 X10.226393 Y2.891976 Z0.000000 I0.149119 J0.069535
G00 Z0.000100

(End cutting path id: path259)

(Start cutting path id: line255)
(Change tool to Default tool)

G00 Z0.000100
G00 X10.426257 Y2.891976

G01 Z0.000000 F100.0(Penetrate)
G01 X10.226393 Y2.891976 Z0.000000 F400.000000
G00 Z0.000100

(End cutting path id: line255)

(Start cutting path id: path369)
(Change tool to Default tool)

G00 Z0.000100
G00 X10.426257 Y3.792265

G01 Z0.000000 F100.0(Penetrate)
G03 X10.469615 Y3.848771 Z0.000000 I-0.105760 J0.126040 F400.000000
G03 X10.485031 Y3.918306 Z0.000000 I-0.149119 J0.069535
G03 X10.469615 Y3.987841 Z0.000000 I-0.164534 J-0.000000
G03 X10.426257 Y4.044346 Z0.000000 I-0.149119 J-0.069535
G00 Z0.000100

(End cutting path id: path369)

(Start cutting path id: line365)
(Change tool to Default tool)

G00 Z0.000100
G00 X10.426257 Y4.044346

G01 Z0.000000 F100.0(Penetrate)
G01 X10.226393 Y4.044346 Z0.000000 F400.000000
G00 Z0.000100

(End cutting path id: line365)

(Start cutting path id: path371)
(Change tool to Default tool)

G00 Z0.000100
G00 X10.226393 Y4.044346

G01 Z0.000000 F100.0(Penetrate)
G03 X10.183035 Y3.987841 Z0.000000 I0.105760 J-0.126040 F400.000000
G03 X10.167619 Y3.918306 Z0.000000 I0.149119 J-0.069535
G03 X10.183035 Y3.848771 Z0.000000 I0.164534 J-0.000000
G03 X10.226393 Y3.792265 Z0.000000 I0.149119 J0.069535
G00 Z0.000100

(End cutting path id: path371)

(Start cutting path id: line367)
(Change tool to Default tool)

G00 Z0.000100
G00 X10.426257 Y3.792265

G01 Z0.000000 F100.0(Penetrate)
G01 X10.226393 Y3.792265 Z0.000000 F400.000000
G00 Z0.000100

(End cutting path id: line367)

(Start cutting path id: path481)
(Change tool to Default tool)

G00 Z0.000100
G00 X10.426257 Y4.692554

G01 Z0.000000 F100.0(Penetrate)
G03 X10.469615 Y4.749060 Z0.000000 I-0.105760 J0.126040 F400.000000
G03 X10.485031 Y4.818595 Z0.000000 I-0.149119 J0.069535
G03 X10.469615 Y4.888130 Z0.000000 I-0.164534 J0.000000
G03 X10.426257 Y4.944635 Z0.000000 I-0.149119 J-0.069535
G00 Z0.000100

(End cutting path id: path481)

(Start cutting path id: line477)
(Change tool to Default tool)

G00 Z0.000100
G00 X10.426257 Y4.944635

G01 Z0.000000 F100.0(Penetrate)
G01 X10.226393 Y4.944635 Z0.000000 F400.000000
G00 Z0.000100

(End cutting path id: line477)

(Start cutting path id: path483)
(Change tool to Default tool)

G00 Z0.000100
G00 X10.226393 Y4.944635

G01 Z0.000000 F100.0(Penetrate)
G03 X10.183035 Y4.888130 Z0.000000 I0.105760 J-0.126040 F400.000000
G03 X10.167619 Y4.818595 Z0.000000 I0.149119 J-0.069535
G03 X10.183035 Y4.749060 Z0.000000 I0.164534 J-0.000000
G03 X10.226393 Y4.692554 Z0.000000 I0.149119 J0.069535
G00 Z0.000100

(End cutting path id: path483)

(Start cutting path id: line479)
(Change tool to Default tool)

G00 Z0.000100
G00 X10.426257 Y4.692554

G01 Z0.000000 F100.0(Penetrate)
G01 X10.226393 Y4.692554 Z0.000000 F400.000000
G00 Z0.000100

(End cutting path id: line479)

(Start cutting path id: path593)
(Change tool to Default tool)

G00 Z0.000100
G00 X10.426257 Y5.592843

G01 Z0.000000 F100.0(Penetrate)
G03 X10.469615 Y5.649348 Z0.000000 I-0.105761 J0.126040 F400.000000
G03 X10.485031 Y5.718884 Z0.000000 I-0.149119 J0.069535
G03 X10.469615 Y5.788419 Z0.000000 I-0.164534 J0.000000
G03 X10.426257 Y5.844924 Z0.000000 I-0.149119 J-0.069535
G00 Z0.000100

(End cutting path id: path593)

(Start cutting path id: line589)
(Change tool to Default tool)

G00 Z0.000100
G00 X10.426257 Y5.844924

G01 Z0.000000 F100.0(Penetrate)
G01 X10.226393 Y5.844924 Z0.000000 F400.000000
G00 Z0.000100

(End cutting path id: line589)

(Start cutting path id: path595)
(Change tool to Default tool)

G00 Z0.000100
G00 X10.226393 Y5.844924

G01 Z0.000000 F100.0(Penetrate)
G03 X10.183035 Y5.788419 Z0.000000 I0.105761 J-0.126040 F400.000000
G03 X10.167619 Y5.718884 Z0.000000 I0.149119 J-0.069535
G03 X10.183035 Y5.649348 Z0.000000 I0.164534 J-0.000000
G03 X10.226393 Y5.592843 Z0.000000 I0.149119 J0.069535
G00 Z0.000100

(End cutting path id: path595)

(Start cutting path id: line591)
(Change tool to Default tool)

G00 Z0.000100
G00 X10.426257 Y5.592843

G01 Z0.000000 F100.0(Penetrate)
G01 X10.226393 Y5.592843 Z0.000000 F400.000000
G00 Z0.000100

(End cutting path id: line591)

(Start cutting path id: path705)
(Change tool to Default tool)

G00 Z0.000100
G00 X10.426257 Y6.493132

G01 Z0.000000 F100.0(Penetrate)
G03 X10.469615 Y6.549637 Z0.000000 I-0.105760 J0.126040 F400.000000
G03 X10.485031 Y6.619172 Z0.000000 I-0.149119 J0.069535
G03 X10.469615 Y6.688707 Z0.000000 I-0.164534 J0.000000
G03 X10.426257 Y6.745213 Z0.000000 I-0.149119 J-0.069535
G00 Z0.000100

(End cutting path id: path705)

(Start cutting path id: line701)
(Change tool to Default tool)

G00 Z0.000100
G00 X10.426257 Y6.745213

G01 Z0.000000 F100.0(Penetrate)
G01 X10.226393 Y6.745213 Z0.000000 F400.000000
G00 Z0.000100

(End cutting path id: line701)

(Start cutting path id: path707)
(Change tool to Default tool)

G00 Z0.000100
G00 X10.226393 Y6.745213

G01 Z0.000000 F100.0(Penetrate)
G03 X10.183035 Y6.688707 Z0.000000 I0.105760 J-0.126040 F400.000000
G03 X10.167619 Y6.619172 Z0.000000 I0.149119 J-0.069535
G03 X10.183035 Y6.549637 Z0.000000 I0.164534 J-0.000000
G03 X10.226393 Y6.493132 Z0.000000 I0.149119 J0.069535
G00 Z0.000100

(End cutting path id: path707)

(Start cutting path id: line703)
(Change tool to Default tool)

G00 Z0.000100
G00 X10.426257 Y6.493132

G01 Z0.000000 F100.0(Penetrate)
G01 X10.226393 Y6.493132 Z0.000000 F400.000000
G00 Z0.000100

(End cutting path id: line703)

(Start cutting path id: path817)
(Change tool to Default tool)

G00 Z0.000100
G00 X10.426257 Y7.393421

G01 Z0.000000 F100.0(Penetrate)
G03 X10.469615 Y7.449926 Z0.000000 I-0.105760 J0.126040 F400.000000
G03 X10.485031 Y7.519461 Z0.000000 I-0.149119 J0.069535
G03 X10.469615 Y7.588996 Z0.000000 I-0.164534 J0.000000
G03 X10.426257 Y7.645502 Z0.000000 I-0.149119 J-0.069535
G00 Z0.000100

(End cutting path id: path817)

(Start cutting path id: line813)
(Change tool to Default tool)

G00 Z0.000100
G00 X10.426257 Y7.645502

G01 Z0.000000 F100.0(Penetrate)
G01 X10.226393 Y7.645502 Z0.000000 F400.000000
G00 Z0.000100

(End cutting path id: line813)

(Start cutting path id: path819)
(Change tool to Default tool)

G00 Z0.000100
G00 X10.226393 Y7.645502

G01 Z0.000000 F100.0(Penetrate)
G03 X10.183035 Y7.588996 Z0.000000 I0.105760 J-0.126040 F400.000000
G03 X10.167619 Y7.519461 Z0.000000 I0.149119 J-0.069535
G03 X10.183035 Y7.449926 Z0.000000 I0.164534 J0.000000
G03 X10.226393 Y7.393421 Z0.000000 I0.149119 J0.069535
G00 Z0.000100

(End cutting path id: path819)

(Start cutting path id: line815)
(Change tool to Default tool)

G00 Z0.000100
G00 X10.426257 Y7.393421

G01 Z0.000000 F100.0(Penetrate)
G01 X10.226393 Y7.393421 Z0.000000 F400.000000
G00 Z0.000100

(End cutting path id: line815)

(Start cutting path id: path929)
(Change tool to Default tool)

G00 Z0.000100
G00 X10.426257 Y8.293710

G01 Z0.000000 F100.0(Penetrate)
G03 X10.469615 Y8.350215 Z0.000000 I-0.105760 J0.126040 F400.000000
G03 X10.485031 Y8.419750 Z0.000000 I-0.149119 J0.069535
G03 X10.469615 Y8.489285 Z0.000000 I-0.164534 J-0.000000
G03 X10.426257 Y8.545791 Z0.000000 I-0.149119 J-0.069535
G00 Z0.000100

(End cutting path id: path929)

(Start cutting path id: line925)
(Change tool to Default tool)

G00 Z0.000100
G00 X10.426257 Y8.545791

G01 Z0.000000 F100.0(Penetrate)
G01 X10.226393 Y8.545791 Z0.000000 F400.000000
G00 Z0.000100

(End cutting path id: line925)

(Start cutting path id: path931)
(Change tool to Default tool)

G00 Z0.000100
G00 X10.226393 Y8.545791

G01 Z0.000000 F100.0(Penetrate)
G03 X10.183035 Y8.489285 Z0.000000 I0.105760 J-0.126040 F400.000000
G03 X10.167619 Y8.419750 Z0.000000 I0.149119 J-0.069535
G03 X10.183035 Y8.350215 Z0.000000 I0.164534 J-0.000000
G03 X10.226393 Y8.293710 Z0.000000 I0.149119 J0.069535
G00 Z0.000100

(End cutting path id: path931)

(Start cutting path id: line927)
(Change tool to Default tool)

G00 Z0.000100
G00 X10.426257 Y8.293710

G01 Z0.000000 F100.0(Penetrate)
G01 X10.226393 Y8.293710 Z0.000000 F400.000000
G00 Z0.000100

(End cutting path id: line927)

(Start cutting path id: path1041)
(Change tool to Default tool)

G00 Z0.000100
G00 X10.426257 Y9.193999

G01 Z0.000000 F100.0(Penetrate)
G03 X10.469615 Y9.250504 Z0.000000 I-0.105760 J0.126040 F400.000000
G03 X10.485031 Y9.320039 Z0.000000 I-0.149119 J0.069535
G03 X10.469615 Y9.389574 Z0.000000 I-0.164534 J0.000000
G03 X10.426257 Y9.446079 Z0.000000 I-0.149119 J-0.069535
G00 Z0.000100

(End cutting path id: path1041)

(Start cutting path id: line1037)
(Change tool to Default tool)

G00 Z0.000100
G00 X10.426257 Y9.446079

G01 Z0.000000 F100.0(Penetrate)
G01 X10.226393 Y9.446079 Z0.000000 F400.000000
G00 Z0.000100

(End cutting path id: line1037)

(Start cutting path id: path1043)
(Change tool to Default tool)

G00 Z0.000100
G00 X10.226393 Y9.446079

G01 Z0.000000 F100.0(Penetrate)
G03 X10.183035 Y9.389574 Z0.000000 I0.105760 J-0.126040 F400.000000
G03 X10.167619 Y9.320039 Z0.000000 I0.149119 J-0.069535
G03 X10.183035 Y9.250504 Z0.000000 I0.164534 J-0.000000
G03 X10.226393 Y9.193999 Z0.000000 I0.149119 J0.069535
G00 Z0.000100

(End cutting path id: path1043)

(Start cutting path id: line1039)
(Change tool to Default tool)

G00 Z0.000100
G00 X10.426257 Y9.193999

G01 Z0.000000 F100.0(Penetrate)
G01 X10.226393 Y9.193999 Z0.000000 F400.000000
G00 Z0.000100

(End cutting path id: line1039)

(Start cutting path id: path1153)
(Change tool to Default tool)

G00 Z0.000100
G00 X10.426257 Y10.094287

G01 Z0.000000 F100.0(Penetrate)
G03 X10.469615 Y10.150793 Z0.000000 I-0.105760 J0.126040 F400.000000
G03 X10.485031 Y10.220328 Z0.000000 I-0.149119 J0.069535
G03 X10.469615 Y10.289863 Z0.000000 I-0.164534 J0.000000
G03 X10.426257 Y10.346368 Z0.000000 I-0.149119 J-0.069535
G00 Z0.000100

(End cutting path id: path1153)

(Start cutting path id: line1149)
(Change tool to Default tool)

G00 Z0.000100
G00 X10.426257 Y10.346369

G01 Z0.000000 F100.0(Penetrate)
G01 X10.226393 Y10.346369 Z0.000000 F400.000000
G00 Z0.000100

(End cutting path id: line1149)

(Start cutting path id: path1155)
(Change tool to Default tool)

G00 Z0.000100
G00 X10.226393 Y10.346368

G01 Z0.000000 F100.0(Penetrate)
G03 X10.183035 Y10.289863 Z0.000000 I0.105760 J-0.126040 F400.000000
G03 X10.167619 Y10.220328 Z0.000000 I0.149119 J-0.069535
G03 X10.183035 Y10.150793 Z0.000000 I0.164534 J-0.000000
G03 X10.226393 Y10.094287 Z0.000000 I0.149119 J0.069535
G00 Z0.000100

(End cutting path id: path1155)

(Start cutting path id: line1151)
(Change tool to Default tool)

G00 Z0.000100
G00 X10.426257 Y10.094288

G01 Z0.000000 F100.0(Penetrate)
G01 X10.226393 Y10.094288 Z0.000000 F400.000000
G00 Z0.000100

(End cutting path id: line1151)

(Start cutting path id: path1265)
(Change tool to Default tool)

G00 Z0.000100
G00 X10.426257 Y10.994576

G01 Z0.000000 F100.0(Penetrate)
G03 X10.469615 Y11.051082 Z0.000000 I-0.105760 J0.126040 F400.000000
G03 X10.485031 Y11.120617 Z0.000000 I-0.149119 J0.069535
G03 X10.469615 Y11.190152 Z0.000000 I-0.164534 J-0.000000
G03 X10.426257 Y11.246657 Z0.000000 I-0.149119 J-0.069535
G00 Z0.000100

(End cutting path id: path1265)

(Start cutting path id: line1261)
(Change tool to Default tool)

G00 Z0.000100
G00 X10.426257 Y11.246657

G01 Z0.000000 F100.0(Penetrate)
G01 X10.226393 Y11.246657 Z0.000000 F400.000000
G00 Z0.000100

(End cutting path id: line1261)

(Start cutting path id: path1267)
(Change tool to Default tool)

G00 Z0.000100
G00 X10.226393 Y11.246657

G01 Z0.000000 F100.0(Penetrate)
G03 X10.183035 Y11.190152 Z0.000000 I0.105760 J-0.126040 F400.000000
G03 X10.167619 Y11.120617 Z0.000000 I0.149119 J-0.069535
G03 X10.183035 Y11.051082 Z0.000000 I0.164534 J-0.000000
G03 X10.226393 Y10.994576 Z0.000000 I0.149119 J0.069535
G00 Z0.000100

(End cutting path id: path1267)

(Start cutting path id: line1263)
(Change tool to Default tool)

G00 Z0.000100
G00 X10.426257 Y10.994577

G01 Z0.000000 F100.0(Penetrate)
G01 X10.226393 Y10.994577 Z0.000000 F400.000000
G00 Z0.000100

(End cutting path id: line1263)

(Start cutting path id: line1375)
(Change tool to Default tool)

G00 Z0.000100
G00 X10.426257 Y11.894865

G01 Z0.000000 F100.0(Penetrate)
G01 X10.226393 Y11.894865 Z0.000000 F400.000000
G00 Z0.000100

(End cutting path id: line1375)

(Start cutting path id: path1377)
(Change tool to Default tool)

G00 Z0.000100
G00 X10.426257 Y11.894865

G01 Z0.000000 F100.0(Penetrate)
G03 X10.469615 Y11.951371 Z0.000000 I-0.105760 J0.126040 F400.000000
G03 X10.485031 Y12.020906 Z0.000000 I-0.149119 J0.069535
G03 X10.469615 Y12.090441 Z0.000000 I-0.164534 J-0.000000
G03 X10.426257 Y12.146946 Z0.000000 I-0.149119 J-0.069535
G00 Z0.000100

(End cutting path id: path1377)

(Start cutting path id: line1373)
(Change tool to Default tool)

G00 Z0.000100
G00 X10.426257 Y12.146945

G01 Z0.000000 F100.0(Penetrate)
G01 X10.226393 Y12.146945 Z0.000000 F400.000000
G00 Z0.000100

(End cutting path id: line1373)

(Start cutting path id: path1379)
(Change tool to Default tool)

G00 Z0.000100
G00 X10.226393 Y12.146946

G01 Z0.000000 F100.0(Penetrate)
G03 X10.183035 Y12.090441 Z0.000000 I0.105760 J-0.126040 F400.000000
G03 X10.167619 Y12.020906 Z0.000000 I0.149119 J-0.069535
G03 X10.183035 Y11.951371 Z0.000000 I0.164534 J-0.000000
G03 X10.226393 Y11.894865 Z0.000000 I0.149119 J0.069535
G00 Z0.000100

(End cutting path id: path1379)

(Start cutting path id: line1487)
(Change tool to Default tool)

G00 Z0.000100
G00 X10.426257 Y12.795153

G01 Z0.000000 F100.0(Penetrate)
G01 X10.226393 Y12.795153 Z0.000000 F400.000000
G00 Z0.000100

(End cutting path id: line1487)

(Start cutting path id: path1489)
(Change tool to Default tool)

G00 Z0.000100
G00 X10.426257 Y12.795154

G01 Z0.000000 F100.0(Penetrate)
G03 X10.469615 Y12.851659 Z0.000000 I-0.105760 J0.126040 F400.000000
G03 X10.485031 Y12.921195 Z0.000000 I-0.149119 J0.069535
G03 X10.469615 Y12.990730 Z0.000000 I-0.164534 J0.000000
G03 X10.426257 Y13.047235 Z0.000000 I-0.149119 J-0.069535
G00 Z0.000100

(End cutting path id: path1489)

(Start cutting path id: line1485)
(Change tool to Default tool)

G00 Z0.000100
G00 X10.426257 Y13.047234

G01 Z0.000000 F100.0(Penetrate)
G01 X10.226393 Y13.047234 Z0.000000 F400.000000
G00 Z0.000100

(End cutting path id: line1485)

(Start cutting path id: path1491)
(Change tool to Default tool)

G00 Z0.000100
G00 X10.226393 Y13.047235

G01 Z0.000000 F100.0(Penetrate)
G03 X10.183035 Y12.990730 Z0.000000 I0.105760 J-0.126040 F400.000000
G03 X10.167619 Y12.921195 Z0.000000 I0.149119 J-0.069535
G03 X10.183035 Y12.851659 Z0.000000 I0.164534 J0.000000
G03 X10.226393 Y12.795154 Z0.000000 I0.149119 J0.069535
G00 Z0.000100

(End cutting path id: path1491)

(Start cutting path id: path1601)
(Change tool to Default tool)

G00 Z0.000100
G00 X10.426257 Y13.695443

G01 Z0.000000 F100.0(Penetrate)
G03 X10.469615 Y13.751948 Z0.000000 I-0.105760 J0.126040 F400.000000
G03 X10.485031 Y13.821483 Z0.000000 I-0.149119 J0.069535
G03 X10.469615 Y13.891019 Z0.000000 I-0.164534 J0.000000
G03 X10.426257 Y13.947524 Z0.000000 I-0.149119 J-0.069535
G00 Z0.000100

(End cutting path id: path1601)

(Start cutting path id: line1597)
(Change tool to Default tool)

G00 Z0.000100
G00 X10.426257 Y13.947524

G01 Z0.000000 F100.0(Penetrate)
G01 X10.226393 Y13.947524 Z0.000000 F400.000000
G00 Z0.000100

(End cutting path id: line1597)

(Start cutting path id: path1603)
(Change tool to Default tool)

G00 Z0.000100
G00 X10.226393 Y13.947524

G01 Z0.000000 F100.0(Penetrate)
G03 X10.183035 Y13.891019 Z0.000000 I0.105760 J-0.126040 F400.000000
G03 X10.167619 Y13.821483 Z0.000000 I0.149119 J-0.069535
G03 X10.183035 Y13.751948 Z0.000000 I0.164534 J0.000000
G03 X10.226393 Y13.695443 Z0.000000 I0.149119 J0.069535
G00 Z0.000100

(End cutting path id: path1603)

(Start cutting path id: line1599)
(Change tool to Default tool)

G00 Z0.000100
G00 X10.426257 Y13.695443

G01 Z0.000000 F100.0(Penetrate)
G01 X10.226393 Y13.695443 Z0.000000 F400.000000
G00 Z0.000100

(End cutting path id: line1599)

(Start cutting path id: path1713)
(Change tool to Default tool)

G00 Z0.000100
G00 X10.426257 Y14.595732

G01 Z0.000000 F100.0(Penetrate)
G03 X10.469615 Y14.652237 Z0.000000 I-0.105760 J0.126040 F400.000000
G03 X10.485031 Y14.721772 Z0.000000 I-0.149119 J0.069535
G03 X10.469615 Y14.791307 Z0.000000 I-0.164534 J-0.000000
G03 X10.426257 Y14.847813 Z0.000000 I-0.149119 J-0.069535
G00 Z0.000100

(End cutting path id: path1713)

(Start cutting path id: line1709)
(Change tool to Default tool)

G00 Z0.000100
G00 X10.426257 Y14.847813

G01 Z0.000000 F100.0(Penetrate)
G01 X10.226393 Y14.847813 Z0.000000 F400.000000
G00 Z0.000100

(End cutting path id: line1709)

(Start cutting path id: path1715)
(Change tool to Default tool)

G00 Z0.000100
G00 X10.226393 Y14.847813

G01 Z0.000000 F100.0(Penetrate)
G03 X10.183035 Y14.791307 Z0.000000 I0.105760 J-0.126040 F400.000000
G03 X10.167619 Y14.721772 Z0.000000 I0.149119 J-0.069535
G03 X10.183035 Y14.652237 Z0.000000 I0.164534 J-0.000000
G03 X10.226393 Y14.595732 Z0.000000 I0.149119 J0.069535
G00 Z0.000100

(End cutting path id: path1715)

(Start cutting path id: line1711)
(Change tool to Default tool)

G00 Z0.000100
G00 X10.426257 Y14.595732

G01 Z0.000000 F100.0(Penetrate)
G01 X10.226393 Y14.595732 Z0.000000 F400.000000
G00 Z0.000100

(End cutting path id: line1711)

(Start cutting path id: path1707)
(Change tool to Default tool)

G00 Z0.000100
G00 X11.126682 Y14.847813

G01 Z0.000000 F100.0(Penetrate)
G03 X11.083324 Y14.791307 Z0.000000 I0.105760 J-0.126040 F400.000000
G03 X11.067908 Y14.721772 Z0.000000 I0.149119 J-0.069535
G03 X11.083324 Y14.652237 Z0.000000 I0.164534 J-0.000000
G03 X11.126682 Y14.595732 Z0.000000 I0.149119 J0.069535
G00 Z0.000100

(End cutting path id: path1707)

(Start cutting path id: path1705)
(Change tool to Default tool)

G00 Z0.000100
G00 X11.326546 Y14.595732

G01 Z0.000000 F100.0(Penetrate)
G03 X11.369904 Y14.652237 Z0.000000 I-0.105760 J0.126040 F400.000000
G03 X11.385319 Y14.721772 Z0.000000 I-0.149119 J0.069535
G03 X11.369904 Y14.791307 Z0.000000 I-0.164534 J-0.000000
G03 X11.326546 Y14.847813 Z0.000000 I-0.149119 J-0.069535
G00 Z0.000100

(End cutting path id: path1705)

(Start cutting path id: line1701)
(Change tool to Default tool)

G00 Z0.000100
G00 X11.326546 Y14.847813

G01 Z0.000000 F100.0(Penetrate)
G01 X11.126682 Y14.847813 Z0.000000 F400.000000
G00 Z0.000100

(End cutting path id: line1701)

(Start cutting path id: line1703)
(Change tool to Default tool)

G00 Z0.000100
G00 X11.326546 Y14.595732

G01 Z0.000000 F100.0(Penetrate)
G01 X11.126682 Y14.595732 Z0.000000 F400.000000
G00 Z0.000100

(End cutting path id: line1703)

(Start cutting path id: path1595)
(Change tool to Default tool)

G00 Z0.000100
G00 X11.126682 Y13.947524

G01 Z0.000000 F100.0(Penetrate)
G03 X11.083324 Y13.891019 Z0.000000 I0.105760 J-0.126040 F400.000000
G03 X11.067908 Y13.821483 Z0.000000 I0.149119 J-0.069535
G03 X11.083324 Y13.751948 Z0.000000 I0.164534 J-0.000000
G03 X11.126682 Y13.695443 Z0.000000 I0.149119 J0.069535
G00 Z0.000100

(End cutting path id: path1595)

(Start cutting path id: path1593)
(Change tool to Default tool)

G00 Z0.000100
G00 X11.326546 Y13.695443

G01 Z0.000000 F100.0(Penetrate)
G03 X11.369904 Y13.751948 Z0.000000 I-0.105760 J0.126040 F400.000000
G03 X11.385319 Y13.821483 Z0.000000 I-0.149119 J0.069535
G03 X11.369904 Y13.891019 Z0.000000 I-0.164534 J0.000000
G03 X11.326546 Y13.947524 Z0.000000 I-0.149119 J-0.069535
G00 Z0.000100

(End cutting path id: path1593)

(Start cutting path id: line1589)
(Change tool to Default tool)

G00 Z0.000100
G00 X11.326546 Y13.947524

G01 Z0.000000 F100.0(Penetrate)
G01 X11.126682 Y13.947524 Z0.000000 F400.000000
G00 Z0.000100

(End cutting path id: line1589)

(Start cutting path id: line1591)
(Change tool to Default tool)

G00 Z0.000100
G00 X11.326546 Y13.695443

G01 Z0.000000 F100.0(Penetrate)
G01 X11.126682 Y13.695443 Z0.000000 F400.000000
G00 Z0.000100

(End cutting path id: line1591)

(Start cutting path id: path1483)
(Change tool to Default tool)

G00 Z0.000100
G00 X11.126682 Y13.047235

G01 Z0.000000 F100.0(Penetrate)
G03 X11.083324 Y12.990730 Z0.000000 I0.105760 J-0.126040 F400.000000
G03 X11.067908 Y12.921195 Z0.000000 I0.149119 J-0.069535
G03 X11.083324 Y12.851659 Z0.000000 I0.164534 J-0.000000
G03 X11.126682 Y12.795154 Z0.000000 I0.149119 J0.069535
G00 Z0.000100

(End cutting path id: path1483)

(Start cutting path id: path1481)
(Change tool to Default tool)

G00 Z0.000100
G00 X11.326546 Y12.795154

G01 Z0.000000 F100.0(Penetrate)
G03 X11.369904 Y12.851659 Z0.000000 I-0.105760 J0.126040 F400.000000
G03 X11.385319 Y12.921195 Z0.000000 I-0.149119 J0.069535
G03 X11.369904 Y12.990730 Z0.000000 I-0.164534 J0.000000
G03 X11.326546 Y13.047235 Z0.000000 I-0.149119 J-0.069535
G00 Z0.000100

(End cutting path id: path1481)

(Start cutting path id: line1477)
(Change tool to Default tool)

G00 Z0.000100
G00 X11.326546 Y13.047234

G01 Z0.000000 F100.0(Penetrate)
G01 X11.126682 Y13.047234 Z0.000000 F400.000000
G00 Z0.000100

(End cutting path id: line1477)

(Start cutting path id: line1479)
(Change tool to Default tool)

G00 Z0.000100
G00 X11.326546 Y12.795153

G01 Z0.000000 F100.0(Penetrate)
G01 X11.126682 Y12.795153 Z0.000000 F400.000000
G00 Z0.000100

(End cutting path id: line1479)

(Start cutting path id: path1371)
(Change tool to Default tool)

G00 Z0.000100
G00 X11.126682 Y12.146946

G01 Z0.000000 F100.0(Penetrate)
G03 X11.083324 Y12.090441 Z0.000000 I0.105760 J-0.126040 F400.000000
G03 X11.067908 Y12.020906 Z0.000000 I0.149119 J-0.069535
G03 X11.083324 Y11.951371 Z0.000000 I0.164534 J-0.000000
G03 X11.126682 Y11.894865 Z0.000000 I0.149119 J0.069535
G00 Z0.000100

(End cutting path id: path1371)

(Start cutting path id: path1369)
(Change tool to Default tool)

G00 Z0.000100
G00 X11.326546 Y11.894865

G01 Z0.000000 F100.0(Penetrate)
G03 X11.369904 Y11.951371 Z0.000000 I-0.105760 J0.126040 F400.000000
G03 X11.385319 Y12.020906 Z0.000000 I-0.149119 J0.069535
G03 X11.369904 Y12.090441 Z0.000000 I-0.164534 J-0.000000
G03 X11.326546 Y12.146946 Z0.000000 I-0.149119 J-0.069535
G00 Z0.000100

(End cutting path id: path1369)

(Start cutting path id: line1365)
(Change tool to Default tool)

G00 Z0.000100
G00 X11.326546 Y12.146945

G01 Z0.000000 F100.0(Penetrate)
G01 X11.126682 Y12.146945 Z0.000000 F400.000000
G00 Z0.000100

(End cutting path id: line1365)

(Start cutting path id: line1367)
(Change tool to Default tool)

G00 Z0.000100
G00 X11.326546 Y11.894865

G01 Z0.000000 F100.0(Penetrate)
G01 X11.126682 Y11.894865 Z0.000000 F400.000000
G00 Z0.000100

(End cutting path id: line1367)

(Start cutting path id: path1259)
(Change tool to Default tool)

G00 Z0.000100
G00 X11.126682 Y11.246657

G01 Z0.000000 F100.0(Penetrate)
G03 X11.083324 Y11.190152 Z0.000000 I0.105760 J-0.126040 F400.000000
G03 X11.067908 Y11.120617 Z0.000000 I0.149119 J-0.069535
G03 X11.083324 Y11.051082 Z0.000000 I0.164534 J-0.000000
G03 X11.126682 Y10.994576 Z0.000000 I0.149119 J0.069535
G00 Z0.000100

(End cutting path id: path1259)

(Start cutting path id: path1257)
(Change tool to Default tool)

G00 Z0.000100
G00 X11.326546 Y10.994576

G01 Z0.000000 F100.0(Penetrate)
G03 X11.369904 Y11.051082 Z0.000000 I-0.105760 J0.126040 F400.000000
G03 X11.385319 Y11.120617 Z0.000000 I-0.149119 J0.069535
G03 X11.369904 Y11.190152 Z0.000000 I-0.164534 J-0.000000
G03 X11.326546 Y11.246657 Z0.000000 I-0.149119 J-0.069535
G00 Z0.000100

(End cutting path id: path1257)

(Start cutting path id: line1253)
(Change tool to Default tool)

G00 Z0.000100
G00 X11.326546 Y11.246657

G01 Z0.000000 F100.0(Penetrate)
G01 X11.126682 Y11.246657 Z0.000000 F400.000000
G00 Z0.000100

(End cutting path id: line1253)

(Start cutting path id: line1255)
(Change tool to Default tool)

G00 Z0.000100
G00 X11.326546 Y10.994577

G01 Z0.000000 F100.0(Penetrate)
G01 X11.126682 Y10.994577 Z0.000000 F400.000000
G00 Z0.000100

(End cutting path id: line1255)

(Start cutting path id: path1147)
(Change tool to Default tool)

G00 Z0.000100
G00 X11.126682 Y10.346368

G01 Z0.000000 F100.0(Penetrate)
G03 X11.083324 Y10.289863 Z0.000000 I0.105760 J-0.126040 F400.000000
G03 X11.067908 Y10.220328 Z0.000000 I0.149119 J-0.069535
G03 X11.083324 Y10.150793 Z0.000000 I0.164534 J-0.000000
G03 X11.126682 Y10.094287 Z0.000000 I0.149119 J0.069535
G00 Z0.000100

(End cutting path id: path1147)

(Start cutting path id: path1145)
(Change tool to Default tool)

G00 Z0.000100
G00 X11.326546 Y10.094287

G01 Z0.000000 F100.0(Penetrate)
G03 X11.369904 Y10.150793 Z0.000000 I-0.105760 J0.126040 F400.000000
G03 X11.385319 Y10.220328 Z0.000000 I-0.149119 J0.069535
G03 X11.369904 Y10.289863 Z0.000000 I-0.164534 J0.000000
G03 X11.326546 Y10.346368 Z0.000000 I-0.149119 J-0.069535
G00 Z0.000100

(End cutting path id: path1145)

(Start cutting path id: line1141)
(Change tool to Default tool)

G00 Z0.000100
G00 X11.326546 Y10.346369

G01 Z0.000000 F100.0(Penetrate)
G01 X11.126682 Y10.346369 Z0.000000 F400.000000
G00 Z0.000100

(End cutting path id: line1141)

(Start cutting path id: line1143)
(Change tool to Default tool)

G00 Z0.000100
G00 X11.326546 Y10.094288

G01 Z0.000000 F100.0(Penetrate)
G01 X11.126682 Y10.094288 Z0.000000 F400.000000
G00 Z0.000100

(End cutting path id: line1143)

(Start cutting path id: path1035)
(Change tool to Default tool)

G00 Z0.000100
G00 X11.126682 Y9.446079

G01 Z0.000000 F100.0(Penetrate)
G03 X11.083324 Y9.389574 Z0.000000 I0.105760 J-0.126040 F400.000000
G03 X11.067908 Y9.320039 Z0.000000 I0.149119 J-0.069535
G03 X11.083324 Y9.250504 Z0.000000 I0.164534 J-0.000000
G03 X11.126682 Y9.193999 Z0.000000 I0.149119 J0.069535
G00 Z0.000100

(End cutting path id: path1035)

(Start cutting path id: path1033)
(Change tool to Default tool)

G00 Z0.000100
G00 X11.326546 Y9.193999

G01 Z0.000000 F100.0(Penetrate)
G03 X11.369904 Y9.250504 Z0.000000 I-0.105760 J0.126040 F400.000000
G03 X11.385319 Y9.320039 Z0.000000 I-0.149119 J0.069535
G03 X11.369904 Y9.389574 Z0.000000 I-0.164534 J0.000000
G03 X11.326546 Y9.446079 Z0.000000 I-0.149119 J-0.069535
G00 Z0.000100

(End cutting path id: path1033)

(Start cutting path id: line1029)
(Change tool to Default tool)

G00 Z0.000100
G00 X11.326546 Y9.446079

G01 Z0.000000 F100.0(Penetrate)
G01 X11.126682 Y9.446079 Z0.000000 F400.000000
G00 Z0.000100

(End cutting path id: line1029)

(Start cutting path id: line1031)
(Change tool to Default tool)

G00 Z0.000100
G00 X11.326546 Y9.193999

G01 Z0.000000 F100.0(Penetrate)
G01 X11.126682 Y9.193999 Z0.000000 F400.000000
G00 Z0.000100

(End cutting path id: line1031)

(Start cutting path id: path923)
(Change tool to Default tool)

G00 Z0.000100
G00 X11.126682 Y8.545791

G01 Z0.000000 F100.0(Penetrate)
G03 X11.083324 Y8.489285 Z0.000000 I0.105760 J-0.126040 F400.000000
G03 X11.067908 Y8.419750 Z0.000000 I0.149119 J-0.069535
G03 X11.083324 Y8.350215 Z0.000000 I0.164534 J-0.000000
G03 X11.126682 Y8.293710 Z0.000000 I0.149119 J0.069535
G00 Z0.000100

(End cutting path id: path923)

(Start cutting path id: path921)
(Change tool to Default tool)

G00 Z0.000100
G00 X11.326546 Y8.293710

G01 Z0.000000 F100.0(Penetrate)
G03 X11.369904 Y8.350215 Z0.000000 I-0.105760 J0.126040 F400.000000
G03 X11.385319 Y8.419750 Z0.000000 I-0.149119 J0.069535
G03 X11.369904 Y8.489285 Z0.000000 I-0.164534 J-0.000000
G03 X11.326546 Y8.545791 Z0.000000 I-0.149119 J-0.069535
G00 Z0.000100

(End cutting path id: path921)

(Start cutting path id: line917)
(Change tool to Default tool)

G00 Z0.000100
G00 X11.326546 Y8.545791

G01 Z0.000000 F100.0(Penetrate)
G01 X11.126682 Y8.545791 Z0.000000 F400.000000
G00 Z0.000100

(End cutting path id: line917)

(Start cutting path id: line919)
(Change tool to Default tool)

G00 Z0.000100
G00 X11.326546 Y8.293710

G01 Z0.000000 F100.0(Penetrate)
G01 X11.126682 Y8.293710 Z0.000000 F400.000000
G00 Z0.000100

(End cutting path id: line919)

(Start cutting path id: path811)
(Change tool to Default tool)

G00 Z0.000100
G00 X11.126682 Y7.645502

G01 Z0.000000 F100.0(Penetrate)
G03 X11.083324 Y7.588996 Z0.000000 I0.105760 J-0.126040 F400.000000
G03 X11.067908 Y7.519461 Z0.000000 I0.149119 J-0.069535
G03 X11.083324 Y7.449926 Z0.000000 I0.164534 J0.000000
G03 X11.126682 Y7.393421 Z0.000000 I0.149119 J0.069535
G00 Z0.000100

(End cutting path id: path811)

(Start cutting path id: path809)
(Change tool to Default tool)

G00 Z0.000100
G00 X11.326546 Y7.393421

G01 Z0.000000 F100.0(Penetrate)
G03 X11.369904 Y7.449926 Z0.000000 I-0.105760 J0.126040 F400.000000
G03 X11.385319 Y7.519461 Z0.000000 I-0.149119 J0.069535
G03 X11.369904 Y7.588996 Z0.000000 I-0.164534 J0.000000
G03 X11.326546 Y7.645502 Z0.000000 I-0.149119 J-0.069535
G00 Z0.000100

(End cutting path id: path809)

(Start cutting path id: line805)
(Change tool to Default tool)

G00 Z0.000100
G00 X11.326546 Y7.645502

G01 Z0.000000 F100.0(Penetrate)
G01 X11.126682 Y7.645502 Z0.000000 F400.000000
G00 Z0.000100

(End cutting path id: line805)

(Start cutting path id: line807)
(Change tool to Default tool)

G00 Z0.000100
G00 X11.326546 Y7.393421

G01 Z0.000000 F100.0(Penetrate)
G01 X11.126682 Y7.393421 Z0.000000 F400.000000
G00 Z0.000100

(End cutting path id: line807)

(Start cutting path id: path699)
(Change tool to Default tool)

G00 Z0.000100
G00 X11.126682 Y6.745213

G01 Z0.000000 F100.0(Penetrate)
G03 X11.083324 Y6.688707 Z0.000000 I0.105760 J-0.126040 F400.000000
G03 X11.067908 Y6.619172 Z0.000000 I0.149119 J-0.069535
G03 X11.083324 Y6.549637 Z0.000000 I0.164534 J-0.000000
G03 X11.126682 Y6.493132 Z0.000000 I0.149119 J0.069535
G00 Z0.000100

(End cutting path id: path699)

(Start cutting path id: path697)
(Change tool to Default tool)

G00 Z0.000100
G00 X11.326546 Y6.493132

G01 Z0.000000 F100.0(Penetrate)
G03 X11.369904 Y6.549637 Z0.000000 I-0.105760 J0.126040 F400.000000
G03 X11.385319 Y6.619172 Z0.000000 I-0.149119 J0.069535
G03 X11.369904 Y6.688707 Z0.000000 I-0.164534 J-0.000000
G03 X11.326546 Y6.745213 Z0.000000 I-0.149119 J-0.069535
G00 Z0.000100

(End cutting path id: path697)

(Start cutting path id: line693)
(Change tool to Default tool)

G00 Z0.000100
G00 X11.326546 Y6.745213

G01 Z0.000000 F100.0(Penetrate)
G01 X11.126682 Y6.745213 Z0.000000 F400.000000
G00 Z0.000100

(End cutting path id: line693)

(Start cutting path id: line695)
(Change tool to Default tool)

G00 Z0.000100
G00 X11.326546 Y6.493132

G01 Z0.000000 F100.0(Penetrate)
G01 X11.126682 Y6.493132 Z0.000000 F400.000000
G00 Z0.000100

(End cutting path id: line695)

(Start cutting path id: path587)
(Change tool to Default tool)

G00 Z0.000100
G00 X11.126682 Y5.844924

G01 Z0.000000 F100.0(Penetrate)
G03 X11.083324 Y5.788419 Z0.000000 I0.105761 J-0.126040 F400.000000
G03 X11.067908 Y5.718884 Z0.000000 I0.149119 J-0.069535
G03 X11.083324 Y5.649348 Z0.000000 I0.164534 J-0.000000
G03 X11.126682 Y5.592843 Z0.000000 I0.149119 J0.069535
G00 Z0.000100

(End cutting path id: path587)

(Start cutting path id: path585)
(Change tool to Default tool)

G00 Z0.000100
G00 X11.326546 Y5.592843

G01 Z0.000000 F100.0(Penetrate)
G03 X11.369904 Y5.649348 Z0.000000 I-0.105761 J0.126040 F400.000000
G03 X11.385319 Y5.718884 Z0.000000 I-0.149119 J0.069535
G03 X11.369904 Y5.788419 Z0.000000 I-0.164534 J0.000000
G03 X11.326546 Y5.844924 Z0.000000 I-0.149119 J-0.069535
G00 Z0.000100

(End cutting path id: path585)

(Start cutting path id: line581)
(Change tool to Default tool)

G00 Z0.000100
G00 X11.326546 Y5.844924

G01 Z0.000000 F100.0(Penetrate)
G01 X11.126682 Y5.844924 Z0.000000 F400.000000
G00 Z0.000100

(End cutting path id: line581)

(Start cutting path id: line583)
(Change tool to Default tool)

G00 Z0.000100
G00 X11.326546 Y5.592843

G01 Z0.000000 F100.0(Penetrate)
G01 X11.126682 Y5.592843 Z0.000000 F400.000000
G00 Z0.000100

(End cutting path id: line583)

(Start cutting path id: path475)
(Change tool to Default tool)

G00 Z0.000100
G00 X11.126682 Y4.944635

G01 Z0.000000 F100.0(Penetrate)
G03 X11.083324 Y4.888130 Z0.000000 I0.105760 J-0.126040 F400.000000
G03 X11.067908 Y4.818595 Z0.000000 I0.149119 J-0.069535
G03 X11.083324 Y4.749060 Z0.000000 I0.164534 J0.000000
G03 X11.126682 Y4.692554 Z0.000000 I0.149119 J0.069535
G00 Z0.000100

(End cutting path id: path475)

(Start cutting path id: path473)
(Change tool to Default tool)

G00 Z0.000100
G00 X11.326546 Y4.692554

G01 Z0.000000 F100.0(Penetrate)
G03 X11.369904 Y4.749060 Z0.000000 I-0.105760 J0.126040 F400.000000
G03 X11.385319 Y4.818595 Z0.000000 I-0.149119 J0.069535
G03 X11.369904 Y4.888130 Z0.000000 I-0.164534 J-0.000000
G03 X11.326546 Y4.944635 Z0.000000 I-0.149119 J-0.069535
G00 Z0.000100

(End cutting path id: path473)

(Start cutting path id: line469)
(Change tool to Default tool)

G00 Z0.000100
G00 X11.326546 Y4.944635

G01 Z0.000000 F100.0(Penetrate)
G01 X11.126682 Y4.944635 Z0.000000 F400.000000
G00 Z0.000100

(End cutting path id: line469)

(Start cutting path id: line471)
(Change tool to Default tool)

G00 Z0.000100
G00 X11.326546 Y4.692554

G01 Z0.000000 F100.0(Penetrate)
G01 X11.126682 Y4.692554 Z0.000000 F400.000000
G00 Z0.000100

(End cutting path id: line471)

(Start cutting path id: path363)
(Change tool to Default tool)

G00 Z0.000100
G00 X11.126682 Y4.044346

G01 Z0.000000 F100.0(Penetrate)
G03 X11.083324 Y3.987841 Z0.000000 I0.105760 J-0.126040 F400.000000
G03 X11.067908 Y3.918306 Z0.000000 I0.149119 J-0.069535
G03 X11.083324 Y3.848771 Z0.000000 I0.164534 J-0.000000
G03 X11.126682 Y3.792265 Z0.000000 I0.149119 J0.069535
G00 Z0.000100

(End cutting path id: path363)

(Start cutting path id: path361)
(Change tool to Default tool)

G00 Z0.000100
G00 X11.326546 Y3.792265

G01 Z0.000000 F100.0(Penetrate)
G03 X11.369904 Y3.848771 Z0.000000 I-0.105760 J0.126040 F400.000000
G03 X11.385319 Y3.918306 Z0.000000 I-0.149119 J0.069535
G03 X11.369904 Y3.987841 Z0.000000 I-0.164534 J0.000000
G03 X11.326546 Y4.044346 Z0.000000 I-0.149119 J-0.069535
G00 Z0.000100

(End cutting path id: path361)

(Start cutting path id: line357)
(Change tool to Default tool)

G00 Z0.000100
G00 X11.326546 Y4.044346

G01 Z0.000000 F100.0(Penetrate)
G01 X11.126682 Y4.044346 Z0.000000 F400.000000
G00 Z0.000100

(End cutting path id: line357)

(Start cutting path id: line359)
(Change tool to Default tool)

G00 Z0.000100
G00 X11.326546 Y3.792265

G01 Z0.000000 F100.0(Penetrate)
G01 X11.126682 Y3.792265 Z0.000000 F400.000000
G00 Z0.000100

(End cutting path id: line359)

(Start cutting path id: path251)
(Change tool to Default tool)

G00 Z0.000100
G00 X11.126682 Y3.144057

G01 Z0.000000 F100.0(Penetrate)
G03 X11.083324 Y3.087552 Z0.000000 I0.105760 J-0.126040 F400.000000
G03 X11.067908 Y3.018017 Z0.000000 I0.149119 J-0.069535
G03 X11.083324 Y2.948482 Z0.000000 I0.164534 J-0.000000
G03 X11.126682 Y2.891976 Z0.000000 I0.149119 J0.069535
G00 Z0.000100

(End cutting path id: path251)

(Start cutting path id: path249)
(Change tool to Default tool)

G00 Z0.000100
G00 X11.326546 Y2.891976

G01 Z0.000000 F100.0(Penetrate)
G03 X11.369904 Y2.948482 Z0.000000 I-0.105760 J0.126040 F400.000000
G03 X11.385319 Y3.018017 Z0.000000 I-0.149119 J0.069535
G03 X11.369904 Y3.087552 Z0.000000 I-0.164534 J0.000000
G03 X11.326546 Y3.144057 Z0.000000 I-0.149119 J-0.069535
G00 Z0.000100

(End cutting path id: path249)

(Start cutting path id: line245)
(Change tool to Default tool)

G00 Z0.000100
G00 X11.326546 Y3.144057

G01 Z0.000000 F100.0(Penetrate)
G01 X11.126682 Y3.144057 Z0.000000 F400.000000
G00 Z0.000100

(End cutting path id: line245)

(Start cutting path id: line247)
(Change tool to Default tool)

G00 Z0.000100
G00 X11.326546 Y2.891976

G01 Z0.000000 F100.0(Penetrate)
G01 X11.126682 Y2.891976 Z0.000000 F400.000000
G00 Z0.000100

(End cutting path id: line247)

(Start cutting path id: path139)
(Change tool to Default tool)

G00 Z0.000100
G00 X11.126682 Y2.243768

G01 Z0.000000 F100.0(Penetrate)
G03 X11.083324 Y2.187263 Z0.000000 I0.105760 J-0.126040 F400.000000
G03 X11.067908 Y2.117728 Z0.000000 I0.149119 J-0.069535
G03 X11.083324 Y2.048193 Z0.000000 I0.164534 J-0.000000
G03 X11.126682 Y1.991688 Z0.000000 I0.149119 J0.069535
G00 Z0.000100

(End cutting path id: path139)

(Start cutting path id: path137)
(Change tool to Default tool)

G00 Z0.000100
G00 X11.326546 Y1.991688

G01 Z0.000000 F100.0(Penetrate)
G03 X11.369904 Y2.048193 Z0.000000 I-0.105760 J0.126040 F400.000000
G03 X11.385319 Y2.117728 Z0.000000 I-0.149119 J0.069535
G03 X11.369904 Y2.187263 Z0.000000 I-0.164534 J-0.000000
G03 X11.326546 Y2.243768 Z0.000000 I-0.149119 J-0.069535
G00 Z0.000100

(End cutting path id: path137)

(Start cutting path id: line133)
(Change tool to Default tool)

G00 Z0.000100
G00 X11.326546 Y2.243768

G01 Z0.000000 F100.0(Penetrate)
G01 X11.126682 Y2.243768 Z0.000000 F400.000000
G00 Z0.000100

(End cutting path id: line133)

(Start cutting path id: line135)
(Change tool to Default tool)

G00 Z0.000100
G00 X11.326546 Y1.991688

G01 Z0.000000 F100.0(Penetrate)
G01 X11.126682 Y1.991688 Z0.000000 F400.000000
G00 Z0.000100

(End cutting path id: line135)

(Start cutting path id: path131)
(Change tool to Default tool)

G00 Z0.000100
G00 X12.026971 Y2.243768

G01 Z0.000000 F100.0(Penetrate)
G03 X11.983613 Y2.187263 Z0.000000 I0.105760 J-0.126040 F400.000000
G03 X11.968197 Y2.117728 Z0.000000 I0.149119 J-0.069535
G03 X11.983613 Y2.048193 Z0.000000 I0.164534 J-0.000000
G03 X12.026971 Y1.991688 Z0.000000 I0.149119 J0.069535
G00 Z0.000100

(End cutting path id: path131)

(Start cutting path id: line127)
(Change tool to Default tool)

G00 Z0.000100
G00 X12.226834 Y1.991688

G01 Z0.000000 F100.0(Penetrate)
G01 X12.026971 Y1.991688 Z0.000000 F400.000000
G00 Z0.000100

(End cutting path id: line127)

(Start cutting path id: path129)
(Change tool to Default tool)

G00 Z0.000100
G00 X12.226835 Y1.991688

G01 Z0.000000 F100.0(Penetrate)
G03 X12.270193 Y2.048193 Z0.000000 I-0.105760 J0.126040 F400.000000
G03 X12.285608 Y2.117728 Z0.000000 I-0.149119 J0.069535
G03 X12.270193 Y2.187263 Z0.000000 I-0.164534 J-0.000000
G03 X12.226835 Y2.243768 Z0.000000 I-0.149119 J-0.069535
G00 Z0.000100

(End cutting path id: path129)

(Start cutting path id: line125)
(Change tool to Default tool)

G00 Z0.000100
G00 X12.226834 Y2.243768

G01 Z0.000000 F100.0(Penetrate)
G01 X12.026971 Y2.243768 Z0.000000 F400.000000
G00 Z0.000100

(End cutting path id: line125)

(Start cutting path id: line239)
(Change tool to Default tool)

G00 Z0.000100
G00 X12.226834 Y2.891976

G01 Z0.000000 F100.0(Penetrate)
G01 X12.026971 Y2.891976 Z0.000000 F400.000000
G00 Z0.000100

(End cutting path id: line239)

(Start cutting path id: path241)
(Change tool to Default tool)

G00 Z0.000100
G00 X12.226835 Y2.891976

G01 Z0.000000 F100.0(Penetrate)
G03 X12.270193 Y2.948482 Z0.000000 I-0.105760 J0.126040 F400.000000
G03 X12.285608 Y3.018017 Z0.000000 I-0.149119 J0.069535
G03 X12.270193 Y3.087552 Z0.000000 I-0.164534 J-0.000000
G03 X12.226835 Y3.144057 Z0.000000 I-0.149119 J-0.069535
G00 Z0.000100

(End cutting path id: path241)

(Start cutting path id: line237)
(Change tool to Default tool)

G00 Z0.000100
G00 X12.226834 Y3.144057

G01 Z0.000000 F100.0(Penetrate)
G01 X12.026971 Y3.144057 Z0.000000 F400.000000
G00 Z0.000100

(End cutting path id: line237)

(Start cutting path id: path243)
(Change tool to Default tool)

G00 Z0.000100
G00 X12.026971 Y3.144057

G01 Z0.000000 F100.0(Penetrate)
G03 X11.983613 Y3.087552 Z0.000000 I0.105760 J-0.126040 F400.000000
G03 X11.968197 Y3.018017 Z0.000000 I0.149119 J-0.069535
G03 X11.983613 Y2.948482 Z0.000000 I0.164534 J-0.000000
G03 X12.026971 Y2.891976 Z0.000000 I0.149119 J0.069535
G00 Z0.000100

(End cutting path id: path243)

(Start cutting path id: line351)
(Change tool to Default tool)

G00 Z0.000100
G00 X12.226834 Y3.792265

G01 Z0.000000 F100.0(Penetrate)
G01 X12.026971 Y3.792265 Z0.000000 F400.000000
G00 Z0.000100

(End cutting path id: line351)

(Start cutting path id: path353)
(Change tool to Default tool)

G00 Z0.000100
G00 X12.226835 Y3.792265

G01 Z0.000000 F100.0(Penetrate)
G03 X12.270193 Y3.848771 Z0.000000 I-0.105760 J0.126040 F400.000000
G03 X12.285608 Y3.918306 Z0.000000 I-0.149119 J0.069535
G03 X12.270193 Y3.987841 Z0.000000 I-0.164534 J0.000000
G03 X12.226835 Y4.044346 Z0.000000 I-0.149119 J-0.069535
G00 Z0.000100

(End cutting path id: path353)

(Start cutting path id: line349)
(Change tool to Default tool)

G00 Z0.000100
G00 X12.226834 Y4.044346

G01 Z0.000000 F100.0(Penetrate)
G01 X12.026971 Y4.044346 Z0.000000 F400.000000
G00 Z0.000100

(End cutting path id: line349)

(Start cutting path id: path355)
(Change tool to Default tool)

G00 Z0.000100
G00 X12.026971 Y4.044346

G01 Z0.000000 F100.0(Penetrate)
G03 X11.983613 Y3.987841 Z0.000000 I0.105760 J-0.126040 F400.000000
G03 X11.968197 Y3.918306 Z0.000000 I0.149119 J-0.069535
G03 X11.983613 Y3.848771 Z0.000000 I0.164534 J-0.000000
G03 X12.026971 Y3.792265 Z0.000000 I0.149119 J0.069535
G00 Z0.000100

(End cutting path id: path355)

(Start cutting path id: line463)
(Change tool to Default tool)

G00 Z0.000100
G00 X12.226834 Y4.692554

G01 Z0.000000 F100.0(Penetrate)
G01 X12.026971 Y4.692554 Z0.000000 F400.000000
G00 Z0.000100

(End cutting path id: line463)

(Start cutting path id: path465)
(Change tool to Default tool)

G00 Z0.000100
G00 X12.226835 Y4.692554

G01 Z0.000000 F100.0(Penetrate)
G03 X12.270193 Y4.749060 Z0.000000 I-0.105760 J0.126040 F400.000000
G03 X12.285608 Y4.818595 Z0.000000 I-0.149119 J0.069535
G03 X12.270193 Y4.888130 Z0.000000 I-0.164534 J0.000000
G03 X12.226835 Y4.944635 Z0.000000 I-0.149119 J-0.069535
G00 Z0.000100

(End cutting path id: path465)

(Start cutting path id: line461)
(Change tool to Default tool)

G00 Z0.000100
G00 X12.226834 Y4.944635

G01 Z0.000000 F100.0(Penetrate)
G01 X12.026971 Y4.944635 Z0.000000 F400.000000
G00 Z0.000100

(End cutting path id: line461)

(Start cutting path id: path467)
(Change tool to Default tool)

G00 Z0.000100
G00 X12.026971 Y4.944635

G01 Z0.000000 F100.0(Penetrate)
G03 X11.983613 Y4.888130 Z0.000000 I0.105760 J-0.126040 F400.000000
G03 X11.968197 Y4.818595 Z0.000000 I0.149119 J-0.069535
G03 X11.983613 Y4.749060 Z0.000000 I0.164534 J0.000000
G03 X12.026971 Y4.692554 Z0.000000 I0.149119 J0.069535
G00 Z0.000100

(End cutting path id: path467)

(Start cutting path id: line575)
(Change tool to Default tool)

G00 Z0.000100
G00 X12.226834 Y5.592843

G01 Z0.000000 F100.0(Penetrate)
G01 X12.026971 Y5.592843 Z0.000000 F400.000000
G00 Z0.000100

(End cutting path id: line575)

(Start cutting path id: path577)
(Change tool to Default tool)

G00 Z0.000100
G00 X12.226835 Y5.592843

G01 Z0.000000 F100.0(Penetrate)
G03 X12.270193 Y5.649348 Z0.000000 I-0.105761 J0.126040 F400.000000
G03 X12.285608 Y5.718884 Z0.000000 I-0.149119 J0.069535
G03 X12.270193 Y5.788419 Z0.000000 I-0.164534 J0.000000
G03 X12.226835 Y5.844924 Z0.000000 I-0.149119 J-0.069535
G00 Z0.000100

(End cutting path id: path577)

(Start cutting path id: line573)
(Change tool to Default tool)

G00 Z0.000100
G00 X12.226834 Y5.844924

G01 Z0.000000 F100.0(Penetrate)
G01 X12.026971 Y5.844924 Z0.000000 F400.000000
G00 Z0.000100

(End cutting path id: line573)

(Start cutting path id: path579)
(Change tool to Default tool)

G00 Z0.000100
G00 X12.026971 Y5.844924

G01 Z0.000000 F100.0(Penetrate)
G03 X11.983613 Y5.788419 Z0.000000 I0.105761 J-0.126040 F400.000000
G03 X11.968197 Y5.718884 Z0.000000 I0.149119 J-0.069535
G03 X11.983613 Y5.649348 Z0.000000 I0.164534 J-0.000000
G03 X12.026971 Y5.592843 Z0.000000 I0.149119 J0.069535
G00 Z0.000100

(End cutting path id: path579)

(Start cutting path id: path689)
(Change tool to Default tool)

G00 Z0.000100
G00 X12.226835 Y6.493132

G01 Z0.000000 F100.0(Penetrate)
G03 X12.270193 Y6.549637 Z0.000000 I-0.105760 J0.126040 F400.000000
G03 X12.285608 Y6.619172 Z0.000000 I-0.149119 J0.069535
G03 X12.270193 Y6.688707 Z0.000000 I-0.164534 J0.000000
G03 X12.226835 Y6.745213 Z0.000000 I-0.149119 J-0.069535
G00 Z0.000100

(End cutting path id: path689)

(Start cutting path id: line685)
(Change tool to Default tool)

G00 Z0.000100
G00 X12.226834 Y6.745213

G01 Z0.000000 F100.0(Penetrate)
G01 X12.026971 Y6.745213 Z0.000000 F400.000000
G00 Z0.000100

(End cutting path id: line685)

(Start cutting path id: path691)
(Change tool to Default tool)

G00 Z0.000100
G00 X12.026971 Y6.745213

G01 Z0.000000 F100.0(Penetrate)
G03 X11.983613 Y6.688707 Z0.000000 I0.105760 J-0.126040 F400.000000
G03 X11.968197 Y6.619172 Z0.000000 I0.149119 J-0.069535
G03 X11.983613 Y6.549637 Z0.000000 I0.164534 J-0.000000
G03 X12.026971 Y6.493132 Z0.000000 I0.149119 J0.069535
G00 Z0.000100

(End cutting path id: path691)

(Start cutting path id: line687)
(Change tool to Default tool)

G00 Z0.000100
G00 X12.226834 Y6.493132

G01 Z0.000000 F100.0(Penetrate)
G01 X12.026971 Y6.493132 Z0.000000 F400.000000
G00 Z0.000100

(End cutting path id: line687)

(Start cutting path id: line799)
(Change tool to Default tool)

G00 Z0.000100
G00 X12.226834 Y7.393421

G01 Z0.000000 F100.0(Penetrate)
G01 X12.026971 Y7.393421 Z0.000000 F400.000000
G00 Z0.000100

(End cutting path id: line799)

(Start cutting path id: path801)
(Change tool to Default tool)

G00 Z0.000100
G00 X12.226835 Y7.393421

G01 Z0.000000 F100.0(Penetrate)
G03 X12.270193 Y7.449926 Z0.000000 I-0.105760 J0.126040 F400.000000
G03 X12.285608 Y7.519461 Z0.000000 I-0.149119 J0.069535
G03 X12.270193 Y7.588996 Z0.000000 I-0.164534 J0.000000
G03 X12.226835 Y7.645502 Z0.000000 I-0.149119 J-0.069535
G00 Z0.000100

(End cutting path id: path801)

(Start cutting path id: line797)
(Change tool to Default tool)

G00 Z0.000100
G00 X12.226834 Y7.645502

G01 Z0.000000 F100.0(Penetrate)
G01 X12.026971 Y7.645502 Z0.000000 F400.000000
G00 Z0.000100

(End cutting path id: line797)

(Start cutting path id: path803)
(Change tool to Default tool)

G00 Z0.000100
G00 X12.026971 Y7.645502

G01 Z0.000000 F100.0(Penetrate)
G03 X11.983613 Y7.588996 Z0.000000 I0.105760 J-0.126040 F400.000000
G03 X11.968197 Y7.519461 Z0.000000 I0.149119 J-0.069535
G03 X11.983613 Y7.449926 Z0.000000 I0.164534 J0.000000
G03 X12.026971 Y7.393421 Z0.000000 I0.149119 J0.069535
G00 Z0.000100

(End cutting path id: path803)

(Start cutting path id: path913)
(Change tool to Default tool)

G00 Z0.000100
G00 X12.226835 Y8.293710

G01 Z0.000000 F100.0(Penetrate)
G03 X12.270193 Y8.350215 Z0.000000 I-0.105760 J0.126040 F400.000000
G03 X12.285608 Y8.419750 Z0.000000 I-0.149119 J0.069535
G03 X12.270193 Y8.489285 Z0.000000 I-0.164534 J0.000000
G03 X12.226835 Y8.545791 Z0.000000 I-0.149119 J-0.069535
G00 Z0.000100

(End cutting path id: path913)

(Start cutting path id: line909)
(Change tool to Default tool)

G00 Z0.000100
G00 X12.226834 Y8.545791

G01 Z0.000000 F100.0(Penetrate)
G01 X12.026971 Y8.545791 Z0.000000 F400.000000
G00 Z0.000100

(End cutting path id: line909)

(Start cutting path id: path915)
(Change tool to Default tool)

G00 Z0.000100
G00 X12.026971 Y8.545791

G01 Z0.000000 F100.0(Penetrate)
G03 X11.983613 Y8.489285 Z0.000000 I0.105760 J-0.126040 F400.000000
G03 X11.968197 Y8.419750 Z0.000000 I0.149119 J-0.069535
G03 X11.983613 Y8.350215 Z0.000000 I0.164534 J-0.000000
G03 X12.026971 Y8.293710 Z0.000000 I0.149119 J0.069535
G00 Z0.000100

(End cutting path id: path915)

(Start cutting path id: line911)
(Change tool to Default tool)

G00 Z0.000100
G00 X12.226834 Y8.293710

G01 Z0.000000 F100.0(Penetrate)
G01 X12.026971 Y8.293710 Z0.000000 F400.000000
G00 Z0.000100

(End cutting path id: line911)

(Start cutting path id: line1023)
(Change tool to Default tool)

G00 Z0.000100
G00 X12.226834 Y9.193999

G01 Z0.000000 F100.0(Penetrate)
G01 X12.026971 Y9.193999 Z0.000000 F400.000000
G00 Z0.000100

(End cutting path id: line1023)

(Start cutting path id: path1025)
(Change tool to Default tool)

G00 Z0.000100
G00 X12.226835 Y9.193999

G01 Z0.000000 F100.0(Penetrate)
G03 X12.270193 Y9.250504 Z0.000000 I-0.105760 J0.126040 F400.000000
G03 X12.285608 Y9.320039 Z0.000000 I-0.149119 J0.069535
G03 X12.270193 Y9.389574 Z0.000000 I-0.164534 J-0.000000
G03 X12.226835 Y9.446079 Z0.000000 I-0.149119 J-0.069535
G00 Z0.000100

(End cutting path id: path1025)

(Start cutting path id: line1021)
(Change tool to Default tool)

G00 Z0.000100
G00 X12.226834 Y9.446079

G01 Z0.000000 F100.0(Penetrate)
G01 X12.026971 Y9.446079 Z0.000000 F400.000000
G00 Z0.000100

(End cutting path id: line1021)

(Start cutting path id: path1027)
(Change tool to Default tool)

G00 Z0.000100
G00 X12.026971 Y9.446079

G01 Z0.000000 F100.0(Penetrate)
G03 X11.983613 Y9.389574 Z0.000000 I0.105760 J-0.126040 F400.000000
G03 X11.968197 Y9.320039 Z0.000000 I0.149119 J-0.069535
G03 X11.983613 Y9.250504 Z0.000000 I0.164534 J-0.000000
G03 X12.026971 Y9.193999 Z0.000000 I0.149119 J0.069535
G00 Z0.000100

(End cutting path id: path1027)

(Start cutting path id: path1137)
(Change tool to Default tool)

G00 Z0.000100
G00 X12.226835 Y10.094287

G01 Z0.000000 F100.0(Penetrate)
G03 X12.270193 Y10.150793 Z0.000000 I-0.105760 J0.126040 F400.000000
G03 X12.285608 Y10.220328 Z0.000000 I-0.149119 J0.069535
G03 X12.270193 Y10.289863 Z0.000000 I-0.164534 J0.000000
G03 X12.226835 Y10.346368 Z0.000000 I-0.149119 J-0.069535
G00 Z0.000100

(End cutting path id: path1137)

(Start cutting path id: line1133)
(Change tool to Default tool)

G00 Z0.000100
G00 X12.226834 Y10.346369

G01 Z0.000000 F100.0(Penetrate)
G01 X12.026971 Y10.346369 Z0.000000 F400.000000
G00 Z0.000100

(End cutting path id: line1133)

(Start cutting path id: path1139)
(Change tool to Default tool)

G00 Z0.000100
G00 X12.026971 Y10.346368

G01 Z0.000000 F100.0(Penetrate)
G03 X11.983613 Y10.289863 Z0.000000 I0.105760 J-0.126040 F400.000000
G03 X11.968197 Y10.220328 Z0.000000 I0.149119 J-0.069535
G03 X11.983613 Y10.150793 Z0.000000 I0.164534 J-0.000000
G03 X12.026971 Y10.094287 Z0.000000 I0.149119 J0.069535
G00 Z0.000100

(End cutting path id: path1139)

(Start cutting path id: line1135)
(Change tool to Default tool)

G00 Z0.000100
G00 X12.226834 Y10.094288

G01 Z0.000000 F100.0(Penetrate)
G01 X12.026971 Y10.094288 Z0.000000 F400.000000
G00 Z0.000100

(End cutting path id: line1135)

(Start cutting path id: path1249)
(Change tool to Default tool)

G00 Z0.000100
G00 X12.226835 Y10.994576

G01 Z0.000000 F100.0(Penetrate)
G03 X12.270193 Y11.051082 Z0.000000 I-0.105760 J0.126040 F400.000000
G03 X12.285608 Y11.120617 Z0.000000 I-0.149119 J0.069535
G03 X12.270193 Y11.190152 Z0.000000 I-0.164534 J0.000000
G03 X12.226835 Y11.246657 Z0.000000 I-0.149119 J-0.069535
G00 Z0.000100

(End cutting path id: path1249)

(Start cutting path id: line1245)
(Change tool to Default tool)

G00 Z0.000100
G00 X12.226834 Y11.246657

G01 Z0.000000 F100.0(Penetrate)
G01 X12.026971 Y11.246657 Z0.000000 F400.000000
G00 Z0.000100

(End cutting path id: line1245)

(Start cutting path id: path1251)
(Change tool to Default tool)

G00 Z0.000100
G00 X12.026971 Y11.246657

G01 Z0.000000 F100.0(Penetrate)
G03 X11.983613 Y11.190152 Z0.000000 I0.105760 J-0.126040 F400.000000
G03 X11.968197 Y11.120617 Z0.000000 I0.149119 J-0.069535
G03 X11.983613 Y11.051082 Z0.000000 I0.164534 J-0.000000
G03 X12.026971 Y10.994576 Z0.000000 I0.149119 J0.069535
G00 Z0.000100

(End cutting path id: path1251)

(Start cutting path id: line1247)
(Change tool to Default tool)

G00 Z0.000100
G00 X12.226834 Y10.994577

G01 Z0.000000 F100.0(Penetrate)
G01 X12.026971 Y10.994577 Z0.000000 F400.000000
G00 Z0.000100

(End cutting path id: line1247)

(Start cutting path id: line1359)
(Change tool to Default tool)

G00 Z0.000100
G00 X12.226834 Y11.894865

G01 Z0.000000 F100.0(Penetrate)
G01 X12.026971 Y11.894865 Z0.000000 F400.000000
G00 Z0.000100

(End cutting path id: line1359)

(Start cutting path id: path1361)
(Change tool to Default tool)

G00 Z0.000100
G00 X12.226835 Y11.894865

G01 Z0.000000 F100.0(Penetrate)
G03 X12.270193 Y11.951371 Z0.000000 I-0.105760 J0.126040 F400.000000
G03 X12.285608 Y12.020906 Z0.000000 I-0.149119 J0.069535
G03 X12.270193 Y12.090441 Z0.000000 I-0.164534 J0.000000
G03 X12.226835 Y12.146946 Z0.000000 I-0.149119 J-0.069535
G00 Z0.000100

(End cutting path id: path1361)

(Start cutting path id: line1357)
(Change tool to Default tool)

G00 Z0.000100
G00 X12.226834 Y12.146945

G01 Z0.000000 F100.0(Penetrate)
G01 X12.026971 Y12.146945 Z0.000000 F400.000000
G00 Z0.000100

(End cutting path id: line1357)

(Start cutting path id: path1363)
(Change tool to Default tool)

G00 Z0.000100
G00 X12.026971 Y12.146946

G01 Z0.000000 F100.0(Penetrate)
G03 X11.983613 Y12.090441 Z0.000000 I0.105760 J-0.126040 F400.000000
G03 X11.968197 Y12.020906 Z0.000000 I0.149119 J-0.069535
G03 X11.983613 Y11.951371 Z0.000000 I0.164534 J-0.000000
G03 X12.026971 Y11.894865 Z0.000000 I0.149119 J0.069535
G00 Z0.000100

(End cutting path id: path1363)

(Start cutting path id: line1471)
(Change tool to Default tool)

G00 Z0.000100
G00 X12.226834 Y12.795153

G01 Z0.000000 F100.0(Penetrate)
G01 X12.026971 Y12.795153 Z0.000000 F400.000000
G00 Z0.000100

(End cutting path id: line1471)

(Start cutting path id: path1473)
(Change tool to Default tool)

G00 Z0.000100
G00 X12.226835 Y12.795154

G01 Z0.000000 F100.0(Penetrate)
G03 X12.270193 Y12.851659 Z0.000000 I-0.105760 J0.126040 F400.000000
G03 X12.285608 Y12.921195 Z0.000000 I-0.149119 J0.069535
G03 X12.270193 Y12.990730 Z0.000000 I-0.164534 J0.000000
G03 X12.226835 Y13.047235 Z0.000000 I-0.149119 J-0.069535
G00 Z0.000100

(End cutting path id: path1473)

(Start cutting path id: line1469)
(Change tool to Default tool)

G00 Z0.000100
G00 X12.226834 Y13.047234

G01 Z0.000000 F100.0(Penetrate)
G01 X12.026971 Y13.047234 Z0.000000 F400.000000
G00 Z0.000100

(End cutting path id: line1469)

(Start cutting path id: path1475)
(Change tool to Default tool)

G00 Z0.000100
G00 X12.026971 Y13.047235

G01 Z0.000000 F100.0(Penetrate)
G03 X11.983613 Y12.990730 Z0.000000 I0.105760 J-0.126040 F400.000000
G03 X11.968197 Y12.921195 Z0.000000 I0.149119 J-0.069535
G03 X11.983613 Y12.851659 Z0.000000 I0.164534 J-0.000000
G03 X12.026971 Y12.795154 Z0.000000 I0.149119 J0.069535
G00 Z0.000100

(End cutting path id: path1475)

(Start cutting path id: line1583)
(Change tool to Default tool)

G00 Z0.000100
G00 X12.226834 Y13.695443

G01 Z0.000000 F100.0(Penetrate)
G01 X12.026971 Y13.695443 Z0.000000 F400.000000
G00 Z0.000100

(End cutting path id: line1583)

(Start cutting path id: path1585)
(Change tool to Default tool)

G00 Z0.000100
G00 X12.226835 Y13.695443

G01 Z0.000000 F100.0(Penetrate)
G03 X12.270193 Y13.751948 Z0.000000 I-0.105760 J0.126040 F400.000000
G03 X12.285608 Y13.821483 Z0.000000 I-0.149119 J0.069535
G03 X12.270193 Y13.891019 Z0.000000 I-0.164534 J0.000000
G03 X12.226835 Y13.947524 Z0.000000 I-0.149119 J-0.069535
G00 Z0.000100

(End cutting path id: path1585)

(Start cutting path id: line1581)
(Change tool to Default tool)

G00 Z0.000100
G00 X12.226834 Y13.947524

G01 Z0.000000 F100.0(Penetrate)
G01 X12.026971 Y13.947524 Z0.000000 F400.000000
G00 Z0.000100

(End cutting path id: line1581)

(Start cutting path id: path1587)
(Change tool to Default tool)

G00 Z0.000100
G00 X12.026971 Y13.947524

G01 Z0.000000 F100.0(Penetrate)
G03 X11.983613 Y13.891019 Z0.000000 I0.105760 J-0.126040 F400.000000
G03 X11.968197 Y13.821483 Z0.000000 I0.149119 J-0.069535
G03 X11.983613 Y13.751948 Z0.000000 I0.164534 J-0.000000
G03 X12.026971 Y13.695443 Z0.000000 I0.149119 J0.069535
G00 Z0.000100

(End cutting path id: path1587)

(Start cutting path id: line1695)
(Change tool to Default tool)

G00 Z0.000100
G00 X12.226834 Y14.595732

G01 Z0.000000 F100.0(Penetrate)
G01 X12.026971 Y14.595732 Z0.000000 F400.000000
G00 Z0.000100

(End cutting path id: line1695)

(Start cutting path id: path1697)
(Change tool to Default tool)

G00 Z0.000100
G00 X12.226835 Y14.595732

G01 Z0.000000 F100.0(Penetrate)
G03 X12.270193 Y14.652237 Z0.000000 I-0.105760 J0.126040 F400.000000
G03 X12.285608 Y14.721772 Z0.000000 I-0.149119 J0.069535
G03 X12.270193 Y14.791307 Z0.000000 I-0.164534 J0.000000
G03 X12.226835 Y14.847813 Z0.000000 I-0.149119 J-0.069535
G00 Z0.000100

(End cutting path id: path1697)

(Start cutting path id: line1693)
(Change tool to Default tool)

G00 Z0.000100
G00 X12.226834 Y14.847813

G01 Z0.000000 F100.0(Penetrate)
G01 X12.026971 Y14.847813 Z0.000000 F400.000000
G00 Z0.000100

(End cutting path id: line1693)

(Start cutting path id: path1699)
(Change tool to Default tool)

G00 Z0.000100
G00 X12.026971 Y14.847813

G01 Z0.000000 F100.0(Penetrate)
G03 X11.983613 Y14.791307 Z0.000000 I0.105760 J-0.126040 F400.000000
G03 X11.968197 Y14.721772 Z0.000000 I0.149119 J-0.069535
G03 X11.983613 Y14.652237 Z0.000000 I0.164534 J-0.000000
G03 X12.026971 Y14.595732 Z0.000000 I0.149119 J0.069535
G00 Z0.000100

(End cutting path id: path1699)

(Start cutting path id: path1691)
(Change tool to Default tool)

G00 Z0.000100
G00 X12.927259 Y14.847813

G01 Z0.000000 F100.0(Penetrate)
G03 X12.883901 Y14.791307 Z0.000000 I0.105760 J-0.126040 F400.000000
G03 X12.868486 Y14.721772 Z0.000000 I0.149119 J-0.069535
G03 X12.883901 Y14.652237 Z0.000000 I0.164534 J-0.000000
G03 X12.927259 Y14.595732 Z0.000000 I0.149119 J0.069535
G00 Z0.000100

(End cutting path id: path1691)

(Start cutting path id: line1687)
(Change tool to Default tool)

G00 Z0.000100
G00 X13.127123 Y14.595732

G01 Z0.000000 F100.0(Penetrate)
G01 X12.927259 Y14.595732 Z0.000000 F400.000000
G00 Z0.000100

(End cutting path id: line1687)

(Start cutting path id: path1689)
(Change tool to Default tool)

G00 Z0.000100
G00 X13.127124 Y14.595732

G01 Z0.000000 F100.0(Penetrate)
G03 X13.170482 Y14.652237 Z0.000000 I-0.105760 J0.126040 F400.000000
G03 X13.185897 Y14.721772 Z0.000000 I-0.149119 J0.069535
G03 X13.170482 Y14.791307 Z0.000000 I-0.164534 J0.000000
G03 X13.127124 Y14.847813 Z0.000000 I-0.149119 J-0.069535
G00 Z0.000100

(End cutting path id: path1689)

(Start cutting path id: line1685)
(Change tool to Default tool)

G00 Z0.000100
G00 X13.127123 Y14.847813

G01 Z0.000000 F100.0(Penetrate)
G01 X12.927259 Y14.847813 Z0.000000 F400.000000
G00 Z0.000100

(End cutting path id: line1685)

(Start cutting path id: path1579)
(Change tool to Default tool)

G00 Z0.000100
G00 X12.927259 Y13.947524

G01 Z0.000000 F100.0(Penetrate)
G03 X12.883901 Y13.891019 Z0.000000 I0.105760 J-0.126040 F400.000000
G03 X12.868486 Y13.821483 Z0.000000 I0.149119 J-0.069535
G03 X12.883901 Y13.751948 Z0.000000 I0.164534 J-0.000000
G03 X12.927259 Y13.695443 Z0.000000 I0.149119 J0.069535
G00 Z0.000100

(End cutting path id: path1579)

(Start cutting path id: line1575)
(Change tool to Default tool)

G00 Z0.000100
G00 X13.127123 Y13.695443

G01 Z0.000000 F100.0(Penetrate)
G01 X12.927259 Y13.695443 Z0.000000 F400.000000
G00 Z0.000100

(End cutting path id: line1575)

(Start cutting path id: path1577)
(Change tool to Default tool)

G00 Z0.000100
G00 X13.127124 Y13.695443

G01 Z0.000000 F100.0(Penetrate)
G03 X13.170482 Y13.751948 Z0.000000 I-0.105760 J0.126040 F400.000000
G03 X13.185897 Y13.821483 Z0.000000 I-0.149119 J0.069535
G03 X13.170482 Y13.891019 Z0.000000 I-0.164534 J0.000000
G03 X13.127124 Y13.947524 Z0.000000 I-0.149119 J-0.069535
G00 Z0.000100

(End cutting path id: path1577)

(Start cutting path id: line1573)
(Change tool to Default tool)

G00 Z0.000100
G00 X13.127123 Y13.947524

G01 Z0.000000 F100.0(Penetrate)
G01 X12.927259 Y13.947524 Z0.000000 F400.000000
G00 Z0.000100

(End cutting path id: line1573)

(Start cutting path id: path1467)
(Change tool to Default tool)

G00 Z0.000100
G00 X12.927259 Y13.047235

G01 Z0.000000 F100.0(Penetrate)
G03 X12.883901 Y12.990730 Z0.000000 I0.105760 J-0.126040 F400.000000
G03 X12.868486 Y12.921195 Z0.000000 I0.149119 J-0.069535
G03 X12.883901 Y12.851659 Z0.000000 I0.164534 J0.000000
G03 X12.927259 Y12.795154 Z0.000000 I0.149119 J0.069535
G00 Z0.000100

(End cutting path id: path1467)

(Start cutting path id: line1463)
(Change tool to Default tool)

G00 Z0.000100
G00 X13.127123 Y12.795153

G01 Z0.000000 F100.0(Penetrate)
G01 X12.927259 Y12.795153 Z0.000000 F400.000000
G00 Z0.000100

(End cutting path id: line1463)

(Start cutting path id: path1465)
(Change tool to Default tool)

G00 Z0.000100
G00 X13.127124 Y12.795154

G01 Z0.000000 F100.0(Penetrate)
G03 X13.170482 Y12.851659 Z0.000000 I-0.105760 J0.126040 F400.000000
G03 X13.185897 Y12.921195 Z0.000000 I-0.149119 J0.069535
G03 X13.170482 Y12.990730 Z0.000000 I-0.164534 J0.000000
G03 X13.127124 Y13.047235 Z0.000000 I-0.149119 J-0.069535
G00 Z0.000100

(End cutting path id: path1465)

(Start cutting path id: line1461)
(Change tool to Default tool)

G00 Z0.000100
G00 X13.127123 Y13.047234

G01 Z0.000000 F100.0(Penetrate)
G01 X12.927259 Y13.047234 Z0.000000 F400.000000
G00 Z0.000100

(End cutting path id: line1461)

(Start cutting path id: path1355)
(Change tool to Default tool)

G00 Z0.000100
G00 X12.927259 Y12.146946

G01 Z0.000000 F100.0(Penetrate)
G03 X12.883901 Y12.090441 Z0.000000 I0.105760 J-0.126040 F400.000000
G03 X12.868486 Y12.020906 Z0.000000 I0.149119 J-0.069535
G03 X12.883901 Y11.951371 Z0.000000 I0.164534 J-0.000000
G03 X12.927259 Y11.894865 Z0.000000 I0.149119 J0.069535
G00 Z0.000100

(End cutting path id: path1355)

(Start cutting path id: line1351)
(Change tool to Default tool)

G00 Z0.000100
G00 X13.127123 Y11.894865

G01 Z0.000000 F100.0(Penetrate)
G01 X12.927259 Y11.894865 Z0.000000 F400.000000
G00 Z0.000100

(End cutting path id: line1351)

(Start cutting path id: path1353)
(Change tool to Default tool)

G00 Z0.000100
G00 X13.127124 Y11.894865

G01 Z0.000000 F100.0(Penetrate)
G03 X13.170482 Y11.951371 Z0.000000 I-0.105760 J0.126040 F400.000000
G03 X13.185897 Y12.020906 Z0.000000 I-0.149119 J0.069535
G03 X13.170482 Y12.090441 Z0.000000 I-0.164534 J-0.000000
G03 X13.127124 Y12.146946 Z0.000000 I-0.149119 J-0.069535
G00 Z0.000100

(End cutting path id: path1353)

(Start cutting path id: line1349)
(Change tool to Default tool)

G00 Z0.000100
G00 X13.127123 Y12.146945

G01 Z0.000000 F100.0(Penetrate)
G01 X12.927259 Y12.146945 Z0.000000 F400.000000
G00 Z0.000100

(End cutting path id: line1349)

(Start cutting path id: path1243)
(Change tool to Default tool)

G00 Z0.000100
G00 X12.927259 Y11.246657

G01 Z0.000000 F100.0(Penetrate)
G03 X12.883901 Y11.190152 Z0.000000 I0.105760 J-0.126040 F400.000000
G03 X12.868486 Y11.120617 Z0.000000 I0.149119 J-0.069535
G03 X12.883901 Y11.051082 Z0.000000 I0.164534 J-0.000000
G03 X12.927259 Y10.994576 Z0.000000 I0.149119 J0.069535
G00 Z0.000100

(End cutting path id: path1243)

(Start cutting path id: line1239)
(Change tool to Default tool)

G00 Z0.000100
G00 X13.127123 Y10.994577

G01 Z0.000000 F100.0(Penetrate)
G01 X12.927259 Y10.994577 Z0.000000 F400.000000
G00 Z0.000100

(End cutting path id: line1239)

(Start cutting path id: path1241)
(Change tool to Default tool)

G00 Z0.000100
G00 X13.127124 Y10.994576

G01 Z0.000000 F100.0(Penetrate)
G03 X13.170482 Y11.051082 Z0.000000 I-0.105760 J0.126040 F400.000000
G03 X13.185897 Y11.120617 Z0.000000 I-0.149119 J0.069535
G03 X13.170482 Y11.190152 Z0.000000 I-0.164534 J-0.000000
G03 X13.127124 Y11.246657 Z0.000000 I-0.149119 J-0.069535
G00 Z0.000100

(End cutting path id: path1241)

(Start cutting path id: line1237)
(Change tool to Default tool)

G00 Z0.000100
G00 X13.127123 Y11.246657

G01 Z0.000000 F100.0(Penetrate)
G01 X12.927259 Y11.246657 Z0.000000 F400.000000
G00 Z0.000100

(End cutting path id: line1237)

(Start cutting path id: path1131)
(Change tool to Default tool)

G00 Z0.000100
G00 X12.927259 Y10.346368

G01 Z0.000000 F100.0(Penetrate)
G03 X12.883901 Y10.289863 Z0.000000 I0.105760 J-0.126040 F400.000000
G03 X12.868486 Y10.220328 Z0.000000 I0.149119 J-0.069535
G03 X12.883901 Y10.150793 Z0.000000 I0.164534 J-0.000000
G03 X12.927259 Y10.094287 Z0.000000 I0.149119 J0.069535
G00 Z0.000100

(End cutting path id: path1131)

(Start cutting path id: line1127)
(Change tool to Default tool)

G00 Z0.000100
G00 X13.127123 Y10.094288

G01 Z0.000000 F100.0(Penetrate)
G01 X12.927259 Y10.094288 Z0.000000 F400.000000
G00 Z0.000100

(End cutting path id: line1127)

(Start cutting path id: path1129)
(Change tool to Default tool)

G00 Z0.000100
G00 X13.127124 Y10.094287

G01 Z0.000000 F100.0(Penetrate)
G03 X13.170482 Y10.150793 Z0.000000 I-0.105760 J0.126040 F400.000000
G03 X13.185897 Y10.220328 Z0.000000 I-0.149119 J0.069535
G03 X13.170482 Y10.289863 Z0.000000 I-0.164534 J0.000000
G03 X13.127124 Y10.346368 Z0.000000 I-0.149119 J-0.069535
G00 Z0.000100

(End cutting path id: path1129)

(Start cutting path id: line1125)
(Change tool to Default tool)

G00 Z0.000100
G00 X13.127123 Y10.346369

G01 Z0.000000 F100.0(Penetrate)
G01 X12.927259 Y10.346369 Z0.000000 F400.000000
G00 Z0.000100

(End cutting path id: line1125)

(Start cutting path id: path1019)
(Change tool to Default tool)

G00 Z0.000100
G00 X12.927259 Y9.446079

G01 Z0.000000 F100.0(Penetrate)
G03 X12.883901 Y9.389574 Z0.000000 I0.105760 J-0.126040 F400.000000
G03 X12.868486 Y9.320039 Z0.000000 I0.149119 J-0.069535
G03 X12.883901 Y9.250504 Z0.000000 I0.164534 J-0.000000
G03 X12.927259 Y9.193999 Z0.000000 I0.149119 J0.069535
G00 Z0.000100

(End cutting path id: path1019)

(Start cutting path id: line1015)
(Change tool to Default tool)

G00 Z0.000100
G00 X13.127123 Y9.193999

G01 Z0.000000 F100.0(Penetrate)
G01 X12.927259 Y9.193999 Z0.000000 F400.000000
G00 Z0.000100

(End cutting path id: line1015)

(Start cutting path id: path1017)
(Change tool to Default tool)

G00 Z0.000100
G00 X13.127124 Y9.193999

G01 Z0.000000 F100.0(Penetrate)
G03 X13.170482 Y9.250504 Z0.000000 I-0.105760 J0.126040 F400.000000
G03 X13.185897 Y9.320039 Z0.000000 I-0.149119 J0.069535
G03 X13.170482 Y9.389574 Z0.000000 I-0.164534 J0.000000
G03 X13.127124 Y9.446079 Z0.000000 I-0.149119 J-0.069535
G00 Z0.000100

(End cutting path id: path1017)

(Start cutting path id: line1013)
(Change tool to Default tool)

G00 Z0.000100
G00 X13.127123 Y9.446079

G01 Z0.000000 F100.0(Penetrate)
G01 X12.927259 Y9.446079 Z0.000000 F400.000000
G00 Z0.000100

(End cutting path id: line1013)

(Start cutting path id: path907)
(Change tool to Default tool)

G00 Z0.000100
G00 X12.927259 Y8.545791

G01 Z0.000000 F100.0(Penetrate)
G03 X12.883901 Y8.489285 Z0.000000 I0.105760 J-0.126040 F400.000000
G03 X12.868486 Y8.419750 Z0.000000 I0.149119 J-0.069535
G03 X12.883901 Y8.350215 Z0.000000 I0.164534 J-0.000000
G03 X12.927259 Y8.293710 Z0.000000 I0.149119 J0.069535
G00 Z0.000100

(End cutting path id: path907)

(Start cutting path id: line903)
(Change tool to Default tool)

G00 Z0.000100
G00 X13.127123 Y8.293710

G01 Z0.000000 F100.0(Penetrate)
G01 X12.927259 Y8.293710 Z0.000000 F400.000000
G00 Z0.000100

(End cutting path id: line903)

(Start cutting path id: path905)
(Change tool to Default tool)

G00 Z0.000100
G00 X13.127124 Y8.293710

G01 Z0.000000 F100.0(Penetrate)
G03 X13.170482 Y8.350215 Z0.000000 I-0.105760 J0.126040 F400.000000
G03 X13.185897 Y8.419750 Z0.000000 I-0.149119 J0.069535
G03 X13.170482 Y8.489285 Z0.000000 I-0.164534 J-0.000000
G03 X13.127124 Y8.545791 Z0.000000 I-0.149119 J-0.069535
G00 Z0.000100

(End cutting path id: path905)

(Start cutting path id: line901)
(Change tool to Default tool)

G00 Z0.000100
G00 X13.127123 Y8.545791

G01 Z0.000000 F100.0(Penetrate)
G01 X12.927259 Y8.545791 Z0.000000 F400.000000
G00 Z0.000100

(End cutting path id: line901)

(Start cutting path id: path795)
(Change tool to Default tool)

G00 Z0.000100
G00 X12.927259 Y7.645502

G01 Z0.000000 F100.0(Penetrate)
G03 X12.883901 Y7.588996 Z0.000000 I0.105760 J-0.126040 F400.000000
G03 X12.868486 Y7.519461 Z0.000000 I0.149119 J-0.069535
G03 X12.883901 Y7.449926 Z0.000000 I0.164534 J-0.000000
G03 X12.927259 Y7.393421 Z0.000000 I0.149119 J0.069535
G00 Z0.000100

(End cutting path id: path795)

(Start cutting path id: line791)
(Change tool to Default tool)

G00 Z0.000100
G00 X13.127123 Y7.393421

G01 Z0.000000 F100.0(Penetrate)
G01 X12.927259 Y7.393421 Z0.000000 F400.000000
G00 Z0.000100

(End cutting path id: line791)

(Start cutting path id: path793)
(Change tool to Default tool)

G00 Z0.000100
G00 X13.127124 Y7.393421

G01 Z0.000000 F100.0(Penetrate)
G03 X13.170482 Y7.449926 Z0.000000 I-0.105760 J0.126040 F400.000000
G03 X13.185897 Y7.519461 Z0.000000 I-0.149119 J0.069535
G03 X13.170482 Y7.588996 Z0.000000 I-0.164534 J0.000000
G03 X13.127124 Y7.645502 Z0.000000 I-0.149119 J-0.069535
G00 Z0.000100

(End cutting path id: path793)

(Start cutting path id: line789)
(Change tool to Default tool)

G00 Z0.000100
G00 X13.127123 Y7.645502

G01 Z0.000000 F100.0(Penetrate)
G01 X12.927259 Y7.645502 Z0.000000 F400.000000
G00 Z0.000100

(End cutting path id: line789)

(Start cutting path id: path683)
(Change tool to Default tool)

G00 Z0.000100
G00 X12.927259 Y6.745213

G01 Z0.000000 F100.0(Penetrate)
G03 X12.883901 Y6.688707 Z0.000000 I0.105760 J-0.126040 F400.000000
G03 X12.868486 Y6.619172 Z0.000000 I0.149119 J-0.069535
G03 X12.883901 Y6.549637 Z0.000000 I0.164534 J-0.000000
G03 X12.927259 Y6.493132 Z0.000000 I0.149119 J0.069535
G00 Z0.000100

(End cutting path id: path683)

(Start cutting path id: line679)
(Change tool to Default tool)

G00 Z0.000100
G00 X13.127123 Y6.493132

G01 Z0.000000 F100.0(Penetrate)
G01 X12.927259 Y6.493132 Z0.000000 F400.000000
G00 Z0.000100

(End cutting path id: line679)

(Start cutting path id: path681)
(Change tool to Default tool)

G00 Z0.000100
G00 X13.127124 Y6.493132

G01 Z0.000000 F100.0(Penetrate)
G03 X13.170482 Y6.549637 Z0.000000 I-0.105760 J0.126040 F400.000000
G03 X13.185897 Y6.619172 Z0.000000 I-0.149119 J0.069535
G03 X13.170482 Y6.688707 Z0.000000 I-0.164534 J-0.000000
G03 X13.127124 Y6.745213 Z0.000000 I-0.149119 J-0.069535
G00 Z0.000100

(End cutting path id: path681)

(Start cutting path id: line677)
(Change tool to Default tool)

G00 Z0.000100
G00 X13.127123 Y6.745213

G01 Z0.000000 F100.0(Penetrate)
G01 X12.927259 Y6.745213 Z0.000000 F400.000000
G00 Z0.000100

(End cutting path id: line677)

(Start cutting path id: path571)
(Change tool to Default tool)

G00 Z0.000100
G00 X12.927259 Y5.844924

G01 Z0.000000 F100.0(Penetrate)
G03 X12.883901 Y5.788419 Z0.000000 I0.105761 J-0.126040 F400.000000
G03 X12.868486 Y5.718884 Z0.000000 I0.149119 J-0.069535
G03 X12.883901 Y5.649348 Z0.000000 I0.164534 J0.000000
G03 X12.927259 Y5.592843 Z0.000000 I0.149119 J0.069535
G00 Z0.000100

(End cutting path id: path571)

(Start cutting path id: line567)
(Change tool to Default tool)

G00 Z0.000100
G00 X13.127123 Y5.592843

G01 Z0.000000 F100.0(Penetrate)
G01 X12.927259 Y5.592843 Z0.000000 F400.000000
G00 Z0.000100

(End cutting path id: line567)

(Start cutting path id: path569)
(Change tool to Default tool)

G00 Z0.000100
G00 X13.127124 Y5.592843

G01 Z0.000000 F100.0(Penetrate)
G03 X13.170482 Y5.649348 Z0.000000 I-0.105761 J0.126040 F400.000000
G03 X13.185897 Y5.718884 Z0.000000 I-0.149119 J0.069535
G03 X13.170482 Y5.788419 Z0.000000 I-0.164534 J0.000000
G03 X13.127124 Y5.844924 Z0.000000 I-0.149119 J-0.069535
G00 Z0.000100

(End cutting path id: path569)

(Start cutting path id: line565)
(Change tool to Default tool)

G00 Z0.000100
G00 X13.127123 Y5.844924

G01 Z0.000000 F100.0(Penetrate)
G01 X12.927259 Y5.844924 Z0.000000 F400.000000
G00 Z0.000100

(End cutting path id: line565)

(Start cutting path id: path459)
(Change tool to Default tool)

G00 Z0.000100
G00 X12.927259 Y4.944635

G01 Z0.000000 F100.0(Penetrate)
G03 X12.883901 Y4.888130 Z0.000000 I0.105760 J-0.126040 F400.000000
G03 X12.868486 Y4.818595 Z0.000000 I0.149119 J-0.069535
G03 X12.883901 Y4.749060 Z0.000000 I0.164534 J0.000000
G03 X12.927259 Y4.692554 Z0.000000 I0.149119 J0.069535
G00 Z0.000100

(End cutting path id: path459)

(Start cutting path id: line455)
(Change tool to Default tool)

G00 Z0.000100
G00 X13.127123 Y4.692554

G01 Z0.000000 F100.0(Penetrate)
G01 X12.927259 Y4.692554 Z0.000000 F400.000000
G00 Z0.000100

(End cutting path id: line455)

(Start cutting path id: path457)
(Change tool to Default tool)

G00 Z0.000100
G00 X13.127124 Y4.692554

G01 Z0.000000 F100.0(Penetrate)
G03 X13.170482 Y4.749060 Z0.000000 I-0.105760 J0.126040 F400.000000
G03 X13.185897 Y4.818595 Z0.000000 I-0.149119 J0.069535
G03 X13.170482 Y4.888130 Z0.000000 I-0.164534 J-0.000000
G03 X13.127124 Y4.944635 Z0.000000 I-0.149119 J-0.069535
G00 Z0.000100

(End cutting path id: path457)

(Start cutting path id: line453)
(Change tool to Default tool)

G00 Z0.000100
G00 X13.127123 Y4.944635

G01 Z0.000000 F100.0(Penetrate)
G01 X12.927259 Y4.944635 Z0.000000 F400.000000
G00 Z0.000100

(End cutting path id: line453)

(Start cutting path id: path347)
(Change tool to Default tool)

G00 Z0.000100
G00 X12.927259 Y4.044346

G01 Z0.000000 F100.0(Penetrate)
G03 X12.883901 Y3.987841 Z0.000000 I0.105760 J-0.126040 F400.000000
G03 X12.868486 Y3.918306 Z0.000000 I0.149119 J-0.069535
G03 X12.883901 Y3.848771 Z0.000000 I0.164534 J-0.000000
G03 X12.927259 Y3.792265 Z0.000000 I0.149119 J0.069535
G00 Z0.000100

(End cutting path id: path347)

(Start cutting path id: line343)
(Change tool to Default tool)

G00 Z0.000100
G00 X13.127123 Y3.792265

G01 Z0.000000 F100.0(Penetrate)
G01 X12.927259 Y3.792265 Z0.000000 F400.000000
G00 Z0.000100

(End cutting path id: line343)

(Start cutting path id: path345)
(Change tool to Default tool)

G00 Z0.000100
G00 X13.127124 Y3.792265

G01 Z0.000000 F100.0(Penetrate)
G03 X13.170482 Y3.848771 Z0.000000 I-0.105760 J0.126040 F400.000000
G03 X13.185897 Y3.918306 Z0.000000 I-0.149119 J0.069535
G03 X13.170482 Y3.987841 Z0.000000 I-0.164534 J0.000000
G03 X13.127124 Y4.044346 Z0.000000 I-0.149119 J-0.069535
G00 Z0.000100

(End cutting path id: path345)

(Start cutting path id: line341)
(Change tool to Default tool)

G00 Z0.000100
G00 X13.127123 Y4.044346

G01 Z0.000000 F100.0(Penetrate)
G01 X12.927259 Y4.044346 Z0.000000 F400.000000
G00 Z0.000100

(End cutting path id: line341)

(Start cutting path id: path235)
(Change tool to Default tool)

G00 Z0.000100
G00 X12.927259 Y3.144057

G01 Z0.000000 F100.0(Penetrate)
G03 X12.883901 Y3.087552 Z0.000000 I0.105760 J-0.126040 F400.000000
G03 X12.868486 Y3.018017 Z0.000000 I0.149119 J-0.069535
G03 X12.883901 Y2.948482 Z0.000000 I0.164534 J0.000000
G03 X12.927259 Y2.891976 Z0.000000 I0.149119 J0.069535
G00 Z0.000100

(End cutting path id: path235)

(Start cutting path id: line231)
(Change tool to Default tool)

G00 Z0.000100
G00 X13.127123 Y2.891976

G01 Z0.000000 F100.0(Penetrate)
G01 X12.927259 Y2.891976 Z0.000000 F400.000000
G00 Z0.000100

(End cutting path id: line231)

(Start cutting path id: path233)
(Change tool to Default tool)

G00 Z0.000100
G00 X13.127124 Y2.891976

G01 Z0.000000 F100.0(Penetrate)
G03 X13.170482 Y2.948482 Z0.000000 I-0.105760 J0.126040 F400.000000
G03 X13.185897 Y3.018017 Z0.000000 I-0.149119 J0.069535
G03 X13.170482 Y3.087552 Z0.000000 I-0.164534 J0.000000
G03 X13.127124 Y3.144057 Z0.000000 I-0.149119 J-0.069535
G00 Z0.000100

(End cutting path id: path233)

(Start cutting path id: line229)
(Change tool to Default tool)

G00 Z0.000100
G00 X13.127123 Y3.144057

G01 Z0.000000 F100.0(Penetrate)
G01 X12.927259 Y3.144057 Z0.000000 F400.000000
G00 Z0.000100

(End cutting path id: line229)

(Start cutting path id: path123)
(Change tool to Default tool)

G00 Z0.000100
G00 X12.927259 Y2.243768

G01 Z0.000000 F100.0(Penetrate)
G03 X12.883901 Y2.187263 Z0.000000 I0.105760 J-0.126040 F400.000000
G03 X12.868486 Y2.117728 Z0.000000 I0.149119 J-0.069535
G03 X12.883901 Y2.048193 Z0.000000 I0.164534 J-0.000000
G03 X12.927259 Y1.991688 Z0.000000 I0.149119 J0.069535
G00 Z0.000100

(End cutting path id: path123)

(Start cutting path id: line119)
(Change tool to Default tool)

G00 Z0.000100
G00 X13.127123 Y1.991688

G01 Z0.000000 F100.0(Penetrate)
G01 X12.927259 Y1.991688 Z0.000000 F400.000000
G00 Z0.000100

(End cutting path id: line119)

(Start cutting path id: path121)
(Change tool to Default tool)

G00 Z0.000100
G00 X13.127124 Y1.991688

G01 Z0.000000 F100.0(Penetrate)
G03 X13.170482 Y2.048193 Z0.000000 I-0.105760 J0.126040 F400.000000
G03 X13.185897 Y2.117728 Z0.000000 I-0.149119 J0.069535
G03 X13.170482 Y2.187263 Z0.000000 I-0.164534 J0.000000
G03 X13.127124 Y2.243768 Z0.000000 I-0.149119 J-0.069535
G00 Z0.000100

(End cutting path id: path121)

(Start cutting path id: line117)
(Change tool to Default tool)

G00 Z0.000100
G00 X13.127123 Y2.243768

G01 Z0.000000 F100.0(Penetrate)
G01 X12.927259 Y2.243768 Z0.000000 F400.000000
G00 Z0.000100

(End cutting path id: line117)

(Start cutting path id: path115)
(Change tool to Default tool)

G00 Z0.000100
G00 X14.277693 Y2.243768

G01 Z0.000000 F100.0(Penetrate)
G03 X14.234335 Y2.187263 Z0.000000 I0.105760 J-0.126040 F400.000000
G03 X14.218919 Y2.117728 Z0.000000 I0.149119 J-0.069535
G03 X14.234335 Y2.048193 Z0.000000 I0.164534 J-0.000000
G03 X14.277693 Y1.991688 Z0.000000 I0.149119 J0.069535
G00 Z0.000100

(End cutting path id: path115)

(Start cutting path id: line111)
(Change tool to Default tool)

G00 Z0.000100
G00 X14.477557 Y1.991688

G01 Z0.000000 F100.0(Penetrate)
G01 X14.277693 Y1.991688 Z0.000000 F400.000000
G00 Z0.000100

(End cutting path id: line111)

(Start cutting path id: path113)
(Change tool to Default tool)

G00 Z0.000100
G00 X14.477557 Y1.991688

G01 Z0.000000 F100.0(Penetrate)
G03 X14.520915 Y2.048193 Z0.000000 I-0.105760 J0.126040 F400.000000
G03 X14.536331 Y2.117728 Z0.000000 I-0.149119 J0.069535
G03 X14.520915 Y2.187263 Z0.000000 I-0.164534 J-0.000000
G03 X14.477557 Y2.243768 Z0.000000 I-0.149119 J-0.069535
G00 Z0.000100

(End cutting path id: path113)

(Start cutting path id: line109)
(Change tool to Default tool)

G00 Z0.000100
G00 X14.477557 Y2.243768

G01 Z0.000000 F100.0(Penetrate)
G01 X14.277693 Y2.243768 Z0.000000 F400.000000
G00 Z0.000100

(End cutting path id: line109)

(Start cutting path id: line223)
(Change tool to Default tool)

G00 Z0.000100
G00 X14.477557 Y2.891976

G01 Z0.000000 F100.0(Penetrate)
G01 X14.277693 Y2.891976 Z0.000000 F400.000000
G00 Z0.000100

(End cutting path id: line223)

(Start cutting path id: path225)
(Change tool to Default tool)

G00 Z0.000100
G00 X14.477557 Y2.891976

G01 Z0.000000 F100.0(Penetrate)
G03 X14.520915 Y2.948482 Z0.000000 I-0.105760 J0.126040 F400.000000
G03 X14.536331 Y3.018017 Z0.000000 I-0.149119 J0.069535
G03 X14.520915 Y3.087552 Z0.000000 I-0.164534 J-0.000000
G03 X14.477557 Y3.144057 Z0.000000 I-0.149119 J-0.069535
G00 Z0.000100

