 
(Laser Safety stuff)
M9 (Turn off mist relay that controls laser)
G20 (All units in inches)
G0 Z0.000 (Set laser to home 0 position)
G0 Z0.0001  (Move laser up to turn it off)
M7  (re-engage the relay so it can do cutting)
(MSG LASER IS LIVE)
(MSG Using F13 F70 for cutting and rapid movement)

%
(Header)
(Generated by gcodetools from Inkscape.)
(Using default header. To add your own header create file "header" in the output dir.)
M3
(Header end.)
G20 (All units in inches)

(Start cutting path id: path1723)
(Change tool to Default tool)

G00 Z0.000100
G00 X14.494956 Y14.044652 F70 (RAPID)

G01 Z0.000000 F100.0(Penetrate)
G03 X14.438451 Y14.088010 Z0.000000 I-0.126040 J-0.105760  F13 (CUT)
G03 X14.368916 Y14.103426 Z0.000000 I-0.069535 J-0.149119 F13 (CUT)
G03 X14.299381 Y14.088010 Z0.000000 I-0.000000 J-0.164534 F13 (CUT)
G03 X14.242875 Y14.044652 Z0.000000 I0.069535 J-0.149119 F13 (CUT)
G00 Z0.000100

(End cutting path id: path1723)


(Start cutting path id: path1721)
(Change tool to Default tool)

G00 Z0.000100
G00 X14.242875 Y13.844788 F70 (RAPID)

G01 Z0.000000 F100.0(Penetrate)
G03 X14.299381 Y13.801430 Z0.000000 I0.126040 J0.105760  F13 (CUT)
G03 X14.368916 Y13.786015 Z0.000000 I0.069535 J0.149119 F13 (CUT)
G03 X14.438451 Y13.801430 Z0.000000 I0.000000 J0.164534 F13 (CUT)
G03 X14.494956 Y13.844788 Z0.000000 I-0.069535 J0.149119 F13 (CUT)
G00 Z0.000100

(End cutting path id: path1721)


(Start cutting path id: line1717)
(Change tool to Default tool)

G00 Z0.000100
G00 X14.494957 Y13.844788 F70 (RAPID)

G01 Z0.000000 F100.0(Penetrate)
G01 X14.494957 Y14.044652 Z0.000000  F13 (CUT)
G00 Z0.000100

(End cutting path id: line1717)


(Start cutting path id: line1719)
(Change tool to Default tool)

G00 Z0.000100
G00 X14.242876 Y13.844788 F70 (RAPID)

G01 Z0.000000 F100.0(Penetrate)
G01 X14.242876 Y14.044652 Z0.000000  F13 (CUT)
G00 Z0.000100

(End cutting path id: line1719)


(Start cutting path id: path1681)
(Change tool to Default tool)

G00 Z0.000100
G00 X15.143164 Y13.844788 F70 (RAPID)

G01 Z0.000000 F100.0(Penetrate)
G03 X15.199670 Y13.801430 Z0.000000 I0.126040 J0.105760  F13 (CUT)
G03 X15.269205 Y13.786015 Z0.000000 I0.069535 J0.149119 F13 (CUT)
G03 X15.338740 Y13.801430 Z0.000000 I-0.000000 J0.164534 F13 (CUT)
G03 X15.395245 Y13.844788 Z0.000000 I-0.069535 J0.149119 F13 (CUT)
G00 Z0.000100

(End cutting path id: path1681)


(Start cutting path id: line1677)
(Change tool to Default tool)

G00 Z0.000100
G00 X15.395246 Y13.844788 F70 (RAPID)

G01 Z0.000000 F100.0(Penetrate)
G01 X15.395246 Y14.044652 Z0.000000  F13 (CUT)
G00 Z0.000100

(End cutting path id: line1677)


(Start cutting path id: path1683)
(Change tool to Default tool)

G00 Z0.000100
G00 X15.395245 Y14.044652 F70 (RAPID)

G01 Z0.000000 F100.0(Penetrate)
G03 X15.338740 Y14.088010 Z0.000000 I-0.126040 J-0.105760  F13 (CUT)
G03 X15.269205 Y14.103426 Z0.000000 I-0.069535 J-0.149119 F13 (CUT)
G03 X15.199670 Y14.088010 Z0.000000 I0.000000 J-0.164534 F13 (CUT)
G03 X15.143164 Y14.044652 Z0.000000 I0.069535 J-0.149119 F13 (CUT)
G00 Z0.000100

(End cutting path id: path1683)


(Start cutting path id: line1679)
(Change tool to Default tool)

G00 Z0.000100
G00 X15.143165 Y13.844788 F70 (RAPID)

G01 Z0.000000 F100.0(Penetrate)
G01 X15.143165 Y14.044652 Z0.000000  F13 (CUT)
G00 Z0.000100

(End cutting path id: line1679)


(Start cutting path id: circle35)
(Change tool to Default tool)

G00 Z0.000100
G00 X15.836386 Y14.174294 F70 (RAPID)

G01 Z0.000000 F100.0(Penetrate)
G02 X15.802107 Y14.091536 Z0.000000 I-0.117038 J-0.000000  F13 (CUT)
G02 X15.719349 Y14.057257 Z0.000000 I-0.082758 J0.082758 F13 (CUT)
G02 X15.636591 Y14.091536 Z0.000000 I0.000000 J0.117038 F13 (CUT)
G02 X15.602311 Y14.174294 Z0.000000 I0.082758 J0.082758 F13 (CUT)
G02 X15.636591 Y14.257052 Z0.000000 I0.117038 J-0.000000 F13 (CUT)
G02 X15.719349 Y14.291332 Z0.000000 I0.082758 J-0.082758 F13 (CUT)
G02 X15.802107 Y14.257053 Z0.000000 I-0.000000 J-0.117038 F13 (CUT)
G02 X15.836386 Y14.174294 Z0.000000 I-0.082758 J-0.082758 F13 (CUT)
G01 X15.836386 Y14.174294 Z0.000000 F13 (CUT)
G00 Z0.000100

(End cutting path id: circle35)


(Start cutting path id: line41)
(Change tool to Default tool)

G00 Z0.000100
G00 X16.205505 Y14.615436 F70 (RAPID)

G01 Z0.000000 F100.0(Penetrate)
G01 X16.205505 Y0.660958 Z0.000000  F13 (CUT)
G00 Z0.000100

(End cutting path id: line41)


(Start cutting path id: line43)
(Change tool to Default tool)

G00 Z0.000100
G00 X16.205505 Y0.660958 F70 (RAPID)

G01 Z0.000000 F100.0(Penetrate)
G01 X0.000305 Y0.660958 Z0.000000  F13 (CUT)
G00 Z0.000100

(End cutting path id: line43)


(Start cutting path id: line37)
(Change tool to Default tool)

G00 Z0.000100
G00 X0.000305 Y0.660958 F70 (RAPID)

G01 Z0.000000 F100.0(Penetrate)
G01 X0.000305 Y14.615436 Z0.000000  F13 (CUT)
G00 Z0.000100

(End cutting path id: line37)


(Start cutting path id: line39)
(Change tool to Default tool)

G00 Z0.000100
G00 X0.000305 Y14.615436 F70 (RAPID)

G01 Z0.000000 F100.0(Penetrate)
G01 X16.205505 Y14.615436 Z0.000000  F13 (CUT)
G00 Z0.000100

(End cutting path id: line39)


(Start cutting path id: path1675)
(Change tool to Default tool)

G00 Z0.000100
G00 X15.395245 Y13.144364 F70 (RAPID)

G01 Z0.000000 F100.0(Penetrate)
G03 X15.338740 Y13.187722 Z0.000000 I-0.126040 J-0.105760  F13 (CUT)
G03 X15.269205 Y13.203137 Z0.000000 I-0.069535 J-0.149119 F13 (CUT)
G03 X15.199670 Y13.187722 Z0.000000 I0.000000 J-0.164534 F13 (CUT)
G03 X15.143164 Y13.144364 Z0.000000 I0.069535 J-0.149119 F13 (CUT)
G00 Z0.000100

(End cutting path id: path1675)


(Start cutting path id: path1673)
(Change tool to Default tool)

G00 Z0.000100
G00 X15.143164 Y12.944499 F70 (RAPID)

G01 Z0.000000 F100.0(Penetrate)
G03 X15.199670 Y12.901141 Z0.000000 I0.126040 J0.105760  F13 (CUT)
G03 X15.269205 Y12.885726 Z0.000000 I0.069535 J0.149119 F13 (CUT)
G03 X15.338740 Y12.901141 Z0.000000 I0.000000 J0.164534 F13 (CUT)
G03 X15.395245 Y12.944499 Z0.000000 I-0.069535 J0.149119 F13 (CUT)
G00 Z0.000100

(End cutting path id: path1673)


(Start cutting path id: line1669)
(Change tool to Default tool)

G00 Z0.000100
G00 X15.395246 Y12.944499 F70 (RAPID)

G01 Z0.000000 F100.0(Penetrate)
G01 X15.395246 Y13.144364 Z0.000000  F13 (CUT)
G00 Z0.000100

(End cutting path id: line1669)


(Start cutting path id: line1671)
(Change tool to Default tool)

G00 Z0.000100
G00 X15.143165 Y12.944499 F70 (RAPID)

G01 Z0.000000 F100.0(Penetrate)
G01 X15.143165 Y13.144364 Z0.000000  F13 (CUT)
G00 Z0.000100

(End cutting path id: line1671)


(Start cutting path id: path1715)
(Change tool to Default tool)

G00 Z0.000100
G00 X14.494956 Y13.144364 F70 (RAPID)

G01 Z0.000000 F100.0(Penetrate)
G03 X14.438451 Y13.187722 Z0.000000 I-0.126040 J-0.105760  F13 (CUT)
G03 X14.368916 Y13.203137 Z0.000000 I-0.069535 J-0.149119 F13 (CUT)
G03 X14.299381 Y13.187722 Z0.000000 I-0.000000 J-0.164534 F13 (CUT)
G03 X14.242875 Y13.144364 Z0.000000 I0.069535 J-0.149119 F13 (CUT)
G00 Z0.000100

(End cutting path id: path1715)


(Start cutting path id: path1713)
(Change tool to Default tool)

G00 Z0.000100
G00 X14.242875 Y12.944499 F70 (RAPID)

G01 Z0.000000 F100.0(Penetrate)
G03 X14.299381 Y12.901141 Z0.000000 I0.126040 J0.105760  F13 (CUT)
G03 X14.368916 Y12.885726 Z0.000000 I0.069535 J0.149119 F13 (CUT)
G03 X14.438451 Y12.901141 Z0.000000 I0.000000 J0.164534 F13 (CUT)
G03 X14.494956 Y12.944499 Z0.000000 I-0.069535 J0.149119 F13 (CUT)
G00 Z0.000100

(End cutting path id: path1713)


(Start cutting path id: line1709)
(Change tool to Default tool)

G00 Z0.000100
G00 X14.494957 Y12.944499 F70 (RAPID)

G01 Z0.000000 F100.0(Penetrate)
G01 X14.494957 Y13.144364 Z0.000000  F13 (CUT)
G00 Z0.000100

(End cutting path id: line1709)


(Start cutting path id: line1711)
(Change tool to Default tool)

G00 Z0.000100
G00 X14.242876 Y12.944499 F70 (RAPID)

G01 Z0.000000 F100.0(Penetrate)
G01 X14.242876 Y13.144364 Z0.000000  F13 (CUT)
G00 Z0.000100

(End cutting path id: line1711)


(Start cutting path id: path1707)
(Change tool to Default tool)

G00 Z0.000100
G00 X14.494956 Y12.244075 F70 (RAPID)

G01 Z0.000000 F100.0(Penetrate)
G03 X14.438451 Y12.287433 Z0.000000 I-0.126040 J-0.105760  F13 (CUT)
G03 X14.368916 Y12.302848 Z0.000000 I-0.069535 J-0.149119 F13 (CUT)
G03 X14.299381 Y12.287433 Z0.000000 I-0.000000 J-0.164534 F13 (CUT)
G03 X14.242875 Y12.244075 Z0.000000 I0.069535 J-0.149119 F13 (CUT)
G00 Z0.000100

(End cutting path id: path1707)


(Start cutting path id: line1703)
(Change tool to Default tool)

G00 Z0.000100
G00 X14.242876 Y12.044211 F70 (RAPID)

G01 Z0.000000 F100.0(Penetrate)
G01 X14.242876 Y12.244075 Z0.000000  F13 (CUT)
G00 Z0.000100

(End cutting path id: line1703)


(Start cutting path id: path1705)
(Change tool to Default tool)

G00 Z0.000100
G00 X14.242875 Y12.044211 F70 (RAPID)

G01 Z0.000000 F100.0(Penetrate)
G03 X14.299381 Y12.000852 Z0.000000 I0.126040 J0.105760  F13 (CUT)
G03 X14.368916 Y11.985437 Z0.000000 I0.069535 J0.149119 F13 (CUT)
G03 X14.438451 Y12.000852 Z0.000000 I0.000000 J0.164534 F13 (CUT)
G03 X14.494956 Y12.044211 Z0.000000 I-0.069535 J0.149119 F13 (CUT)
G00 Z0.000100

(End cutting path id: path1705)


(Start cutting path id: line1701)
(Change tool to Default tool)

G00 Z0.000100
G00 X14.494957 Y12.044211 F70 (RAPID)

G01 Z0.000000 F100.0(Penetrate)
G01 X14.494957 Y12.244075 Z0.000000  F13 (CUT)
G00 Z0.000100

(End cutting path id: line1701)


(Start cutting path id: path1665)
(Change tool to Default tool)

G00 Z0.000100
G00 X15.143164 Y12.044211 F70 (RAPID)

G01 Z0.000000 F100.0(Penetrate)
G03 X15.199670 Y12.000852 Z0.000000 I0.126040 J0.105760  F13 (CUT)
G03 X15.269205 Y11.985437 Z0.000000 I0.069535 J0.149119 F13 (CUT)
G03 X15.338740 Y12.000852 Z0.000000 I-0.000000 J0.164534 F13 (CUT)
G03 X15.395245 Y12.044211 Z0.000000 I-0.069535 J0.149119 F13 (CUT)
G00 Z0.000100

(End cutting path id: path1665)


(Start cutting path id: line1661)
(Change tool to Default tool)

G00 Z0.000100
G00 X15.395246 Y12.044211 F70 (RAPID)

G01 Z0.000000 F100.0(Penetrate)
G01 X15.395246 Y12.244075 Z0.000000  F13 (CUT)
G00 Z0.000100

(End cutting path id: line1661)


(Start cutting path id: path1667)
(Change tool to Default tool)

G00 Z0.000100
G00 X15.395245 Y12.244075 F70 (RAPID)

G01 Z0.000000 F100.0(Penetrate)
G03 X15.338740 Y12.287433 Z0.000000 I-0.126040 J-0.105760  F13 (CUT)
G03 X15.269205 Y12.302848 Z0.000000 I-0.069535 J-0.149119 F13 (CUT)
G03 X15.199670 Y12.287433 Z0.000000 I0.000000 J-0.164534 F13 (CUT)
G03 X15.143164 Y12.244075 Z0.000000 I0.069535 J-0.149119 F13 (CUT)
G00 Z0.000100

(End cutting path id: path1667)


(Start cutting path id: line1663)
(Change tool to Default tool)

G00 Z0.000100
G00 X15.143165 Y12.044211 F70 (RAPID)

G01 Z0.000000 F100.0(Penetrate)
G01 X15.143165 Y12.244075 Z0.000000  F13 (CUT)
G00 Z0.000100

(End cutting path id: line1663)


(Start cutting path id: path1659)
(Change tool to Default tool)

G00 Z0.000100
G00 X15.395245 Y11.343786 F70 (RAPID)

G01 Z0.000000 F100.0(Penetrate)
G03 X15.338740 Y11.387144 Z0.000000 I-0.126040 J-0.105760  F13 (CUT)
G03 X15.269205 Y11.402559 Z0.000000 I-0.069535 J-0.149119 F13 (CUT)
G03 X15.199670 Y11.387144 Z0.000000 I0.000000 J-0.164534 F13 (CUT)
G03 X15.143164 Y11.343786 Z0.000000 I0.069535 J-0.149119 F13 (CUT)
G00 Z0.000100

(End cutting path id: path1659)


(Start cutting path id: line1655)
(Change tool to Default tool)

G00 Z0.000100
G00 X15.143165 Y11.143922 F70 (RAPID)

G01 Z0.000000 F100.0(Penetrate)
G01 X15.143165 Y11.343786 Z0.000000  F13 (CUT)
G00 Z0.000100

(End cutting path id: line1655)


(Start cutting path id: path1657)
(Change tool to Default tool)

G00 Z0.000100
G00 X15.143164 Y11.143922 F70 (RAPID)

G01 Z0.000000 F100.0(Penetrate)
G03 X15.199670 Y11.100564 Z0.000000 I0.126040 J0.105760  F13 (CUT)
G03 X15.269205 Y11.085148 Z0.000000 I0.069535 J0.149119 F13 (CUT)
G03 X15.338740 Y11.100564 Z0.000000 I0.000000 J0.164534 F13 (CUT)
G03 X15.395245 Y11.143922 Z0.000000 I-0.069535 J0.149119 F13 (CUT)
G00 Z0.000100

(End cutting path id: path1657)


(Start cutting path id: line1653)
(Change tool to Default tool)

G00 Z0.000100
G00 X15.395246 Y11.143922 F70 (RAPID)

G01 Z0.000000 F100.0(Penetrate)
G01 X15.395246 Y11.343786 Z0.000000  F13 (CUT)
G00 Z0.000100

(End cutting path id: line1653)


(Start cutting path id: path1699)
(Change tool to Default tool)

G00 Z0.000100
G00 X14.494956 Y11.343786 F70 (RAPID)

G01 Z0.000000 F100.0(Penetrate)
G03 X14.438451 Y11.387144 Z0.000000 I-0.126040 J-0.105760  F13 (CUT)
G03 X14.368916 Y11.402559 Z0.000000 I-0.069535 J-0.149119 F13 (CUT)
G03 X14.299381 Y11.387144 Z0.000000 I0.000000 J-0.164534 F13 (CUT)
G03 X14.242875 Y11.343786 Z0.000000 I0.069535 J-0.149119 F13 (CUT)
G00 Z0.000100

(End cutting path id: path1699)


(Start cutting path id: line1695)
(Change tool to Default tool)

G00 Z0.000100
G00 X14.242876 Y11.143922 F70 (RAPID)

G01 Z0.000000 F100.0(Penetrate)
G01 X14.242876 Y11.343786 Z0.000000  F13 (CUT)
G00 Z0.000100

(End cutting path id: line1695)


(Start cutting path id: path1697)
(Change tool to Default tool)

G00 Z0.000100
G00 X14.242875 Y11.143922 F70 (RAPID)

G01 Z0.000000 F100.0(Penetrate)
G03 X14.299381 Y11.100564 Z0.000000 I0.126040 J0.105760  F13 (CUT)
G03 X14.368916 Y11.085148 Z0.000000 I0.069535 J0.149119 F13 (CUT)
G03 X14.438451 Y11.100564 Z0.000000 I0.000000 J0.164534 F13 (CUT)
G03 X14.494956 Y11.143922 Z0.000000 I-0.069535 J0.149119 F13 (CUT)
G00 Z0.000100

(End cutting path id: path1697)


(Start cutting path id: line1693)
(Change tool to Default tool)

G00 Z0.000100
G00 X14.494957 Y11.143922 F70 (RAPID)

G01 Z0.000000 F100.0(Penetrate)
G01 X14.494957 Y11.343786 Z0.000000  F13 (CUT)
G00 Z0.000100

(End cutting path id: line1693)


(Start cutting path id: path1691)
(Change tool to Default tool)

G00 Z0.000100
G00 X14.494956 Y10.443497 F70 (RAPID)

G01 Z0.000000 F100.0(Penetrate)
G03 X14.438451 Y10.486855 Z0.000000 I-0.126040 J-0.105760  F13 (CUT)
G03 X14.368916 Y10.502270 Z0.000000 I-0.069535 J-0.149119 F13 (CUT)
G03 X14.299381 Y10.486855 Z0.000000 I-0.000000 J-0.164534 F13 (CUT)
G03 X14.242875 Y10.443497 Z0.000000 I0.069535 J-0.149119 F13 (CUT)
G00 Z0.000100

(End cutting path id: path1691)


(Start cutting path id: path1689)
(Change tool to Default tool)

G00 Z0.000100
G00 X14.242875 Y10.243633 F70 (RAPID)

G01 Z0.000000 F100.0(Penetrate)
G03 X14.299381 Y10.200275 Z0.000000 I0.126040 J0.105760  F13 (CUT)
G03 X14.368916 Y10.184859 Z0.000000 I0.069535 J0.149119 F13 (CUT)
G03 X14.438451 Y10.200275 Z0.000000 I0.000000 J0.164534 F13 (CUT)
G03 X14.494956 Y10.243633 Z0.000000 I-0.069535 J0.149119 F13 (CUT)
G00 Z0.000100

(End cutting path id: path1689)


(Start cutting path id: line1685)
(Change tool to Default tool)

G00 Z0.000100
G00 X14.494957 Y10.243633 F70 (RAPID)

G01 Z0.000000 F100.0(Penetrate)
G01 X14.494957 Y10.443497 Z0.000000  F13 (CUT)
G00 Z0.000100

(End cutting path id: line1685)


(Start cutting path id: line1687)
(Change tool to Default tool)

G00 Z0.000100
G00 X14.242876 Y10.243633 F70 (RAPID)

G01 Z0.000000 F100.0(Penetrate)
G01 X14.242876 Y10.443497 Z0.000000  F13 (CUT)
G00 Z0.000100

(End cutting path id: line1687)


(Start cutting path id: path1649)
(Change tool to Default tool)

G00 Z0.000100
G00 X15.143164 Y10.243633 F70 (RAPID)

G01 Z0.000000 F100.0(Penetrate)
G03 X15.199670 Y10.200275 Z0.000000 I0.126040 J0.105760  F13 (CUT)
G03 X15.269205 Y10.184859 Z0.000000 I0.069535 J0.149119 F13 (CUT)
G03 X15.338740 Y10.200275 Z0.000000 I0.000000 J0.164534 F13 (CUT)
G03 X15.395245 Y10.243633 Z0.000000 I-0.069535 J0.149119 F13 (CUT)
G00 Z0.000100

(End cutting path id: path1649)


(Start cutting path id: line1645)
(Change tool to Default tool)

G00 Z0.000100
G00 X15.395246 Y10.243633 F70 (RAPID)

G01 Z0.000000 F100.0(Penetrate)
G01 X15.395246 Y10.443497 Z0.000000  F13 (CUT)
G00 Z0.000100

(End cutting path id: line1645)


(Start cutting path id: path1651)
(Change tool to Default tool)

G00 Z0.000100
G00 X15.395245 Y10.443497 F70 (RAPID)

G01 Z0.000000 F100.0(Penetrate)
G03 X15.338740 Y10.486855 Z0.000000 I-0.126040 J-0.105760  F13 (CUT)
G03 X15.269205 Y10.502270 Z0.000000 I-0.069535 J-0.149119 F13 (CUT)
G03 X15.199670 Y10.486855 Z0.000000 I0.000000 J-0.164534 F13 (CUT)
G03 X15.143164 Y10.443497 Z0.000000 I0.069535 J-0.149119 F13 (CUT)
G00 Z0.000100

(End cutting path id: path1651)


(Start cutting path id: line1647)
(Change tool to Default tool)

G00 Z0.000100
G00 X15.143165 Y10.243633 F70 (RAPID)

G01 Z0.000000 F100.0(Penetrate)
G01 X15.143165 Y10.443497 Z0.000000  F13 (CUT)
G00 Z0.000100

(End cutting path id: line1647)


(Start cutting path id: circle29)
(Change tool to Default tool)

G00 Z0.000100
G00 X15.836386 Y9.897922 F70 (RAPID)

G01 Z0.000000 F100.0(Penetrate)
G02 X15.802107 Y9.815164 Z0.000000 I-0.117038 J-0.000000  F13 (CUT)
G02 X15.719349 Y9.780884 Z0.000000 I-0.082758 J0.082758 F13 (CUT)
G02 X15.636591 Y9.815164 Z0.000000 I0.000000 J0.117038 F13 (CUT)
G02 X15.602311 Y9.897922 Z0.000000 I0.082758 J0.082758 F13 (CUT)
G02 X15.636591 Y9.980680 Z0.000000 I0.117038 J-0.000000 F13 (CUT)
G02 X15.719349 Y10.014959 Z0.000000 I0.082758 J-0.082758 F13 (CUT)
G02 X15.802107 Y9.980680 Z0.000000 I0.000000 J-0.117038 F13 (CUT)
G02 X15.836386 Y9.897922 Z0.000000 I-0.082758 J-0.082758 F13 (CUT)
G01 X15.836386 Y9.897922 Z0.000000 F13 (CUT)
G00 Z0.000100

(End cutting path id: circle29)


(Start cutting path id: path1603)
(Change tool to Default tool)

G00 Z0.000100
G00 X15.395245 Y9.543208 F70 (RAPID)

G01 Z0.000000 F100.0(Penetrate)
G03 X15.338740 Y9.586566 Z0.000000 I-0.126040 J-0.105760  F13 (CUT)
G03 X15.269205 Y9.601982 Z0.000000 I-0.069535 J-0.149119 F13 (CUT)
G03 X15.199670 Y9.586566 Z0.000000 I0.000000 J-0.164534 F13 (CUT)
G03 X15.143164 Y9.543208 Z0.000000 I0.069535 J-0.149119 F13 (CUT)
G00 Z0.000100

(End cutting path id: path1603)


(Start cutting path id: path1601)
(Change tool to Default tool)

G00 Z0.000100
G00 X15.143164 Y9.343344 F70 (RAPID)

G01 Z0.000000 F100.0(Penetrate)
G03 X15.199670 Y9.299986 Z0.000000 I0.126040 J0.105760  F13 (CUT)
G03 X15.269205 Y9.284570 Z0.000000 I0.069535 J0.149119 F13 (CUT)
G03 X15.338740 Y9.299986 Z0.000000 I0.000000 J0.164534 F13 (CUT)
G03 X15.395245 Y9.343344 Z0.000000 I-0.069535 J0.149119 F13 (CUT)
G00 Z0.000100

(End cutting path id: path1601)


(Start cutting path id: line1597)
(Change tool to Default tool)

G00 Z0.000100
G00 X15.395246 Y9.343343 F70 (RAPID)

G01 Z0.000000 F100.0(Penetrate)
G01 X15.395246 Y9.543208 Z0.000000  F13 (CUT)
G00 Z0.000100

(End cutting path id: line1597)


(Start cutting path id: line1599)
(Change tool to Default tool)

G00 Z0.000100
G00 X15.143165 Y9.343343 F70 (RAPID)

G01 Z0.000000 F100.0(Penetrate)
G01 X15.143165 Y9.543208 Z0.000000  F13 (CUT)
G00 Z0.000100

(End cutting path id: line1599)


(Start cutting path id: path1643)
(Change tool to Default tool)

G00 Z0.000100
G00 X14.494956 Y9.543208 F70 (RAPID)

G01 Z0.000000 F100.0(Penetrate)
G03 X14.438451 Y9.586566 Z0.000000 I-0.126040 J-0.105760  F13 (CUT)
G03 X14.368916 Y9.601982 Z0.000000 I-0.069535 J-0.149119 F13 (CUT)
G03 X14.299381 Y9.586566 Z0.000000 I-0.000000 J-0.164534 F13 (CUT)
G03 X14.242875 Y9.543208 Z0.000000 I0.069535 J-0.149119 F13 (CUT)
G00 Z0.000100

(End cutting path id: path1643)


(Start cutting path id: path1641)
(Change tool to Default tool)

G00 Z0.000100
G00 X14.242875 Y9.343344 F70 (RAPID)

G01 Z0.000000 F100.0(Penetrate)
G03 X14.299381 Y9.299986 Z0.000000 I0.126040 J0.105760  F13 (CUT)
G03 X14.368916 Y9.284570 Z0.000000 I0.069535 J0.149119 F13 (CUT)
G03 X14.438451 Y9.299986 Z0.000000 I0.000000 J0.164534 F13 (CUT)
G03 X14.494956 Y9.343344 Z0.000000 I-0.069535 J0.149119 F13 (CUT)
G00 Z0.000100

(End cutting path id: path1641)


(Start cutting path id: line1637)
(Change tool to Default tool)

G00 Z0.000100
G00 X14.494957 Y9.343343 F70 (RAPID)

G01 Z0.000000 F100.0(Penetrate)
G01 X14.494957 Y9.543208 Z0.000000  F13 (CUT)
G00 Z0.000100

(End cutting path id: line1637)


(Start cutting path id: line1639)
(Change tool to Default tool)

G00 Z0.000100
G00 X14.242876 Y9.343343 F70 (RAPID)

G01 Z0.000000 F100.0(Penetrate)
G01 X14.242876 Y9.543208 Z0.000000  F13 (CUT)
G00 Z0.000100

(End cutting path id: line1639)


(Start cutting path id: path1635)
(Change tool to Default tool)

G00 Z0.000100
G00 X14.494956 Y8.642919 F70 (RAPID)

G01 Z0.000000 F100.0(Penetrate)
G03 X14.438451 Y8.686277 Z0.000000 I-0.126040 J-0.105760  F13 (CUT)
G03 X14.368916 Y8.701693 Z0.000000 I-0.069535 J-0.149119 F13 (CUT)
G03 X14.299381 Y8.686277 Z0.000000 I-0.000000 J-0.164534 F13 (CUT)
G03 X14.242875 Y8.642919 Z0.000000 I0.069535 J-0.149119 F13 (CUT)
G00 Z0.000100

(End cutting path id: path1635)


(Start cutting path id: path1633)
(Change tool to Default tool)

G00 Z0.000100
G00 X14.242875 Y8.443055 F70 (RAPID)

G01 Z0.000000 F100.0(Penetrate)
G03 X14.299381 Y8.399697 Z0.000000 I0.126040 J0.105760  F13 (CUT)
G03 X14.368916 Y8.384281 Z0.000000 I0.069535 J0.149119 F13 (CUT)
G03 X14.438451 Y8.399697 Z0.000000 I0.000000 J0.164534 F13 (CUT)
G03 X14.494956 Y8.443055 Z0.000000 I-0.069535 J0.149119 F13 (CUT)
G00 Z0.000100

(End cutting path id: path1633)


(Start cutting path id: line1629)
(Change tool to Default tool)

G00 Z0.000100
G00 X14.494957 Y8.443055 F70 (RAPID)

G01 Z0.000000 F100.0(Penetrate)
G01 X14.494957 Y8.642919 Z0.000000  F13 (CUT)
G00 Z0.000100

(End cutting path id: line1629)


(Start cutting path id: line1631)
(Change tool to Default tool)

G00 Z0.000100
G00 X14.242876 Y8.443055 F70 (RAPID)

G01 Z0.000000 F100.0(Penetrate)
G01 X14.242876 Y8.642919 Z0.000000  F13 (CUT)
G00 Z0.000100

(End cutting path id: line1631)


(Start cutting path id: path1593)
(Change tool to Default tool)

G00 Z0.000100
G00 X15.143164 Y8.443055 F70 (RAPID)

G01 Z0.000000 F100.0(Penetrate)
G03 X15.199670 Y8.399697 Z0.000000 I0.126040 J0.105760  F13 (CUT)
G03 X15.269205 Y8.384281 Z0.000000 I0.069535 J0.149119 F13 (CUT)
G03 X15.338740 Y8.399697 Z0.000000 I0.000000 J0.164534 F13 (CUT)
G03 X15.395245 Y8.443055 Z0.000000 I-0.069535 J0.149119 F13 (CUT)
G00 Z0.000100

(End cutting path id: path1593)


(Start cutting path id: line1589)
(Change tool to Default tool)

G00 Z0.000100
G00 X15.395246 Y8.443055 F70 (RAPID)

G01 Z0.000000 F100.0(Penetrate)
G01 X15.395246 Y8.642919 Z0.000000  F13 (CUT)
G00 Z0.000100

(End cutting path id: line1589)


(Start cutting path id: path1595)
(Change tool to Default tool)

G00 Z0.000100
G00 X15.395245 Y8.642919 F70 (RAPID)

G01 Z0.000000 F100.0(Penetrate)
G03 X15.338740 Y8.686277 Z0.000000 I-0.126040 J-0.105760  F13 (CUT)
G03 X15.269205 Y8.701693 Z0.000000 I-0.069535 J-0.149119 F13 (CUT)
G03 X15.199670 Y8.686277 Z0.000000 I0.000000 J-0.164534 F13 (CUT)
G03 X15.143164 Y8.642919 Z0.000000 I0.069535 J-0.149119 F13 (CUT)
G00 Z0.000100

(End cutting path id: path1595)


(Start cutting path id: line1591)
(Change tool to Default tool)

G00 Z0.000100
G00 X15.143165 Y8.443055 F70 (RAPID)

G01 Z0.000000 F100.0(Penetrate)
G01 X15.143165 Y8.642919 Z0.000000  F13 (CUT)
G00 Z0.000100

(End cutting path id: line1591)


(Start cutting path id: path1587)
(Change tool to Default tool)

G00 Z0.000100
G00 X15.395245 Y7.742630 F70 (RAPID)

G01 Z0.000000 F100.0(Penetrate)
G03 X15.338740 Y7.785988 Z0.000000 I-0.126040 J-0.105760  F13 (CUT)
G03 X15.269205 Y7.801404 Z0.000000 I-0.069535 J-0.149119 F13 (CUT)
G03 X15.199670 Y7.785988 Z0.000000 I0.000000 J-0.164534 F13 (CUT)
G03 X15.143164 Y7.742630 Z0.000000 I0.069535 J-0.149119 F13 (CUT)
G00 Z0.000100

(End cutting path id: path1587)


(Start cutting path id: line1583)
(Change tool to Default tool)

G00 Z0.000100
G00 X15.143165 Y7.542766 F70 (RAPID)

G01 Z0.000000 F100.0(Penetrate)
G01 X15.143165 Y7.742630 Z0.000000  F13 (CUT)
G00 Z0.000100

(End cutting path id: line1583)


(Start cutting path id: path1585)
(Change tool to Default tool)

G00 Z0.000100
G00 X15.143164 Y7.542766 F70 (RAPID)

G01 Z0.000000 F100.0(Penetrate)
G03 X15.199670 Y7.499408 Z0.000000 I0.126040 J0.105760  F13 (CUT)
G03 X15.269205 Y7.483992 Z0.000000 I0.069535 J0.149119 F13 (CUT)
G03 X15.338740 Y7.499408 Z0.000000 I0.000000 J0.164534 F13 (CUT)
G03 X15.395245 Y7.542766 Z0.000000 I-0.069535 J0.149119 F13 (CUT)
G00 Z0.000100

(End cutting path id: path1585)


(Start cutting path id: line1581)
(Change tool to Default tool)

G00 Z0.000100
G00 X15.395246 Y7.542766 F70 (RAPID)

G01 Z0.000000 F100.0(Penetrate)
G01 X15.395246 Y7.742630 Z0.000000  F13 (CUT)
G00 Z0.000100

(End cutting path id: line1581)


(Start cutting path id: path1579)
(Change tool to Default tool)

G00 Z0.000100
G00 X15.395245 Y6.842341 F70 (RAPID)

G01 Z0.000000 F100.0(Penetrate)
G03 X15.338740 Y6.885699 Z0.000000 I-0.126040 J-0.105760  F13 (CUT)
G03 X15.269205 Y6.901115 Z0.000000 I-0.069535 J-0.149119 F13 (CUT)
G03 X15.199670 Y6.885699 Z0.000000 I-0.000000 J-0.164534 F13 (CUT)
G03 X15.143164 Y6.842341 Z0.000000 I0.069535 J-0.149119 F13 (CUT)
G00 Z0.000100

(End cutting path id: path1579)


(Start cutting path id: path1577)
(Change tool to Default tool)

G00 Z0.000100
G00 X15.143164 Y6.642477 F70 (RAPID)

G01 Z0.000000 F100.0(Penetrate)
G03 X15.199670 Y6.599119 Z0.000000 I0.126040 J0.105760  F13 (CUT)
G03 X15.269205 Y6.583704 Z0.000000 I0.069535 J0.149119 F13 (CUT)
G03 X15.338740 Y6.599119 Z0.000000 I0.000000 J0.164534 F13 (CUT)
G03 X15.395245 Y6.642477 Z0.000000 I-0.069535 J0.149119 F13 (CUT)
G00 Z0.000100

(End cutting path id: path1577)


(Start cutting path id: line1573)
(Change tool to Default tool)

G00 Z0.000100
G00 X15.395246 Y6.642477 F70 (RAPID)

G01 Z0.000000 F100.0(Penetrate)
G01 X15.395246 Y6.842342 Z0.000000  F13 (CUT)
G00 Z0.000100

(End cutting path id: line1573)


(Start cutting path id: line1575)
(Change tool to Default tool)

G00 Z0.000100
G00 X15.143165 Y6.642477 F70 (RAPID)

G01 Z0.000000 F100.0(Penetrate)
G01 X15.143165 Y6.842342 Z0.000000  F13 (CUT)
G00 Z0.000100

(End cutting path id: line1575)


(Start cutting path id: path1619)
(Change tool to Default tool)

G00 Z0.000100
G00 X14.494956 Y6.842341 F70 (RAPID)

G01 Z0.000000 F100.0(Penetrate)
G03 X14.438451 Y6.885699 Z0.000000 I-0.126040 J-0.105760  F13 (CUT)
G03 X14.368916 Y6.901115 Z0.000000 I-0.069535 J-0.149119 F13 (CUT)
G03 X14.299381 Y6.885699 Z0.000000 I-0.000000 J-0.164534 F13 (CUT)
G03 X14.242875 Y6.842341 Z0.000000 I0.069535 J-0.149119 F13 (CUT)
G00 Z0.000100

(End cutting path id: path1619)


(Start cutting path id: path1617)
(Change tool to Default tool)

G00 Z0.000100
G00 X14.242875 Y6.642477 F70 (RAPID)

G01 Z0.000000 F100.0(Penetrate)
G03 X14.299381 Y6.599119 Z0.000000 I0.126040 J0.105760  F13 (CUT)
G03 X14.368916 Y6.583704 Z0.000000 I0.069535 J0.149119 F13 (CUT)
G03 X14.438451 Y6.599119 Z0.000000 I0.000000 J0.164534 F13 (CUT)
G03 X14.494956 Y6.642477 Z0.000000 I-0.069535 J0.149119 F13 (CUT)
G00 Z0.000100

(End cutting path id: path1617)


(Start cutting path id: line1613)
(Change tool to Default tool)

G00 Z0.000100
G00 X14.494957 Y6.642477 F70 (RAPID)

G01 Z0.000000 F100.0(Penetrate)
G01 X14.494957 Y6.842342 Z0.000000  F13 (CUT)
G00 Z0.000100

(End cutting path id: line1613)


(Start cutting path id: line1615)
(Change tool to Default tool)

G00 Z0.000100
G00 X14.242876 Y6.642477 F70 (RAPID)

G01 Z0.000000 F100.0(Penetrate)
G01 X14.242876 Y6.842342 Z0.000000  F13 (CUT)
G00 Z0.000100

(End cutting path id: line1615)


(Start cutting path id: path1625)
(Change tool to Default tool)

G00 Z0.000100
G00 X14.242875 Y7.542766 F70 (RAPID)

G01 Z0.000000 F100.0(Penetrate)
G03 X14.299381 Y7.499408 Z0.000000 I0.126040 J0.105760  F13 (CUT)
G03 X14.368916 Y7.483992 Z0.000000 I0.069535 J0.149119 F13 (CUT)
G03 X14.438451 Y7.499408 Z0.000000 I0.000000 J0.164534 F13 (CUT)
G03 X14.494956 Y7.542766 Z0.000000 I-0.069535 J0.149119 F13 (CUT)
G00 Z0.000100

(End cutting path id: path1625)


(Start cutting path id: line1621)
(Change tool to Default tool)

G00 Z0.000100
G00 X14.494957 Y7.542766 F70 (RAPID)

G01 Z0.000000 F100.0(Penetrate)
G01 X14.494957 Y7.742630 Z0.000000  F13 (CUT)
G00 Z0.000100

(End cutting path id: line1621)


(Start cutting path id: path1627)
(Change tool to Default tool)

G00 Z0.000100
G00 X14.494956 Y7.742630 F70 (RAPID)

G01 Z0.000000 F100.0(Penetrate)
G03 X14.438451 Y7.785988 Z0.000000 I-0.126040 J-0.105760  F13 (CUT)
G03 X14.368916 Y7.801404 Z0.000000 I-0.069535 J-0.149119 F13 (CUT)
G03 X14.299381 Y7.785988 Z0.000000 I-0.000000 J-0.164534 F13 (CUT)
G03 X14.242875 Y7.742630 Z0.000000 I0.069535 J-0.149119 F13 (CUT)
G00 Z0.000100

(End cutting path id: path1627)


(Start cutting path id: line1623)
(Change tool to Default tool)

G00 Z0.000100
G00 X14.242876 Y7.542766 F70 (RAPID)

G01 Z0.000000 F100.0(Penetrate)
G01 X14.242876 Y7.742630 Z0.000000  F13 (CUT)
G00 Z0.000100

(End cutting path id: line1623)


(Start cutting path id: line645)
(Change tool to Default tool)

G00 Z0.000100
G00 X13.122916 Y7.773240 F70 (RAPID)

G01 Z0.000000 F100.0(Penetrate)
G01 X12.923052 Y7.773240 Z0.000000  F13 (CUT)
G00 Z0.000100

(End cutting path id: line645)


(Start cutting path id: path651)
(Change tool to Default tool)

G00 Z0.000100
G00 X12.923052 Y7.773240 F70 (RAPID)

G01 Z0.000000 F100.0(Penetrate)
G03 X12.879694 Y7.716735 Z0.000000 I0.105760 J-0.126040  F13 (CUT)
G03 X12.864278 Y7.647200 Z0.000000 I0.149119 J-0.069535 F13 (CUT)
G03 X12.879694 Y7.577664 Z0.000000 I0.164534 J-0.000000 F13 (CUT)
G03 X12.923052 Y7.521159 Z0.000000 I0.149119 J0.069535 F13 (CUT)
G00 Z0.000100

(End cutting path id: path651)


(Start cutting path id: line647)
(Change tool to Default tool)

G00 Z0.000100
G00 X13.122916 Y7.521159 F70 (RAPID)

G01 Z0.000000 F100.0(Penetrate)
G01 X12.923052 Y7.521159 Z0.000000  F13 (CUT)
G00 Z0.000100

(End cutting path id: line647)


(Start cutting path id: path649)
(Change tool to Default tool)

G00 Z0.000100
G00 X13.122916 Y7.521159 F70 (RAPID)

G01 Z0.000000 F100.0(Penetrate)
G03 X13.166274 Y7.577664 Z0.000000 I-0.105760 J0.126040  F13 (CUT)
G03 X13.181690 Y7.647200 Z0.000000 I-0.149119 J0.069535 F13 (CUT)
G03 X13.166274 Y7.716735 Z0.000000 I-0.164534 J-0.000000 F13 (CUT)
G03 X13.122916 Y7.773240 Z0.000000 I-0.149119 J-0.069535 F13 (CUT)
G00 Z0.000100

(End cutting path id: path649)


(Start cutting path id: path729)
(Change tool to Default tool)

G00 Z0.000100
G00 X13.122916 Y8.421448 F70 (RAPID)

G01 Z0.000000 F100.0(Penetrate)
G03 X13.166274 Y8.477953 Z0.000000 I-0.105760 J0.126040  F13 (CUT)
G03 X13.181690 Y8.547488 Z0.000000 I-0.149119 J0.069535 F13 (CUT)
G03 X13.166274 Y8.617024 Z0.000000 I-0.164534 J0.000000 F13 (CUT)
G03 X13.122916 Y8.673529 Z0.000000 I-0.149119 J-0.069535 F13 (CUT)
G00 Z0.000100

(End cutting path id: path729)


(Start cutting path id: line725)
(Change tool to Default tool)

G00 Z0.000100
G00 X13.122916 Y8.673529 F70 (RAPID)

G01 Z0.000000 F100.0(Penetrate)
G01 X12.923052 Y8.673529 Z0.000000  F13 (CUT)
G00 Z0.000100

(End cutting path id: line725)


(Start cutting path id: path731)
(Change tool to Default tool)

G00 Z0.000100
G00 X12.923052 Y8.673529 F70 (RAPID)

G01 Z0.000000 F100.0(Penetrate)
G03 X12.879694 Y8.617024 Z0.000000 I0.105760 J-0.126040  F13 (CUT)
G03 X12.864278 Y8.547488 Z0.000000 I0.149119 J-0.069535 F13 (CUT)
G03 X12.879694 Y8.477953 Z0.000000 I0.164534 J-0.000000 F13 (CUT)
G03 X12.923052 Y8.421448 Z0.000000 I0.149119 J0.069535 F13 (CUT)
G00 Z0.000100

(End cutting path id: path731)


(Start cutting path id: line727)
(Change tool to Default tool)

G00 Z0.000100
G00 X13.122916 Y8.421448 F70 (RAPID)

G01 Z0.000000 F100.0(Penetrate)
G01 X12.923052 Y8.421448 Z0.000000  F13 (CUT)
G00 Z0.000100

(End cutting path id: line727)


(Start cutting path id: path737)
(Change tool to Default tool)

G00 Z0.000100
G00 X12.222627 Y8.421448 F70 (RAPID)

G01 Z0.000000 F100.0(Penetrate)
G03 X12.265985 Y8.477953 Z0.000000 I-0.105760 J0.126040  F13 (CUT)
G03 X12.281401 Y8.547488 Z0.000000 I-0.149119 J0.069535 F13 (CUT)
G03 X12.265985 Y8.617024 Z0.000000 I-0.164534 J0.000000 F13 (CUT)
G03 X12.222627 Y8.673529 Z0.000000 I-0.149119 J-0.069535 F13 (CUT)
G00 Z0.000100

(End cutting path id: path737)


(Start cutting path id: line733)
(Change tool to Default tool)

G00 Z0.000100
G00 X12.222627 Y8.673529 F70 (RAPID)

G01 Z0.000000 F100.0(Penetrate)
G01 X12.022763 Y8.673529 Z0.000000  F13 (CUT)
G00 Z0.000100

(End cutting path id: line733)


(Start cutting path id: path739)
(Change tool to Default tool)

G00 Z0.000100
G00 X12.022763 Y8.673529 F70 (RAPID)

G01 Z0.000000 F100.0(Penetrate)
G03 X11.979405 Y8.617024 Z0.000000 I0.105760 J-0.126040  F13 (CUT)
G03 X11.963989 Y8.547488 Z0.000000 I0.149119 J-0.069535 F13 (CUT)
G03 X11.979405 Y8.477953 Z0.000000 I0.164534 J-0.000000 F13 (CUT)
G03 X12.022763 Y8.421448 Z0.000000 I0.149119 J0.069535 F13 (CUT)
G00 Z0.000100

(End cutting path id: path739)


(Start cutting path id: line735)
(Change tool to Default tool)

G00 Z0.000100
G00 X12.222627 Y8.421448 F70 (RAPID)

G01 Z0.000000 F100.0(Penetrate)
G01 X12.022763 Y8.421448 Z0.000000  F13 (CUT)
G00 Z0.000100

(End cutting path id: line735)


(Start cutting path id: path659)
(Change tool to Default tool)

G00 Z0.000100
G00 X12.022763 Y7.773240 F70 (RAPID)

G01 Z0.000000 F100.0(Penetrate)
G03 X11.979405 Y7.716735 Z0.000000 I0.105760 J-0.126040  F13 (CUT)
G03 X11.963989 Y7.647200 Z0.000000 I0.149119 J-0.069535 F13 (CUT)
G03 X11.979405 Y7.577664 Z0.000000 I0.164534 J-0.000000 F13 (CUT)
G03 X12.022763 Y7.521159 Z0.000000 I0.149119 J0.069535 F13 (CUT)
G00 Z0.000100

(End cutting path id: path659)


(Start cutting path id: line655)
(Change tool to Default tool)

G00 Z0.000100
G00 X12.222627 Y7.521159 F70 (RAPID)

G01 Z0.000000 F100.0(Penetrate)
G01 X12.022763 Y7.521159 Z0.000000  F13 (CUT)
G00 Z0.000100

(End cutting path id: line655)


(Start cutting path id: path657)
(Change tool to Default tool)

G00 Z0.000100
G00 X12.222627 Y7.521159 F70 (RAPID)

G01 Z0.000000 F100.0(Penetrate)
G03 X12.265985 Y7.577664 Z0.000000 I-0.105760 J0.126040  F13 (CUT)
G03 X12.281401 Y7.647200 Z0.000000 I-0.149119 J0.069535 F13 (CUT)
G03 X12.265985 Y7.716735 Z0.000000 I-0.164534 J-0.000000 F13 (CUT)
G03 X12.222627 Y7.773240 Z0.000000 I-0.149119 J-0.069535 F13 (CUT)
G00 Z0.000100

(End cutting path id: path657)


(Start cutting path id: line653)
(Change tool to Default tool)

G00 Z0.000100
G00 X12.222627 Y7.773240 F70 (RAPID)

G01 Z0.000000 F100.0(Penetrate)
G01 X12.022763 Y7.773240 Z0.000000  F13 (CUT)
G00 Z0.000100

(End cutting path id: line653)


(Start cutting path id: line661)
(Change tool to Default tool)

G00 Z0.000100
G00 X11.322338 Y7.773240 F70 (RAPID)

G01 Z0.000000 F100.0(Penetrate)
G01 X11.122474 Y7.773240 Z0.000000  F13 (CUT)
G00 Z0.000100

(End cutting path id: line661)


(Start cutting path id: path667)
(Change tool to Default tool)

G00 Z0.000100
G00 X11.122474 Y7.773240 F70 (RAPID)

G01 Z0.000000 F100.0(Penetrate)
G03 X11.079116 Y7.716735 Z0.000000 I0.105760 J-0.126040  F13 (CUT)
G03 X11.063700 Y7.647200 Z0.000000 I0.149119 J-0.069535 F13 (CUT)
G03 X11.079116 Y7.577664 Z0.000000 I0.164534 J-0.000000 F13 (CUT)
G03 X11.122474 Y7.521159 Z0.000000 I0.149119 J0.069535 F13 (CUT)
G00 Z0.000100

(End cutting path id: path667)


(Start cutting path id: path665)
(Change tool to Default tool)

G00 Z0.000100
G00 X11.322338 Y7.521159 F70 (RAPID)

G01 Z0.000000 F100.0(Penetrate)
G03 X11.365696 Y7.577664 Z0.000000 I-0.105760 J0.126040  F13 (CUT)
G03 X11.381112 Y7.647200 Z0.000000 I-0.149119 J0.069535 F13 (CUT)
G03 X11.365696 Y7.716735 Z0.000000 I-0.164534 J0.000000 F13 (CUT)
G03 X11.322338 Y7.773240 Z0.000000 I-0.149119 J-0.069535 F13 (CUT)
G00 Z0.000100

(End cutting path id: path665)


(Start cutting path id: line663)
(Change tool to Default tool)

G00 Z0.000100
G00 X11.322338 Y7.521159 F70 (RAPID)

G01 Z0.000000 F100.0(Penetrate)
G01 X11.122474 Y7.521159 Z0.000000  F13 (CUT)
G00 Z0.000100

(End cutting path id: line663)


(Start cutting path id: path587)
(Change tool to Default tool)

G00 Z0.000100
G00 X11.122474 Y6.872951 F70 (RAPID)

G01 Z0.000000 F100.0(Penetrate)
G03 X11.079116 Y6.816446 Z0.000000 I0.105760 J-0.126040  F13 (CUT)
G03 X11.063700 Y6.746911 Z0.000000 I0.149119 J-0.069535 F13 (CUT)
G03 X11.079116 Y6.677376 Z0.000000 I0.164534 J-0.000000 F13 (CUT)
G03 X11.122474 Y6.620870 Z0.000000 I0.149119 J0.069535 F13 (CUT)
G00 Z0.000100

(End cutting path id: path587)


(Start cutting path id: path585)
(Change tool to Default tool)

G00 Z0.000100
G00 X11.322338 Y6.620870 F70 (RAPID)

G01 Z0.000000 F100.0(Penetrate)
G03 X11.365696 Y6.677376 Z0.000000 I-0.105760 J0.126040  F13 (CUT)
G03 X11.381112 Y6.746911 Z0.000000 I-0.149119 J0.069535 F13 (CUT)
G03 X11.365696 Y6.816446 Z0.000000 I-0.164534 J0.000000 F13 (CUT)
G03 X11.322338 Y6.872951 Z0.000000 I-0.149119 J-0.069535 F13 (CUT)
G00 Z0.000100

(End cutting path id: path585)


(Start cutting path id: line581)
(Change tool to Default tool)

G00 Z0.000100
G00 X11.322338 Y6.872951 F70 (RAPID)

G01 Z0.000000 F100.0(Penetrate)
G01 X11.122474 Y6.872951 Z0.000000  F13 (CUT)
G00 Z0.000100

(End cutting path id: line581)


(Start cutting path id: line583)
(Change tool to Default tool)

G00 Z0.000100
G00 X11.322338 Y6.620870 F70 (RAPID)

G01 Z0.000000 F100.0(Penetrate)
G01 X11.122474 Y6.620870 Z0.000000  F13 (CUT)
G00 Z0.000100

(End cutting path id: line583)


(Start cutting path id: path507)
(Change tool to Default tool)

G00 Z0.000100
G00 X11.122474 Y5.972662 F70 (RAPID)

G01 Z0.000000 F100.0(Penetrate)
G03 X11.079116 Y5.916157 Z0.000000 I0.105760 J-0.126040  F13 (CUT)
G03 X11.063700 Y5.846622 Z0.000000 I0.149119 J-0.069535 F13 (CUT)
G03 X11.079116 Y5.777087 Z0.000000 I0.164534 J-0.000000 F13 (CUT)
G03 X11.122474 Y5.720581 Z0.000000 I0.149119 J0.069535 F13 (CUT)
G00 Z0.000100

(End cutting path id: path507)


(Start cutting path id: path505)
(Change tool to Default tool)

G00 Z0.000100
G00 X11.322338 Y5.720581 F70 (RAPID)

G01 Z0.000000 F100.0(Penetrate)
G03 X11.365696 Y5.777087 Z0.000000 I-0.105760 J0.126040  F13 (CUT)
G03 X11.381112 Y5.846622 Z0.000000 I-0.149119 J0.069535 F13 (CUT)
G03 X11.365696 Y5.916157 Z0.000000 I-0.164534 J0.000000 F13 (CUT)
G03 X11.322338 Y5.972662 Z0.000000 I-0.149119 J-0.069535 F13 (CUT)
G00 Z0.000100

(End cutting path id: path505)


(Start cutting path id: line501)
(Change tool to Default tool)

G00 Z0.000100
G00 X11.322338 Y5.972662 F70 (RAPID)

G01 Z0.000000 F100.0(Penetrate)
G01 X11.122474 Y5.972662 Z0.000000  F13 (CUT)
G00 Z0.000100

(End cutting path id: line501)


(Start cutting path id: line503)
(Change tool to Default tool)

G00 Z0.000100
G00 X11.322338 Y5.720581 F70 (RAPID)

G01 Z0.000000 F100.0(Penetrate)
G01 X11.122474 Y5.720581 Z0.000000  F13 (CUT)
G00 Z0.000100

(End cutting path id: line503)


(Start cutting path id: path427)
(Change tool to Default tool)

G00 Z0.000100
G00 X11.122474 Y5.072373 F70 (RAPID)

G01 Z0.000000 F100.0(Penetrate)
G03 X11.079116 Y5.015868 Z0.000000 I0.105760 J-0.126040  F13 (CUT)
G03 X11.063700 Y4.946333 Z0.000000 I0.149119 J-0.069535 F13 (CUT)
G03 X11.079116 Y4.876798 Z0.000000 I0.164534 J0.000000 F13 (CUT)
G03 X11.122474 Y4.820292 Z0.000000 I0.149119 J0.069535 F13 (CUT)
G00 Z0.000100

(End cutting path id: path427)


(Start cutting path id: path425)
(Change tool to Default tool)

G00 Z0.000100
G00 X11.322338 Y4.820292 F70 (RAPID)

G01 Z0.000000 F100.0(Penetrate)
G03 X11.365696 Y4.876798 Z0.000000 I-0.105760 J0.126040  F13 (CUT)
G03 X11.381112 Y4.946333 Z0.000000 I-0.149119 J0.069535 F13 (CUT)
G03 X11.365696 Y5.015868 Z0.000000 I-0.164534 J0.000000 F13 (CUT)
G03 X11.322338 Y5.072373 Z0.000000 I-0.149119 J-0.069535 F13 (CUT)
G00 Z0.000100

(End cutting path id: path425)


(Start cutting path id: line421)
(Change tool to Default tool)

G00 Z0.000100
G00 X11.322338 Y5.072373 F70 (RAPID)

G01 Z0.000000 F100.0(Penetrate)
G01 X11.122474 Y5.072373 Z0.000000  F13 (CUT)
G00 Z0.000100

(End cutting path id: line421)


(Start cutting path id: line423)
(Change tool to Default tool)

G00 Z0.000100
G00 X11.322338 Y4.820292 F70 (RAPID)

G01 Z0.000000 F100.0(Penetrate)
G01 X11.122474 Y4.820292 Z0.000000  F13 (CUT)
G00 Z0.000100

(End cutting path id: line423)


(Start cutting path id: path347)
(Change tool to Default tool)

G00 Z0.000100
G00 X11.122474 Y4.172084 F70 (RAPID)

G01 Z0.000000 F100.0(Penetrate)
G03 X11.079116 Y4.115579 Z0.000000 I0.105760 J-0.126040  F13 (CUT)
G03 X11.063700 Y4.046044 Z0.000000 I0.149119 J-0.069535 F13 (CUT)
G03 X11.079116 Y3.976509 Z0.000000 I0.164534 J0.000000 F13 (CUT)
G03 X11.122474 Y3.920004 Z0.000000 I0.149119 J0.069535 F13 (CUT)
G00 Z0.000100

(End cutting path id: path347)


(Start cutting path id: path345)
(Change tool to Default tool)

G00 Z0.000100
G00 X11.322338 Y3.920004 F70 (RAPID)

G01 Z0.000000 F100.0(Penetrate)
G03 X11.365696 Y3.976509 Z0.000000 I-0.105760 J0.126040  F13 (CUT)
G03 X11.381112 Y4.046044 Z0.000000 I-0.149119 J0.069535 F13 (CUT)
G03 X11.365696 Y4.115579 Z0.000000 I-0.164534 J0.000000 F13 (CUT)
G03 X11.322338 Y4.172084 Z0.000000 I-0.149119 J-0.069535 F13 (CUT)
G00 Z0.000100

(End cutting path id: path345)


(Start cutting path id: line341)
(Change tool to Default tool)

G00 Z0.000100
G00 X11.322338 Y4.172084 F70 (RAPID)

G01 Z0.000000 F100.0(Penetrate)
G01 X11.122474 Y4.172084 Z0.000000  F13 (CUT)
G00 Z0.000100

(End cutting path id: line341)


(Start cutting path id: line343)
(Change tool to Default tool)

G00 Z0.000100
G00 X11.322338 Y3.920003 F70 (RAPID)

G01 Z0.000000 F100.0(Penetrate)
G01 X11.122474 Y3.920003 Z0.000000  F13 (CUT)
G00 Z0.000100

(End cutting path id: line343)


(Start cutting path id: path267)
(Change tool to Default tool)

G00 Z0.000100
G00 X11.122474 Y3.271796 F70 (RAPID)

G01 Z0.000000 F100.0(Penetrate)
G03 X11.079116 Y3.215290 Z0.000000 I0.105760 J-0.126040  F13 (CUT)
G03 X11.063700 Y3.145755 Z0.000000 I0.149119 J-0.069535 F13 (CUT)
G03 X11.079116 Y3.076220 Z0.000000 I0.164534 J0.000000 F13 (CUT)
G03 X11.122474 Y3.019715 Z0.000000 I0.149119 J0.069535 F13 (CUT)
G00 Z0.000100

(End cutting path id: path267)


(Start cutting path id: path265)
(Change tool to Default tool)

G00 Z0.000100
G00 X11.322338 Y3.019715 F70 (RAPID)

G01 Z0.000000 F100.0(Penetrate)
G03 X11.365696 Y3.076220 Z0.000000 I-0.105760 J0.126040  F13 (CUT)
G03 X11.381112 Y3.145755 Z0.000000 I-0.149119 J0.069535 F13 (CUT)
G03 X11.365696 Y3.215290 Z0.000000 I-0.164534 J0.000000 F13 (CUT)
G03 X11.322338 Y3.271796 Z0.000000 I-0.149119 J-0.069535 F13 (CUT)
G00 Z0.000100

(End cutting path id: path265)


(Start cutting path id: line261)
(Change tool to Default tool)

G00 Z0.000100
G00 X11.322338 Y3.271796 F70 (RAPID)

G01 Z0.000000 F100.0(Penetrate)
G01 X11.122474 Y3.271796 Z0.000000  F13 (CUT)
G00 Z0.000100

(End cutting path id: line261)


(Start cutting path id: line263)
(Change tool to Default tool)

G00 Z0.000100
G00 X11.322338 Y3.019715 F70 (RAPID)

G01 Z0.000000 F100.0(Penetrate)
G01 X11.122474 Y3.019715 Z0.000000  F13 (CUT)
G00 Z0.000100

(End cutting path id: line263)


(Start cutting path id: path187)
(Change tool to Default tool)

G00 Z0.000100
G00 X11.122474 Y2.371507 F70 (RAPID)

G01 Z0.000000 F100.0(Penetrate)
G03 X11.079116 Y2.315001 Z0.000000 I0.105760 J-0.126040  F13 (CUT)
G03 X11.063700 Y2.245466 Z0.000000 I0.149119 J-0.069535 F13 (CUT)
G03 X11.079116 Y2.175931 Z0.000000 I0.164534 J0.000000 F13 (CUT)
G03 X11.122474 Y2.119426 Z0.000000 I0.149119 J0.069535 F13 (CUT)
G00 Z0.000100

(End cutting path id: path187)


(Start cutting path id: path185)
(Change tool to Default tool)

G00 Z0.000100
G00 X11.322338 Y2.119426 F70 (RAPID)

G01 Z0.000000 F100.0(Penetrate)
G03 X11.365696 Y2.175931 Z0.000000 I-0.105760 J0.126040  F13 (CUT)
G03 X11.381112 Y2.245466 Z0.000000 I-0.149119 J0.069535 F13 (CUT)
G03 X11.365696 Y2.315001 Z0.000000 I-0.164534 J0.000000 F13 (CUT)
G03 X11.322338 Y2.371507 Z0.000000 I-0.149119 J-0.069535 F13 (CUT)
G00 Z0.000100

(End cutting path id: path185)


(Start cutting path id: line181)
(Change tool to Default tool)

G00 Z0.000100
G00 X11.322338 Y2.371507 F70 (RAPID)

G01 Z0.000000 F100.0(Penetrate)
G01 X11.122474 Y2.371507 Z0.000000  F13 (CUT)
G00 Z0.000100

(End cutting path id: line181)


(Start cutting path id: line183)
(Change tool to Default tool)

G00 Z0.000100
G00 X11.322338 Y2.119426 F70 (RAPID)

G01 Z0.000000 F100.0(Penetrate)
G01 X11.122474 Y2.119426 Z0.000000  F13 (CUT)
G00 Z0.000100

(End cutting path id: line183)


(Start cutting path id: path107)
(Change tool to Default tool)

G00 Z0.000100
G00 X11.122474 Y1.471218 F70 (RAPID)

G01 Z0.000000 F100.0(Penetrate)
G03 X11.079116 Y1.414712 Z0.000000 I0.105760 J-0.126040  F13 (CUT)
G03 X11.063700 Y1.345177 Z0.000000 I0.149119 J-0.069535 F13 (CUT)
G03 X11.079116 Y1.275642 Z0.000000 I0.164534 J-0.000000 F13 (CUT)
G03 X11.122474 Y1.219137 Z0.000000 I0.149119 J0.069535 F13 (CUT)
G00 Z0.000100

(End cutting path id: path107)


(Start cutting path id: path105)
(Change tool to Default tool)

G00 Z0.000100
G00 X11.322338 Y1.219137 F70 (RAPID)

G01 Z0.000000 F100.0(Penetrate)
G03 X11.365696 Y1.275642 Z0.000000 I-0.105760 J0.126040  F13 (CUT)
G03 X11.381112 Y1.345177 Z0.000000 I-0.149119 J0.069535 F13 (CUT)
G03 X11.365696 Y1.414712 Z0.000000 I-0.164534 J0.000000 F13 (CUT)
G03 X11.322338 Y1.471218 Z0.000000 I-0.149119 J-0.069535 F13 (CUT)
G00 Z0.000100

(End cutting path id: path105)


(Start cutting path id: line101)
(Change tool to Default tool)

G00 Z0.000100
G00 X11.322338 Y1.471218 F70 (RAPID)

G01 Z0.000000 F100.0(Penetrate)
G01 X11.122474 Y1.471218 Z0.000000  F13 (CUT)
G00 Z0.000100

(End cutting path id: line101)


(Start cutting path id: line103)
(Change tool to Default tool)

G00 Z0.000100
G00 X11.322338 Y1.219137 F70 (RAPID)

G01 Z0.000000 F100.0(Penetrate)
G01 X11.122474 Y1.219137 Z0.000000  F13 (CUT)
G00 Z0.000100

(End cutting path id: line103)


(Start cutting path id: line111)
(Change tool to Default tool)

G00 Z0.000100
G00 X10.422050 Y1.219137 F70 (RAPID)

G01 Z0.000000 F100.0(Penetrate)
G01 X10.222186 Y1.219137 Z0.000000  F13 (CUT)
G00 Z0.000100

(End cutting path id: line111)


(Start cutting path id: path113)
(Change tool to Default tool)

G00 Z0.000100
G00 X10.422049 Y1.219137 F70 (RAPID)

G01 Z0.000000 F100.0(Penetrate)
G03 X10.465407 Y1.275642 Z0.000000 I-0.105760 J0.126040  F13 (CUT)
G03 X10.480823 Y1.345177 Z0.000000 I-0.149119 J0.069535 F13 (CUT)
G03 X10.465407 Y1.414712 Z0.000000 I-0.164534 J-0.000000 F13 (CUT)
G03 X10.422049 Y1.471218 Z0.000000 I-0.149119 J-0.069535 F13 (CUT)
G00 Z0.000100

(End cutting path id: path113)


(Start cutting path id: line109)
(Change tool to Default tool)

G00 Z0.000100
G00 X10.422050 Y1.471218 F70 (RAPID)

G01 Z0.000000 F100.0(Penetrate)
G01 X10.222186 Y1.471218 Z0.000000  F13 (CUT)
G00 Z0.000100

(End cutting path id: line109)


(Start cutting path id: path115)
(Change tool to Default tool)

G00 Z0.000100
G00 X10.222185 Y1.471218 F70 (RAPID)

G01 Z0.000000 F100.0(Penetrate)
G03 X10.178827 Y1.414712 Z0.000000 I0.105760 J-0.126040  F13 (CUT)
G03 X10.163412 Y1.345177 Z0.000000 I0.149119 J-0.069535 F13 (CUT)
G03 X10.178827 Y1.275642 Z0.000000 I0.164534 J0.000000 F13 (CUT)
G03 X10.222185 Y1.219137 Z0.000000 I0.149119 J0.069535 F13 (CUT)
G00 Z0.000100

(End cutting path id: path115)


(Start cutting path id: line119)
(Change tool to Default tool)

G00 Z0.000100
G00 X9.521761 Y1.219137 F70 (RAPID)

G01 Z0.000000 F100.0(Penetrate)
G01 X9.321896 Y1.219137 Z0.000000  F13 (CUT)
G00 Z0.000100

(End cutting path id: line119)


(Start cutting path id: path121)
(Change tool to Default tool)

G00 Z0.000100
G00 X9.521760 Y1.219137 F70 (RAPID)

G01 Z0.000000 F100.0(Penetrate)
G03 X9.565119 Y1.275642 Z0.000000 I-0.105760 J0.126040  F13 (CUT)
G03 X9.580534 Y1.345177 Z0.000000 I-0.149119 J0.069535 F13 (CUT)
G03 X9.565119 Y1.414712 Z0.000000 I-0.164534 J0.000000 F13 (CUT)
G03 X9.521760 Y1.471218 Z0.000000 I-0.149119 J-0.069535 F13 (CUT)
G00 Z0.000100

(End cutting path id: path121)


(Start cutting path id: line117)
(Change tool to Default tool)

G00 Z0.000100
G00 X9.521761 Y1.471218 F70 (RAPID)

G01 Z0.000000 F100.0(Penetrate)
G01 X9.321896 Y1.471218 Z0.000000  F13 (CUT)
G00 Z0.000100

(End cutting path id: line117)


(Start cutting path id: path123)
(Change tool to Default tool)

G00 Z0.000100
G00 X9.321896 Y1.471218 F70 (RAPID)

G01 Z0.000000 F100.0(Penetrate)
G03 X9.278538 Y1.414712 Z0.000000 I0.105760 J-0.126040  F13 (CUT)
G03 X9.263123 Y1.345177 Z0.000000 I0.149119 J-0.069535 F13 (CUT)
G03 X9.278538 Y1.275642 Z0.000000 I0.164534 J0.000000 F13 (CUT)
G03 X9.321896 Y1.219137 Z0.000000 I0.149119 J0.069535 F13 (CUT)
G00 Z0.000100

(End cutting path id: path123)


(Start cutting path id: path201)
(Change tool to Default tool)

G00 Z0.000100
G00 X9.521760 Y2.119426 F70 (RAPID)

G01 Z0.000000 F100.0(Penetrate)
G03 X9.565119 Y2.175931 Z0.000000 I-0.105760 J0.126040  F13 (CUT)
G03 X9.580534 Y2.245466 Z0.000000 I-0.149119 J0.069535 F13 (CUT)
G03 X9.565119 Y2.315001 Z0.000000 I-0.164534 J0.000000 F13 (CUT)
G03 X9.521760 Y2.371507 Z0.000000 I-0.149119 J-0.069535 F13 (CUT)
G00 Z0.000100

(End cutting path id: path201)


(Start cutting path id: line197)
(Change tool to Default tool)

G00 Z0.000100
G00 X9.521761 Y2.371507 F70 (RAPID)

G01 Z0.000000 F100.0(Penetrate)
G01 X9.321896 Y2.371507 Z0.000000  F13 (CUT)
G00 Z0.000100

(End cutting path id: line197)


(Start cutting path id: path203)
(Change tool to Default tool)

G00 Z0.000100
G00 X9.321896 Y2.371507 F70 (RAPID)

G01 Z0.000000 F100.0(Penetrate)
G03 X9.278538 Y2.315001 Z0.000000 I0.105760 J-0.126040  F13 (CUT)
G03 X9.263123 Y2.245466 Z0.000000 I0.149119 J-0.069535 F13 (CUT)
G03 X9.278538 Y2.175931 Z0.000000 I0.164534 J-0.000000 F13 (CUT)
G03 X9.321896 Y2.119426 Z0.000000 I0.149119 J0.069535 F13 (CUT)
G00 Z0.000100

(End cutting path id: path203)


(Start cutting path id: line199)
(Change tool to Default tool)

G00 Z0.000100
G00 X9.521761 Y2.119426 F70 (RAPID)

G01 Z0.000000 F100.0(Penetrate)
G01 X9.321896 Y2.119426 Z0.000000  F13 (CUT)
G00 Z0.000100

(End cutting path id: line199)


(Start cutting path id: path281)
(Change tool to Default tool)

G00 Z0.000100
G00 X9.521760 Y3.019715 F70 (RAPID)

G01 Z0.000000 F100.0(Penetrate)
G03 X9.565119 Y3.076220 Z0.000000 I-0.105760 J0.126040  F13 (CUT)
G03 X9.580534 Y3.145755 Z0.000000 I-0.149119 J0.069535 F13 (CUT)
G03 X9.565119 Y3.215290 Z0.000000 I-0.164534 J0.000000 F13 (CUT)
G03 X9.521760 Y3.271796 Z0.000000 I-0.149119 J-0.069535 F13 (CUT)
G00 Z0.000100

(End cutting path id: path281)


(Start cutting path id: line277)
(Change tool to Default tool)

G00 Z0.000100
G00 X9.521761 Y3.271796 F70 (RAPID)

G01 Z0.000000 F100.0(Penetrate)
G01 X9.321896 Y3.271796 Z0.000000  F13 (CUT)
G00 Z0.000100

(End cutting path id: line277)


(Start cutting path id: path283)
(Change tool to Default tool)

G00 Z0.000100
G00 X9.321896 Y3.271796 F70 (RAPID)

G01 Z0.000000 F100.0(Penetrate)
G03 X9.278538 Y3.215290 Z0.000000 I0.105760 J-0.126040  F13 (CUT)
G03 X9.263123 Y3.145755 Z0.000000 I0.149119 J-0.069535 F13 (CUT)
G03 X9.278538 Y3.076220 Z0.000000 I0.164534 J-0.000000 F13 (CUT)
G03 X9.321896 Y3.019715 Z0.000000 I0.149119 J0.069535 F13 (CUT)
G00 Z0.000100

(End cutting path id: path283)


(Start cutting path id: line279)
(Change tool to Default tool)

G00 Z0.000100
G00 X9.521761 Y3.019715 F70 (RAPID)

G01 Z0.000000 F100.0(Penetrate)
G01 X9.321896 Y3.019715 Z0.000000  F13 (CUT)
G00 Z0.000100

(End cutting path id: line279)


(Start cutting path id: line359)
(Change tool to Default tool)

G00 Z0.000100
G00 X9.521761 Y3.920003 F70 (RAPID)

G01 Z0.000000 F100.0(Penetrate)
G01 X9.321896 Y3.920003 Z0.000000  F13 (CUT)
G00 Z0.000100

(End cutting path id: line359)


(Start cutting path id: path361)
(Change tool to Default tool)

G00 Z0.000100
G00 X9.521760 Y3.920004 F70 (RAPID)

G01 Z0.000000 F100.0(Penetrate)
G03 X9.565119 Y3.976509 Z0.000000 I-0.105760 J0.126040  F13 (CUT)
G03 X9.580534 Y4.046044 Z0.000000 I-0.149119 J0.069535 F13 (CUT)
G03 X9.565119 Y4.115579 Z0.000000 I-0.164534 J0.000000 F13 (CUT)
G03 X9.521760 Y4.172084 Z0.000000 I-0.149119 J-0.069535 F13 (CUT)
G00 Z0.000100

(End cutting path id: path361)


(Start cutting path id: line357)
(Change tool to Default tool)

G00 Z0.000100
G00 X9.521761 Y4.172084 F70 (RAPID)

G01 Z0.000000 F100.0(Penetrate)
G01 X9.321896 Y4.172084 Z0.000000  F13 (CUT)
G00 Z0.000100

(End cutting path id: line357)


(Start cutting path id: path363)
(Change tool to Default tool)

G00 Z0.000100
G00 X9.321896 Y4.172084 F70 (RAPID)

G01 Z0.000000 F100.0(Penetrate)
G03 X9.278538 Y4.115579 Z0.000000 I0.105760 J-0.126040  F13 (CUT)
G03 X9.263123 Y4.046044 Z0.000000 I0.149119 J-0.069535 F13 (CUT)
G03 X9.278538 Y3.976509 Z0.000000 I0.164534 J-0.000000 F13 (CUT)
G03 X9.321896 Y3.920004 Z0.000000 I0.149119 J0.069535 F13 (CUT)
G00 Z0.000100

(End cutting path id: path363)


(Start cutting path id: path441)
(Change tool to Default tool)

G00 Z0.000100
G00 X9.521760 Y4.820292 F70 (RAPID)

G01 Z0.000000 F100.0(Penetrate)
G03 X9.565119 Y4.876798 Z0.000000 I-0.105760 J0.126040  F13 (CUT)
G03 X9.580534 Y4.946333 Z0.000000 I-0.149119 J0.069535 F13 (CUT)
G03 X9.565119 Y5.015868 Z0.000000 I-0.164534 J0.000000 F13 (CUT)
G03 X9.521760 Y5.072373 Z0.000000 I-0.149119 J-0.069535 F13 (CUT)
G00 Z0.000100

(End cutting path id: path441)


(Start cutting path id: line437)
(Change tool to Default tool)

G00 Z0.000100
G00 X9.521761 Y5.072373 F70 (RAPID)

G01 Z0.000000 F100.0(Penetrate)
G01 X9.321896 Y5.072373 Z0.000000  F13 (CUT)
G00 Z0.000100

(End cutting path id: line437)


(Start cutting path id: path443)
(Change tool to Default tool)

G00 Z0.000100
G00 X9.321896 Y5.072373 F70 (RAPID)

G01 Z0.000000 F100.0(Penetrate)
G03 X9.278538 Y5.015868 Z0.000000 I0.105760 J-0.126040  F13 (CUT)
G03 X9.263123 Y4.946333 Z0.000000 I0.149119 J-0.069535 F13 (CUT)
G03 X9.278538 Y4.876798 Z0.000000 I0.164534 J0.000000 F13 (CUT)
G03 X9.321896 Y4.820292 Z0.000000 I0.149119 J0.069535 F13 (CUT)
G00 Z0.000100

(End cutting path id: path443)


(Start cutting path id: line439)
(Change tool to Default tool)

G00 Z0.000100
G00 X9.521761 Y4.820292 F70 (RAPID)

G01 Z0.000000 F100.0(Penetrate)
G01 X9.321896 Y4.820292 Z0.000000  F13 (CUT)
G00 Z0.000100

(End cutting path id: line439)


(Start cutting path id: path521)
(Change tool to Default tool)

G00 Z0.000100
G00 X9.521760 Y5.720581 F70 (RAPID)

G01 Z0.000000 F100.0(Penetrate)
G03 X9.565119 Y5.777087 Z0.000000 I-0.105760 J0.126040  F13 (CUT)
G03 X9.580534 Y5.846622 Z0.000000 I-0.149119 J0.069535 F13 (CUT)
G03 X9.565119 Y5.916157 Z0.000000 I-0.164534 J0.000000 F13 (CUT)
G03 X9.521760 Y5.972662 Z0.000000 I-0.149119 J-0.069535 F13 (CUT)
G00 Z0.000100

(End cutting path id: path521)


(Start cutting path id: line517)
(Change tool to Default tool)

G00 Z0.000100
G00 X9.521761 Y5.972662 F70 (RAPID)

G01 Z0.000000 F100.0(Penetrate)
G01 X9.321896 Y5.972662 Z0.000000  F13 (CUT)
G00 Z0.000100

(End cutting path id: line517)


(Start cutting path id: path523)
(Change tool to Default tool)

G00 Z0.000100
G00 X9.321896 Y5.972662 F70 (RAPID)

G01 Z0.000000 F100.0(Penetrate)
G03 X9.278538 Y5.916157 Z0.000000 I0.105760 J-0.126040  F13 (CUT)
G03 X9.263123 Y5.846622 Z0.000000 I0.149119 J-0.069535 F13 (CUT)
G03 X9.278538 Y5.777087 Z0.000000 I0.164534 J-0.000000 F13 (CUT)
G03 X9.321896 Y5.720581 Z0.000000 I0.149119 J0.069535 F13 (CUT)
G00 Z0.000100

(End cutting path id: path523)


(Start cutting path id: line519)
(Change tool to Default tool)

G00 Z0.000100
G00 X9.521761 Y5.720581 F70 (RAPID)

G01 Z0.000000 F100.0(Penetrate)
G01 X9.321896 Y5.720581 Z0.000000  F13 (CUT)
G00 Z0.000100

(End cutting path id: line519)


(Start cutting path id: line599)
(Change tool to Default tool)

G00 Z0.000100
G00 X9.521761 Y6.620870 F70 (RAPID)

G01 Z0.000000 F100.0(Penetrate)
G01 X9.321896 Y6.620870 Z0.000000  F13 (CUT)
G00 Z0.000100

(End cutting path id: line599)


(Start cutting path id: path601)
(Change tool to Default tool)

G00 Z0.000100
G00 X9.521760 Y6.620870 F70 (RAPID)

G01 Z0.000000 F100.0(Penetrate)
G03 X9.565119 Y6.677376 Z0.000000 I-0.105760 J0.126040  F13 (CUT)
G03 X9.580534 Y6.746911 Z0.000000 I-0.149119 J0.069535 F13 (CUT)
G03 X9.565119 Y6.816446 Z0.000000 I-0.164534 J-0.000000 F13 (CUT)
G03 X9.521760 Y6.872951 Z0.000000 I-0.149119 J-0.069535 F13 (CUT)
G00 Z0.000100

(End cutting path id: path601)


(Start cutting path id: line597)
(Change tool to Default tool)

G00 Z0.000100
G00 X9.521761 Y6.872951 F70 (RAPID)

G01 Z0.000000 F100.0(Penetrate)
G01 X9.321896 Y6.872951 Z0.000000  F13 (CUT)
G00 Z0.000100

(End cutting path id: line597)


(Start cutting path id: path603)
(Change tool to Default tool)

G00 Z0.000100
G00 X9.321896 Y6.872951 F70 (RAPID)

G01 Z0.000000 F100.0(Penetrate)
G03 X9.278538 Y6.816446 Z0.000000 I0.105760 J-0.126040  F13 (CUT)
G03 X9.263123 Y6.746911 Z0.000000 I0.149119 J-0.069535 F13 (CUT)
G03 X9.278538 Y6.677376 Z0.000000 I0.164534 J-0.000000 F13 (CUT)
G03 X9.321896 Y6.620870 Z0.000000 I0.149119 J0.069535 F13 (CUT)
G00 Z0.000100

(End cutting path id: path603)


(Start cutting path id: path681)
(Change tool to Default tool)

G00 Z0.000100
G00 X9.521760 Y7.521159 F70 (RAPID)

G01 Z0.000000 F100.0(Penetrate)
G03 X9.565119 Y7.577664 Z0.000000 I-0.105760 J0.126040  F13 (CUT)
G03 X9.580534 Y7.647200 Z0.000000 I-0.149119 J0.069535 F13 (CUT)
G03 X9.565119 Y7.716735 Z0.000000 I-0.164534 J-0.000000 F13 (CUT)
G03 X9.521760 Y7.773240 Z0.000000 I-0.149119 J-0.069535 F13 (CUT)
G00 Z0.000100

(End cutting path id: path681)


(Start cutting path id: line677)
(Change tool to Default tool)

G00 Z0.000100
G00 X9.521761 Y7.773240 F70 (RAPID)

G01 Z0.000000 F100.0(Penetrate)
G01 X9.321896 Y7.773240 Z0.000000  F13 (CUT)
G00 Z0.000100

(End cutting path id: line677)


(Start cutting path id: path683)
(Change tool to Default tool)

G00 Z0.000100
G00 X9.321896 Y7.773240 F70 (RAPID)

G01 Z0.000000 F100.0(Penetrate)
G03 X9.278538 Y7.716735 Z0.000000 I0.105760 J-0.126040  F13 (CUT)
G03 X9.263123 Y7.647200 Z0.000000 I0.149119 J-0.069535 F13 (CUT)
G03 X9.278538 Y7.577664 Z0.000000 I0.164534 J-0.000000 F13 (CUT)
G03 X9.321896 Y7.521159 Z0.000000 I0.149119 J0.069535 F13 (CUT)
G00 Z0.000100

(End cutting path id: path683)


(Start cutting path id: line679)
(Change tool to Default tool)

G00 Z0.000100
G00 X9.521761 Y7.521159 F70 (RAPID)

G01 Z0.000000 F100.0(Penetrate)
G01 X9.321896 Y7.521159 Z0.000000  F13 (CUT)
G00 Z0.000100

(End cutting path id: line679)


(Start cutting path id: path761)
(Change tool to Default tool)

G00 Z0.000100
G00 X9.521760 Y8.421448 F70 (RAPID)

G01 Z0.000000 F100.0(Penetrate)
G03 X9.565119 Y8.477953 Z0.000000 I-0.105760 J0.126040  F13 (CUT)
G03 X9.580534 Y8.547488 Z0.000000 I-0.149119 J0.069535 F13 (CUT)
G03 X9.565119 Y8.617024 Z0.000000 I-0.164534 J0.000000 F13 (CUT)
G03 X9.521760 Y8.673529 Z0.000000 I-0.149119 J-0.069535 F13 (CUT)
G00 Z0.000100

(End cutting path id: path761)


(Start cutting path id: line757)
(Change tool to Default tool)

G00 Z0.000100
G00 X9.521761 Y8.673529 F70 (RAPID)

G01 Z0.000000 F100.0(Penetrate)
G01 X9.321896 Y8.673529 Z0.000000  F13 (CUT)
G00 Z0.000100

(End cutting path id: line757)


(Start cutting path id: path763)
(Change tool to Default tool)

G00 Z0.000100
G00 X9.321896 Y8.673529 F70 (RAPID)

G01 Z0.000000 F100.0(Penetrate)
G03 X9.278538 Y8.617024 Z0.000000 I0.105760 J-0.126040  F13 (CUT)
G03 X9.263123 Y8.547488 Z0.000000 I0.149119 J-0.069535 F13 (CUT)
G03 X9.278538 Y8.477953 Z0.000000 I0.164534 J-0.000000 F13 (CUT)
G03 X9.321896 Y8.421448 Z0.000000 I0.149119 J0.069535 F13 (CUT)
G00 Z0.000100

(End cutting path id: path763)


(Start cutting path id: line759)
(Change tool to Default tool)

G00 Z0.000100
G00 X9.521761 Y8.421448 F70 (RAPID)

G01 Z0.000000 F100.0(Penetrate)
G01 X9.321896 Y8.421448 Z0.000000  F13 (CUT)
G00 Z0.000100

(End cutting path id: line759)


(Start cutting path id: path841)
(Change tool to Default tool)

G00 Z0.000100
G00 X9.521760 Y9.321737 F70 (RAPID)

G01 Z0.000000 F100.0(Penetrate)
G03 X9.565119 Y9.378242 Z0.000000 I-0.105760 J0.126040  F13 (CUT)
G03 X9.580534 Y9.447777 Z0.000000 I-0.149119 J0.069535 F13 (CUT)
G03 X9.565119 Y9.517312 Z0.000000 I-0.164534 J0.000000 F13 (CUT)
G03 X9.521760 Y9.573818 Z0.000000 I-0.149119 J-0.069535 F13 (CUT)
G00 Z0.000100

(End cutting path id: path841)


(Start cutting path id: line837)
(Change tool to Default tool)

G00 Z0.000100
G00 X9.521761 Y9.573818 F70 (RAPID)

G01 Z0.000000 F100.0(Penetrate)
G01 X9.321896 Y9.573818 Z0.000000  F13 (CUT)
G00 Z0.000100

(End cutting path id: line837)


(Start cutting path id: path843)
(Change tool to Default tool)

G00 Z0.000100
G00 X9.321896 Y9.573818 F70 (RAPID)

G01 Z0.000000 F100.0(Penetrate)
G03 X9.278538 Y9.517312 Z0.000000 I0.105760 J-0.126040  F13 (CUT)
G03 X9.263123 Y9.447777 Z0.000000 I0.149119 J-0.069535 F13 (CUT)
G03 X9.278538 Y9.378242 Z0.000000 I0.164534 J-0.000000 F13 (CUT)
G03 X9.321896 Y9.321737 Z0.000000 I0.149119 J0.069535 F13 (CUT)
G00 Z0.000100

(End cutting path id: path843)


(Start cutting path id: line839)
(Change tool to Default tool)

G00 Z0.000100
G00 X9.521761 Y9.321737 F70 (RAPID)

G01 Z0.000000 F100.0(Penetrate)
G01 X9.321896 Y9.321737 Z0.000000  F13 (CUT)
G00 Z0.000100

(End cutting path id: line839)


(Start cutting path id: path921)
(Change tool to Default tool)

G00 Z0.000100
G00 X9.521760 Y10.222026 F70 (RAPID)

G01 Z0.000000 F100.0(Penetrate)
G03 X9.565119 Y10.278531 Z0.000000 I-0.105760 J0.126040  F13 (CUT)
G03 X9.580534 Y10.348066 Z0.000000 I-0.149119 J0.069535 F13 (CUT)
G03 X9.565119 Y10.417601 Z0.000000 I-0.164534 J0.000000 F13 (CUT)
G03 X9.521760 Y10.474107 Z0.000000 I-0.149119 J-0.069535 F13 (CUT)
G00 Z0.000100

(End cutting path id: path921)


(Start cutting path id: line917)
(Change tool to Default tool)

G00 Z0.000100
G00 X9.521761 Y10.474107 F70 (RAPID)

G01 Z0.000000 F100.0(Penetrate)
G01 X9.321896 Y10.474107 Z0.000000  F13 (CUT)
G00 Z0.000100

(End cutting path id: line917)


(Start cutting path id: path923)
(Change tool to Default tool)

G00 Z0.000100
G00 X9.321896 Y10.474107 F70 (RAPID)

G01 Z0.000000 F100.0(Penetrate)
G03 X9.278538 Y10.417601 Z0.000000 I0.105760 J-0.126040  F13 (CUT)
G03 X9.263123 Y10.348066 Z0.000000 I0.149119 J-0.069535 F13 (CUT)
G03 X9.278538 Y10.278531 Z0.000000 I0.164534 J-0.000000 F13 (CUT)
G03 X9.321896 Y10.222026 Z0.000000 I0.149119 J0.069535 F13 (CUT)
G00 Z0.000100

(End cutting path id: path923)


(Start cutting path id: line919)
(Change tool to Default tool)

G00 Z0.000100
G00 X9.521761 Y10.222026 F70 (RAPID)

G01 Z0.000000 F100.0(Penetrate)
G01 X9.321896 Y10.222026 Z0.000000  F13 (CUT)
G00 Z0.000100

(End cutting path id: line919)


(Start cutting path id: line999)
(Change tool to Default tool)

G00 Z0.000100
G00 X9.521761 Y11.122314 F70 (RAPID)

G01 Z0.000000 F100.0(Penetrate)
G01 X9.321896 Y11.122314 Z0.000000  F13 (CUT)
G00 Z0.000100

(End cutting path id: line999)


(Start cutting path id: path1001)
(Change tool to Default tool)

G00 Z0.000100
G00 X9.521760 Y11.122315 F70 (RAPID)

G01 Z0.000000 F100.0(Penetrate)
G03 X9.565119 Y11.178820 Z0.000000 I-0.105760 J0.126040  F13 (CUT)
G03 X9.580534 Y11.248355 Z0.000000 I-0.149119 J0.069535 F13 (CUT)
G03 X9.565119 Y11.317890 Z0.000000 I-0.164534 J0.000000 F13 (CUT)
G03 X9.521760 Y11.374396 Z0.000000 I-0.149119 J-0.069535 F13 (CUT)
G00 Z0.000100

(End cutting path id: path1001)


(Start cutting path id: line997)
(Change tool to Default tool)

G00 Z0.000100
G00 X9.521761 Y11.374395 F70 (RAPID)

G01 Z0.000000 F100.0(Penetrate)
G01 X9.321896 Y11.374395 Z0.000000  F13 (CUT)
G00 Z0.000100

(End cutting path id: line997)


(Start cutting path id: path1003)
(Change tool to Default tool)

G00 Z0.000100
G00 X9.321896 Y11.374396 F70 (RAPID)

G01 Z0.000000 F100.0(Penetrate)
G03 X9.278538 Y11.317890 Z0.000000 I0.105760 J-0.126040  F13 (CUT)
G03 X9.263123 Y11.248355 Z0.000000 I0.149119 J-0.069535 F13 (CUT)
G03 X9.278538 Y11.178820 Z0.000000 I0.164534 J-0.000000 F13 (CUT)
G03 X9.321896 Y11.122315 Z0.000000 I0.149119 J0.069535 F13 (CUT)
G00 Z0.000100

(End cutting path id: path1003)


(Start cutting path id: line1079)
(Change tool to Default tool)

G00 Z0.000100
G00 X9.521761 Y12.022603 F70 (RAPID)

G01 Z0.000000 F100.0(Penetrate)
G01 X9.321896 Y12.022603 Z0.000000  F13 (CUT)
G00 Z0.000100

(End cutting path id: line1079)


(Start cutting path id: path1081)
(Change tool to Default tool)

G00 Z0.000100
G00 X9.521760 Y12.022604 F70 (RAPID)

G01 Z0.000000 F100.0(Penetrate)
G03 X9.565119 Y12.079109 Z0.000000 I-0.105760 J0.126040  F13 (CUT)
G03 X9.580534 Y12.148644 Z0.000000 I-0.149119 J0.069535 F13 (CUT)
G03 X9.565119 Y12.218179 Z0.000000 I-0.164534 J0.000000 F13 (CUT)
G03 X9.521760 Y12.274684 Z0.000000 I-0.149119 J-0.069535 F13 (CUT)
G00 Z0.000100

(End cutting path id: path1081)


(Start cutting path id: line1077)
(Change tool to Default tool)

G00 Z0.000100
G00 X9.521761 Y12.274684 F70 (RAPID)

G01 Z0.000000 F100.0(Penetrate)
G01 X9.321896 Y12.274684 Z0.000000  F13 (CUT)
G00 Z0.000100

(End cutting path id: line1077)


(Start cutting path id: path1083)
(Change tool to Default tool)

G00 Z0.000100
G00 X9.321896 Y12.274684 F70 (RAPID)

G01 Z0.000000 F100.0(Penetrate)
G03 X9.278538 Y12.218179 Z0.000000 I0.105760 J-0.126040  F13 (CUT)
G03 X9.263123 Y12.148644 Z0.000000 I0.149119 J-0.069535 F13 (CUT)
G03 X9.278538 Y12.079109 Z0.000000 I0.164534 J0.000000 F13 (CUT)
G03 X9.321896 Y12.022604 Z0.000000 I0.149119 J0.069535 F13 (CUT)
G00 Z0.000100

(End cutting path id: path1083)


(Start cutting path id: path1161)
(Change tool to Default tool)

G00 Z0.000100
G00 X9.521760 Y12.922892 F70 (RAPID)

G01 Z0.000000 F100.0(Penetrate)
G03 X9.565119 Y12.979398 Z0.000000 I-0.105760 J0.126040  F13 (CUT)
G03 X9.580534 Y13.048933 Z0.000000 I-0.149119 J0.069535 F13 (CUT)
G03 X9.565119 Y13.118468 Z0.000000 I-0.164534 J0.000000 F13 (CUT)
G03 X9.521760 Y13.174973 Z0.000000 I-0.149119 J-0.069535 F13 (CUT)
G00 Z0.000100

(End cutting path id: path1161)


(Start cutting path id: line1157)
(Change tool to Default tool)

G00 Z0.000100
G00 X9.521761 Y13.174974 F70 (RAPID)

G01 Z0.000000 F100.0(Penetrate)
G01 X9.321896 Y13.174974 Z0.000000  F13 (CUT)
G00 Z0.000100

(End cutting path id: line1157)


(Start cutting path id: path1163)
(Change tool to Default tool)

G00 Z0.000100
G00 X9.321896 Y13.174973 F70 (RAPID)

G01 Z0.000000 F100.0(Penetrate)
G03 X9.278538 Y13.118468 Z0.000000 I0.105760 J-0.126040  F13 (CUT)
G03 X9.263123 Y13.048933 Z0.000000 I0.149119 J-0.069535 F13 (CUT)
G03 X9.278538 Y12.979398 Z0.000000 I0.164534 J0.000000 F13 (CUT)
G03 X9.321896 Y12.922892 Z0.000000 I0.149119 J0.069535 F13 (CUT)
G00 Z0.000100

(End cutting path id: path1163)


(Start cutting path id: line1159)
(Change tool to Default tool)

G00 Z0.000100
G00 X9.521761 Y12.922893 F70 (RAPID)

G01 Z0.000000 F100.0(Penetrate)
G01 X9.321896 Y12.922893 Z0.000000  F13 (CUT)
G00 Z0.000100

(End cutting path id: line1159)


(Start cutting path id: path1241)
(Change tool to Default tool)

G00 Z0.000100
G00 X9.521760 Y13.823181 F70 (RAPID)

G01 Z0.000000 F100.0(Penetrate)
G03 X9.565119 Y13.879687 Z0.000000 I-0.105760 J0.126040  F13 (CUT)
G03 X9.580534 Y13.949222 Z0.000000 I-0.149119 J0.069535 F13 (CUT)
G03 X9.565119 Y14.018757 Z0.000000 I-0.164534 J0.000000 F13 (CUT)
G03 X9.521760 Y14.075262 Z0.000000 I-0.149119 J-0.069535 F13 (CUT)
G00 Z0.000100

(End cutting path id: path1241)


(Start cutting path id: line1237)
(Change tool to Default tool)

G00 Z0.000100
G00 X9.521761 Y14.075263 F70 (RAPID)

G01 Z0.000000 F100.0(Penetrate)
G01 X9.321896 Y14.075263 Z0.000000  F13 (CUT)
G00 Z0.000100

(End cutting path id: line1237)


(Start cutting path id: path1243)
(Change tool to Default tool)

G00 Z0.000100
G00 X9.321896 Y14.075262 F70 (RAPID)

G01 Z0.000000 F100.0(Penetrate)
G03 X9.278538 Y14.018757 Z0.000000 I0.105760 J-0.126040  F13 (CUT)
G03 X9.263123 Y13.949222 Z0.000000 I0.149119 J-0.069535 F13 (CUT)
G03 X9.278538 Y13.879687 Z0.000000 I0.164534 J-0.000000 F13 (CUT)
G03 X9.321896 Y13.823181 Z0.000000 I0.149119 J0.069535 F13 (CUT)
G00 Z0.000100

(End cutting path id: path1243)


(Start cutting path id: line1239)
(Change tool to Default tool)

G00 Z0.000100
G00 X9.521761 Y13.823182 F70 (RAPID)

G01 Z0.000000 F100.0(Penetrate)
G01 X9.321896 Y13.823182 Z0.000000  F13 (CUT)
G00 Z0.000100

(End cutting path id: line1239)


(Start cutting path id: path1235)
(Change tool to Default tool)

G00 Z0.000100
G00 X10.222185 Y14.075262 F70 (RAPID)

G01 Z0.000000 F100.0(Penetrate)
G03 X10.178827 Y14.018757 Z0.000000 I0.105760 J-0.126040  F13 (CUT)
G03 X10.163412 Y13.949222 Z0.000000 I0.149119 J-0.069535 F13 (CUT)
G03 X10.178827 Y13.879687 Z0.000000 I0.164534 J-0.000000 F13 (CUT)
G03 X10.222185 Y13.823181 Z0.000000 I0.149119 J0.069535 F13 (CUT)
G00 Z0.000100

(End cutting path id: path1235)


(Start cutting path id: path1233)
(Change tool to Default tool)

G00 Z0.000100
G00 X10.422049 Y13.823181 F70 (RAPID)

G01 Z0.000000 F100.0(Penetrate)
G03 X10.465407 Y13.879687 Z0.000000 I-0.105760 J0.126040  F13 (CUT)
G03 X10.480823 Y13.949222 Z0.000000 I-0.149119 J0.069535 F13 (CUT)
G03 X10.465407 Y14.018757 Z0.000000 I-0.164534 J-0.000000 F13 (CUT)
G03 X10.422049 Y14.075262 Z0.000000 I-0.149119 J-0.069535 F13 (CUT)
G00 Z0.000100

(End cutting path id: path1233)


(Start cutting path id: line1229)
(Change tool to Default tool)

G00 Z0.000100
G00 X10.422050 Y14.075263 F70 (RAPID)

G01 Z0.000000 F100.0(Penetrate)
G01 X10.222186 Y14.075263 Z0.000000  F13 (CUT)
G00 Z0.000100

(End cutting path id: line1229)


(Start cutting path id: line1231)
(Change tool to Default tool)

G00 Z0.000100
G00 X10.422050 Y13.823182 F70 (RAPID)

G01 Z0.000000 F100.0(Penetrate)
G01 X10.222186 Y13.823182 Z0.000000  F13 (CUT)
G00 Z0.000100

(End cutting path id: line1231)


(Start cutting path id: path1155)
(Change tool to Default tool)

G00 Z0.000100
G00 X10.222185 Y13.174973 F70 (RAPID)

G01 Z0.000000 F100.0(Penetrate)
G03 X10.178827 Y13.118468 Z0.000000 I0.105760 J-0.126040  F13 (CUT)
G03 X10.163412 Y13.048933 Z0.000000 I0.149119 J-0.069535 F13 (CUT)
G03 X10.178827 Y12.979398 Z0.000000 I0.164534 J0.000000 F13 (CUT)
G03 X10.222185 Y12.922892 Z0.000000 I0.149119 J0.069535 F13 (CUT)
G00 Z0.000100

(End cutting path id: path1155)


(Start cutting path id: path1153)
(Change tool to Default tool)

G00 Z0.000100
G00 X10.422049 Y12.922892 F70 (RAPID)

G01 Z0.000000 F100.0(Penetrate)
G03 X10.465407 Y12.979398 Z0.000000 I-0.105760 J0.126040  F13 (CUT)
G03 X10.480823 Y13.048933 Z0.000000 I-0.149119 J0.069535 F13 (CUT)
G03 X10.465407 Y13.118468 Z0.000000 I-0.164534 J0.000000 F13 (CUT)
G03 X10.422049 Y13.174973 Z0.000000 I-0.149119 J-0.069535 F13 (CUT)
G00 Z0.000100

(End cutting path id: path1153)


(Start cutting path id: line1149)
(Change tool to Default tool)

G00 Z0.000100
G00 X10.422050 Y13.174974 F70 (RAPID)

G01 Z0.000000 F100.0(Penetrate)
G01 X10.222186 Y13.174974 Z0.000000  F13 (CUT)
G00 Z0.000100

(End cutting path id: line1149)


(Start cutting path id: line1151)
(Change tool to Default tool)

G00 Z0.000100
G00 X10.422050 Y12.922893 F70 (RAPID)

G01 Z0.000000 F100.0(Penetrate)
G01 X10.222186 Y12.922893 Z0.000000  F13 (CUT)
G00 Z0.000100

(End cutting path id: line1151)


(Start cutting path id: path1075)
(Change tool to Default tool)

G00 Z0.000100
G00 X10.222185 Y12.274684 F70 (RAPID)

G01 Z0.000000 F100.0(Penetrate)
G03 X10.178827 Y12.218179 Z0.000000 I0.105760 J-0.126040  F13 (CUT)
G03 X10.163412 Y12.148644 Z0.000000 I0.149119 J-0.069535 F13 (CUT)
G03 X10.178827 Y12.079109 Z0.000000 I0.164534 J-0.000000 F13 (CUT)
G03 X10.222185 Y12.022604 Z0.000000 I0.149119 J0.069535 F13 (CUT)
G00 Z0.000100

(End cutting path id: path1075)


(Start cutting path id: path1073)
(Change tool to Default tool)

G00 Z0.000100
G00 X10.422049 Y12.022604 F70 (RAPID)

G01 Z0.000000 F100.0(Penetrate)
G03 X10.465407 Y12.079109 Z0.000000 I-0.105760 J0.126040  F13 (CUT)
G03 X10.480823 Y12.148644 Z0.000000 I-0.149119 J0.069535 F13 (CUT)
G03 X10.465407 Y12.218179 Z0.000000 I-0.164534 J0.000000 F13 (CUT)
G03 X10.422049 Y12.274684 Z0.000000 I-0.149119 J-0.069535 F13 (CUT)
G00 Z0.000100

(End cutting path id: path1073)


(Start cutting path id: line1069)
(Change tool to Default tool)

G00 Z0.000100
G00 X10.422050 Y12.274684 F70 (RAPID)

G01 Z0.000000 F100.0(Penetrate)
G01 X10.222186 Y12.274684 Z0.000000  F13 (CUT)
G00 Z0.000100

(End cutting path id: line1069)


(Start cutting path id: line1071)
(Change tool to Default tool)

G00 Z0.000100
G00 X10.422050 Y12.022603 F70 (RAPID)

G01 Z0.000000 F100.0(Penetrate)
G01 X10.222186 Y12.022603 Z0.000000  F13 (CUT)
G00 Z0.000100

(End cutting path id: line1071)


(Start cutting path id: path995)
(Change tool to Default tool)

G00 Z0.000100
G00 X10.222185 Y11.374396 F70 (RAPID)

G01 Z0.000000 F100.0(Penetrate)
G03 X10.178827 Y11.317890 Z0.000000 I0.105760 J-0.126040  F13 (CUT)
G03 X10.163412 Y11.248355 Z0.000000 I0.149119 J-0.069535 F13 (CUT)
G03 X10.178827 Y11.178820 Z0.000000 I0.164534 J0.000000 F13 (CUT)
G03 X10.222185 Y11.122315 Z0.000000 I0.149119 J0.069535 F13 (CUT)
G00 Z0.000100

(End cutting path id: path995)


(Start cutting path id: path993)
(Change tool to Default tool)

G00 Z0.000100
G00 X10.422049 Y11.122315 F70 (RAPID)

G01 Z0.000000 F100.0(Penetrate)
G03 X10.465407 Y11.178820 Z0.000000 I-0.105760 J0.126040  F13 (CUT)
G03 X10.480823 Y11.248355 Z0.000000 I-0.149119 J0.069535 F13 (CUT)
G03 X10.465407 Y11.317890 Z0.000000 I-0.164534 J0.000000 F13 (CUT)
G03 X10.422049 Y11.374396 Z0.000000 I-0.149119 J-0.069535 F13 (CUT)
G00 Z0.000100

(End cutting path id: path993)


(Start cutting path id: line989)
(Change tool to Default tool)

G00 Z0.000100
G00 X10.422050 Y11.374395 F70 (RAPID)

G01 Z0.000000 F100.0(Penetrate)
G01 X10.222186 Y11.374395 Z0.000000  F13 (CUT)
G00 Z0.000100

(End cutting path id: line989)


(Start cutting path id: line991)
(Change tool to Default tool)

G00 Z0.000100
G00 X10.422050 Y11.122314 F70 (RAPID)

G01 Z0.000000 F100.0(Penetrate)
G01 X10.222186 Y11.122314 Z0.000000  F13 (CUT)
G00 Z0.000100

(End cutting path id: line991)


(Start cutting path id: path915)
(Change tool to Default tool)

G00 Z0.000100
G00 X10.222185 Y10.474107 F70 (RAPID)

G01 Z0.000000 F100.0(Penetrate)
G03 X10.178827 Y10.417601 Z0.000000 I0.105760 J-0.126040  F13 (CUT)
G03 X10.163412 Y10.348066 Z0.000000 I0.149119 J-0.069535 F13 (CUT)
G03 X10.178827 Y10.278531 Z0.000000 I0.164534 J-0.000000 F13 (CUT)
G03 X10.222185 Y10.222026 Z0.000000 I0.149119 J0.069535 F13 (CUT)
G00 Z0.000100

(End cutting path id: path915)


(Start cutting path id: path913)
(Change tool to Default tool)

G00 Z0.000100
G00 X10.422049 Y10.222026 F70 (RAPID)

G01 Z0.000000 F100.0(Penetrate)
G03 X10.465407 Y10.278531 Z0.000000 I-0.105760 J0.126040  F13 (CUT)
G03 X10.480823 Y10.348066 Z0.000000 I-0.149119 J0.069535 F13 (CUT)
G03 X10.465407 Y10.417601 Z0.000000 I-0.164534 J0.000000 F13 (CUT)
G03 X10.422049 Y10.474107 Z0.000000 I-0.149119 J-0.069535 F13 (CUT)
G00 Z0.000100

(End cutting path id: path913)


(Start cutting path id: line909)
(Change tool to Default tool)

G00 Z0.000100
G00 X10.422050 Y10.474107 F70 (RAPID)

G01 Z0.000000 F100.0(Penetrate)
G01 X10.222186 Y10.474107 Z0.000000  F13 (CUT)
G00 Z0.000100

(End cutting path id: line909)


(Start cutting path id: line911)
(Change tool to Default tool)

G00 Z0.000100
G00 X10.422050 Y10.222026 F70 (RAPID)

G01 Z0.000000 F100.0(Penetrate)
G01 X10.222186 Y10.222026 Z0.000000  F13 (CUT)
G00 Z0.000100

(End cutting path id: line911)


(Start cutting path id: path835)
(Change tool to Default tool)

G00 Z0.000100
G00 X10.222185 Y9.573818 F70 (RAPID)

G01 Z0.000000 F100.0(Penetrate)
G03 X10.178827 Y9.517312 Z0.000000 I0.105760 J-0.126040  F13 (CUT)
G03 X10.163412 Y9.447777 Z0.000000 I0.149119 J-0.069535 F13 (CUT)
G03 X10.178827 Y9.378242 Z0.000000 I0.164534 J-0.000000 F13 (CUT)
G03 X10.222185 Y9.321737 Z0.000000 I0.149119 J0.069535 F13 (CUT)
G00 Z0.000100

(End cutting path id: path835)


(Start cutting path id: path833)
(Change tool to Default tool)

G00 Z0.000100
G00 X10.422049 Y9.321737 F70 (RAPID)

G01 Z0.000000 F100.0(Penetrate)
G03 X10.465407 Y9.378242 Z0.000000 I-0.105760 J0.126040  F13 (CUT)
G03 X10.480823 Y9.447777 Z0.000000 I-0.149119 J0.069535 F13 (CUT)
G03 X10.465407 Y9.517312 Z0.000000 I-0.164534 J0.000000 F13 (CUT)
G03 X10.422049 Y9.573818 Z0.000000 I-0.149119 J-0.069535 F13 (CUT)
G00 Z0.000100

(End cutting path id: path833)


(Start cutting path id: line829)
(Change tool to Default tool)

G00 Z0.000100
G00 X10.422050 Y9.573818 F70 (RAPID)

G01 Z0.000000 F100.0(Penetrate)
G01 X10.222186 Y9.573818 Z0.000000  F13 (CUT)
G00 Z0.000100

(End cutting path id: line829)


(Start cutting path id: line831)
(Change tool to Default tool)

G00 Z0.000100
G00 X10.422050 Y9.321737 F70 (RAPID)

G01 Z0.000000 F100.0(Penetrate)
G01 X10.222186 Y9.321737 Z0.000000  F13 (CUT)
G00 Z0.000100

(End cutting path id: line831)


(Start cutting path id: path755)
(Change tool to Default tool)

G00 Z0.000100
G00 X10.222185 Y8.673529 F70 (RAPID)

G01 Z0.000000 F100.0(Penetrate)
G03 X10.178827 Y8.617024 Z0.000000 I0.105760 J-0.126040  F13 (CUT)
G03 X10.163412 Y8.547488 Z0.000000 I0.149119 J-0.069535 F13 (CUT)
G03 X10.178827 Y8.477953 Z0.000000 I0.164534 J-0.000000 F13 (CUT)
G03 X10.222185 Y8.421448 Z0.000000 I0.149119 J0.069535 F13 (CUT)
G00 Z0.000100

(End cutting path id: path755)


(Start cutting path id: path753)
(Change tool to Default tool)

G00 Z0.000100
G00 X10.422049 Y8.421448 F70 (RAPID)

G01 Z0.000000 F100.0(Penetrate)
G03 X10.465407 Y8.477953 Z0.000000 I-0.105760 J0.126040  F13 (CUT)
G03 X10.480823 Y8.547488 Z0.000000 I-0.149119 J0.069535 F13 (CUT)
G03 X10.465407 Y8.617024 Z0.000000 I-0.164534 J0.000000 F13 (CUT)
G03 X10.422049 Y8.673529 Z0.000000 I-0.149119 J-0.069535 F13 (CUT)
G00 Z0.000100

(End cutting path id: path753)


(Start cutting path id: line749)
(Change tool to Default tool)

G00 Z0.000100
G00 X10.422050 Y8.673529 F70 (RAPID)

G01 Z0.000000 F100.0(Penetrate)
G01 X10.222186 Y8.673529 Z0.000000  F13 (CUT)
G00 Z0.000100

(End cutting path id: line749)


(Start cutting path id: line751)
(Change tool to Default tool)

G00 Z0.000100
G00 X10.422050 Y8.421448 F70 (RAPID)

G01 Z0.000000 F100.0(Penetrate)
G01 X10.222186 Y8.421448 Z0.000000  F13 (CUT)
G00 Z0.000100

(End cutting path id: line751)


(Start cutting path id: path675)
(Change tool to Default tool)

G00 Z0.000100
G00 X10.222185 Y7.773240 F70 (RAPID)

G01 Z0.000000 F100.0(Penetrate)
G03 X10.178827 Y7.716735 Z0.000000 I0.105760 J-0.126040  F13 (CUT)
G03 X10.163412 Y7.647200 Z0.000000 I0.149119 J-0.069535 F13 (CUT)
G03 X10.178827 Y7.577664 Z0.000000 I0.164534 J-0.000000 F13 (CUT)
G03 X10.222185 Y7.521159 Z0.000000 I0.149119 J0.069535 F13 (CUT)
G00 Z0.000100

(End cutting path id: path675)


(Start cutting path id: path673)
(Change tool to Default tool)

G00 Z0.000100
G00 X10.422049 Y7.521159 F70 (RAPID)

G01 Z0.000000 F100.0(Penetrate)
G03 X10.465407 Y7.577664 Z0.000000 I-0.105760 J0.126040  F13 (CUT)
G03 X10.480823 Y7.647200 Z0.000000 I-0.149119 J0.069535 F13 (CUT)
G03 X10.465407 Y7.716735 Z0.000000 I-0.164534 J0.000000 F13 (CUT)
G03 X10.422049 Y7.773240 Z0.000000 I-0.149119 J-0.069535 F13 (CUT)
G00 Z0.000100

(End cutting path id: path673)


(Start cutting path id: line669)
(Change tool to Default tool)

G00 Z0.000100
G00 X10.422050 Y7.773240 F70 (RAPID)

G01 Z0.000000 F100.0(Penetrate)
G01 X10.222186 Y7.773240 Z0.000000  F13 (CUT)
G00 Z0.000100

(End cutting path id: line669)


(Start cutting path id: line671)
(Change tool to Default tool)

G00 Z0.000100
G00 X10.422050 Y7.521159 F70 (RAPID)

G01 Z0.000000 F100.0(Penetrate)
G01 X10.222186 Y7.521159 Z0.000000  F13 (CUT)
G00 Z0.000100

(End cutting path id: line671)


(Start cutting path id: path595)
(Change tool to Default tool)

G00 Z0.000100
G00 X10.222185 Y6.872951 F70 (RAPID)

G01 Z0.000000 F100.0(Penetrate)
G03 X10.178827 Y6.816446 Z0.000000 I0.105760 J-0.126040  F13 (CUT)
G03 X10.163412 Y6.746911 Z0.000000 I0.149119 J-0.069535 F13 (CUT)
G03 X10.178827 Y6.677376 Z0.000000 I0.164534 J-0.000000 F13 (CUT)
G03 X10.222185 Y6.620870 Z0.000000 I0.149119 J0.069535 F13 (CUT)
G00 Z0.000100

(End cutting path id: path595)


(Start cutting path id: path593)
(Change tool to Default tool)

G00 Z0.000100
G00 X10.422049 Y6.620870 F70 (RAPID)

G01 Z0.000000 F100.0(Penetrate)
G03 X10.465407 Y6.677376 Z0.000000 I-0.105760 J0.126040  F13 (CUT)
G03 X10.480823 Y6.746911 Z0.000000 I-0.149119 J0.069535 F13 (CUT)
G03 X10.465407 Y6.816446 Z0.000000 I-0.164534 J0.000000 F13 (CUT)
G03 X10.422049 Y6.872951 Z0.000000 I-0.149119 J-0.069535 F13 (CUT)
G00 Z0.000100

(End cutting path id: path593)


(Start cutting path id: line589)
(Change tool to Default tool)

G00 Z0.000100
G00 X10.422050 Y6.872951 F70 (RAPID)

G01 Z0.000000 F100.0(Penetrate)
G01 X10.222186 Y6.872951 Z0.000000  F13 (CUT)
G00 Z0.000100

(End cutting path id: line589)


(Start cutting path id: line591)
(Change tool to Default tool)

G00 Z0.000100
G00 X10.422050 Y6.620870 F70 (RAPID)

G01 Z0.000000 F100.0(Penetrate)
G01 X10.222186 Y6.620870 Z0.000000  F13 (CUT)
G00 Z0.000100

(End cutting path id: line591)


(Start cutting path id: path515)
(Change tool to Default tool)

G00 Z0.000100
G00 X10.222185 Y5.972662 F70 (RAPID)

G01 Z0.000000 F100.0(Penetrate)
G03 X10.178827 Y5.916157 Z0.000000 I0.105760 J-0.126040  F13 (CUT)
G03 X10.163412 Y5.846622 Z0.000000 I0.149119 J-0.069535 F13 (CUT)
G03 X10.178827 Y5.777087 Z0.000000 I0.164534 J-0.000000 F13 (CUT)
G03 X10.222185 Y5.720581 Z0.000000 I0.149119 J0.069535 F13 (CUT)
G00 Z0.000100

(End cutting path id: path515)


(Start cutting path id: path513)
(Change tool to Default tool)

G00 Z0.000100
G00 X10.422049 Y5.720581 F70 (RAPID)

G01 Z0.000000 F100.0(Penetrate)
G03 X10.465407 Y5.777087 Z0.000000 I-0.105760 J0.126040  F13 (CUT)
G03 X10.480823 Y5.846622 Z0.000000 I-0.149119 J0.069535 F13 (CUT)
G03 X10.465407 Y5.916157 Z0.000000 I-0.164534 J0.000000 F13 (CUT)
G03 X10.422049 Y5.972662 Z0.000000 I-0.149119 J-0.069535 F13 (CUT)
G00 Z0.000100

(End cutting path id: path513)


(Start cutting path id: line509)
(Change tool to Default tool)

G00 Z0.000100
G00 X10.422050 Y5.972662 F70 (RAPID)

G01 Z0.000000 F100.0(Penetrate)
G01 X10.222186 Y5.972662 Z0.000000  F13 (CUT)
G00 Z0.000100

(End cutting path id: line509)


(Start cutting path id: line511)
(Change tool to Default tool)

G00 Z0.000100
G00 X10.422050 Y5.720581 F70 (RAPID)

G01 Z0.000000 F100.0(Penetrate)
G01 X10.222186 Y5.720581 Z0.000000  F13 (CUT)
G00 Z0.000100

(End cutting path id: line511)


(Start cutting path id: path435)
(Change tool to Default tool)

G00 Z0.000100
G00 X10.222185 Y5.072373 F70 (RAPID)

G01 Z0.000000 F100.0(Penetrate)
G03 X10.178827 Y5.015868 Z0.000000 I0.105760 J-0.126040  F13 (CUT)
G03 X10.163412 Y4.946333 Z0.000000 I0.149119 J-0.069535 F13 (CUT)
G03 X10.178827 Y4.876798 Z0.000000 I0.164534 J-0.000000 F13 (CUT)
G03 X10.222185 Y4.820292 Z0.000000 I0.149119 J0.069535 F13 (CUT)
G00 Z0.000100

(End cutting path id: path435)


(Start cutting path id: path433)
(Change tool to Default tool)

G00 Z0.000100
G00 X10.422049 Y4.820292 F70 (RAPID)

G01 Z0.000000 F100.0(Penetrate)
G03 X10.465407 Y4.876798 Z0.000000 I-0.105760 J0.126040  F13 (CUT)
G03 X10.480823 Y4.946333 Z0.000000 I-0.149119 J0.069535 F13 (CUT)
G03 X10.465407 Y5.015868 Z0.000000 I-0.164534 J0.000000 F13 (CUT)
G03 X10.422049 Y5.072373 Z0.000000 I-0.149119 J-0.069535 F13 (CUT)
G00 Z0.000100

(End cutting path id: path433)


(Start cutting path id: line429)
(Change tool to Default tool)

G00 Z0.000100
G00 X10.422050 Y5.072373 F70 (RAPID)

G01 Z0.000000 F100.0(Penetrate)
G01 X10.222186 Y5.072373 Z0.000000  F13 (CUT)
G00 Z0.000100

(End cutting path id: line429)


(Start cutting path id: line431)
(Change tool to Default tool)

G00 Z0.000100
G00 X10.422050 Y4.820292 F70 (RAPID)

G01 Z0.000000 F100.0(Penetrate)
G01 X10.222186 Y4.820292 Z0.000000  F13 (CUT)
G00 Z0.000100

(End cutting path id: line431)


(Start cutting path id: path355)
(Change tool to Default tool)

G00 Z0.000100
G00 X10.222185 Y4.172084 F70 (RAPID)

G01 Z0.000000 F100.0(Penetrate)
G03 X10.178827 Y4.115579 Z0.000000 I0.105760 J-0.126040  F13 (CUT)
G03 X10.163412 Y4.046044 Z0.000000 I0.149119 J-0.069535 F13 (CUT)
G03 X10.178827 Y3.976509 Z0.000000 I0.164534 J-0.000000 F13 (CUT)
G03 X10.222185 Y3.920004 Z0.000000 I0.149119 J0.069535 F13 (CUT)
G00 Z0.000100

(End cutting path id: path355)


(Start cutting path id: path353)
(Change tool to Default tool)

G00 Z0.000100
G00 X10.422049 Y3.920004 F70 (RAPID)

G01 Z0.000000 F100.0(Penetrate)
G03 X10.465407 Y3.976509 Z0.000000 I-0.105760 J0.126040  F13 (CUT)
G03 X10.480823 Y4.046044 Z0.000000 I-0.149119 J0.069535 F13 (CUT)
G03 X10.465407 Y4.115579 Z0.000000 I-0.164534 J0.000000 F13 (CUT)
G03 X10.422049 Y4.172084 Z0.000000 I-0.149119 J-0.069535 F13 (CUT)
G00 Z0.000100

(End cutting path id: path353)


(Start cutting path id: line349)
(Change tool to Default tool)

G00 Z0.000100
G00 X10.422050 Y4.172084 F70 (RAPID)

G01 Z0.000000 F100.0(Penetrate)
G01 X10.222186 Y4.172084 Z0.000000  F13 (CUT)
G00 Z0.000100

(End cutting path id: line349)


(Start cutting path id: line351)
(Change tool to Default tool)

G00 Z0.000100
G00 X10.422050 Y3.920003 F70 (RAPID)

G01 Z0.000000 F100.0(Penetrate)
G01 X10.222186 Y3.920003 Z0.000000  F13 (CUT)
G00 Z0.000100

(End cutting path id: line351)


(Start cutting path id: path275)
(Change tool to Default tool)

G00 Z0.000100
G00 X10.222185 Y3.271796 F70 (RAPID)

G01 Z0.000000 F100.0(Penetrate)
G03 X10.178827 Y3.215290 Z0.000000 I0.105760 J-0.126040  F13 (CUT)
G03 X10.163412 Y3.145755 Z0.000000 I0.149119 J-0.069535 F13 (CUT)
G03 X10.178827 Y3.076220 Z0.000000 I0.164534 J0.000000 F13 (CUT)
G03 X10.222185 Y3.019715 Z0.000000 I0.149119 J0.069535 F13 (CUT)
G00 Z0.000100

(End cutting path id: path275)


(Start cutting path id: path273)
(Change tool to Default tool)

G00 Z0.000100
G00 X10.422049 Y3.019715 F70 (RAPID)

G01 Z0.000000 F100.0(Penetrate)
G03 X10.465407 Y3.076220 Z0.000000 I-0.105760 J0.126040  F13 (CUT)
G03 X10.480823 Y3.145755 Z0.000000 I-0.149119 J0.069535 F13 (CUT)
G03 X10.465407 Y3.215290 Z0.000000 I-0.164534 J-0.000000 F13 (CUT)
G03 X10.422049 Y3.271796 Z0.000000 I-0.149119 J-0.069535 F13 (CUT)
G00 Z0.000100

(End cutting path id: path273)


(Start cutting path id: line269)
(Change tool to Default tool)

G00 Z0.000100
G00 X10.422050 Y3.271796 F70 (RAPID)

G01 Z0.000000 F100.0(Penetrate)
G01 X10.222186 Y3.271796 Z0.000000  F13 (CUT)
G00 Z0.000100

(End cutting path id: line269)


(Start cutting path id: line271)
(Change tool to Default tool)

G00 Z0.000100
G00 X10.422050 Y3.019715 F70 (RAPID)

G01 Z0.000000 F100.0(Penetrate)
G01 X10.222186 Y3.019715 Z0.000000  F13 (CUT)
G00 Z0.000100

(End cutting path id: line271)


(Start cutting path id: path195)
(Change tool to Default tool)

G00 Z0.000100
G00 X10.222185 Y2.371507 F70 (RAPID)

G01 Z0.000000 F100.0(Penetrate)
G03 X10.178827 Y2.315001 Z0.000000 I0.105760 J-0.126040  F13 (CUT)
G03 X10.163412 Y2.245466 Z0.000000 I0.149119 J-0.069535 F13 (CUT)
G03 X10.178827 Y2.175931 Z0.000000 I0.164534 J-0.000000 F13 (CUT)
G03 X10.222185 Y2.119426 Z0.000000 I0.149119 J0.069535 F13 (CUT)
G00 Z0.000100

(End cutting path id: path195)


(Start cutting path id: path193)
(Change tool to Default tool)

G00 Z0.000100
G00 X10.422049 Y2.119426 F70 (RAPID)

G01 Z0.000000 F100.0(Penetrate)
G03 X10.465407 Y2.175931 Z0.000000 I-0.105760 J0.126040  F13 (CUT)
G03 X10.480823 Y2.245466 Z0.000000 I-0.149119 J0.069535 F13 (CUT)
G03 X10.465407 Y2.315001 Z0.000000 I-0.164534 J-0.000000 F13 (CUT)
G03 X10.422049 Y2.371507 Z0.000000 I-0.149119 J-0.069535 F13 (CUT)
G00 Z0.000100

(End cutting path id: path193)


(Start cutting path id: line189)
(Change tool to Default tool)

G00 Z0.000100
G00 X10.422050 Y2.371507 F70 (RAPID)

G01 Z0.000000 F100.0(Penetrate)
G01 X10.222186 Y2.371507 Z0.000000  F13 (CUT)
G00 Z0.000100

(End cutting path id: line189)


(Start cutting path id: line191)
(Change tool to Default tool)

G00 Z0.000100
G00 X10.422050 Y2.119426 F70 (RAPID)

G01 Z0.000000 F100.0(Penetrate)
G01 X10.222186 Y2.119426 Z0.000000  F13 (CUT)
G00 Z0.000100

(End cutting path id: line191)


(Start cutting path id: path179)
(Change tool to Default tool)

G00 Z0.000100
G00 X12.022763 Y2.371507 F70 (RAPID)

G01 Z0.000000 F100.0(Penetrate)
G03 X11.979405 Y2.315001 Z0.000000 I0.105760 J-0.126040  F13 (CUT)
G03 X11.963989 Y2.245466 Z0.000000 I0.149119 J-0.069535 F13 (CUT)
G03 X11.979405 Y2.175931 Z0.000000 I0.164534 J0.000000 F13 (CUT)
G03 X12.022763 Y2.119426 Z0.000000 I0.149119 J0.069535 F13 (CUT)
G00 Z0.000100

(End cutting path id: path179)


(Start cutting path id: line175)
(Change tool to Default tool)

G00 Z0.000100
G00 X12.222627 Y2.119426 F70 (RAPID)

G01 Z0.000000 F100.0(Penetrate)
G01 X12.022763 Y2.119426 Z0.000000  F13 (CUT)
G00 Z0.000100

(End cutting path id: line175)


(Start cutting path id: path177)
(Change tool to Default tool)

G00 Z0.000100
G00 X12.222627 Y2.119426 F70 (RAPID)

G01 Z0.000000 F100.0(Penetrate)
G03 X12.265985 Y2.175931 Z0.000000 I-0.105760 J0.126040  F13 (CUT)
G03 X12.281401 Y2.245466 Z0.000000 I-0.149119 J0.069535 F13 (CUT)
G03 X12.265985 Y2.315001 Z0.000000 I-0.164534 J0.000000 F13 (CUT)
G03 X12.222627 Y2.371507 Z0.000000 I-0.149119 J-0.069535 F13 (CUT)
G00 Z0.000100

(End cutting path id: path177)


(Start cutting path id: line173)
(Change tool to Default tool)

G00 Z0.000100
G00 X12.222627 Y2.371507 F70 (RAPID)

G01 Z0.000000 F100.0(Penetrate)
G01 X12.022763 Y2.371507 Z0.000000  F13 (CUT)
G00 Z0.000100

(End cutting path id: line173)


(Start cutting path id: line255)
(Change tool to Default tool)

G00 Z0.000100
G00 X12.222627 Y3.019715 F70 (RAPID)

G01 Z0.000000 F100.0(Penetrate)
G01 X12.022763 Y3.019715 Z0.000000  F13 (CUT)
G00 Z0.000100

(End cutting path id: line255)


(Start cutting path id: path257)
(Change tool to Default tool)

G00 Z0.000100
G00 X12.222627 Y3.019715 F70 (RAPID)

G01 Z0.000000 F100.0(Penetrate)
G03 X12.265985 Y3.076220 Z0.000000 I-0.105760 J0.126040  F13 (CUT)
G03 X12.281401 Y3.145755 Z0.000000 I-0.149119 J0.069535 F13 (CUT)
G03 X12.265985 Y3.215290 Z0.000000 I-0.164534 J0.000000 F13 (CUT)
G03 X12.222627 Y3.271796 Z0.000000 I-0.149119 J-0.069535 F13 (CUT)
G00 Z0.000100

(End cutting path id: path257)


(Start cutting path id: line253)
(Change tool to Default tool)

G00 Z0.000100
G00 X12.222627 Y3.271796 F70 (RAPID)

G01 Z0.000000 F100.0(Penetrate)
G01 X12.022763 Y3.271796 Z0.000000  F13 (CUT)
G00 Z0.000100

(End cutting path id: line253)


(Start cutting path id: path259)
(Change tool to Default tool)

G00 Z0.000100
G00 X12.022763 Y3.271796 F70 (RAPID)

G01 Z0.000000 F100.0(Penetrate)
G03 X11.979405 Y3.215290 Z0.000000 I0.105760 J-0.126040  F13 (CUT)
G03 X11.963989 Y3.145755 Z0.000000 I0.149119 J-0.069535 F13 (CUT)
G03 X11.979405 Y3.076220 Z0.000000 I0.164534 J-0.000000 F13 (CUT)
G03 X12.022763 Y3.019715 Z0.000000 I0.149119 J0.069535 F13 (CUT)
G00 Z0.000100

(End cutting path id: path259)


(Start cutting path id: line335)
(Change tool to Default tool)

G00 Z0.000100
G00 X12.222627 Y3.920003 F70 (RAPID)

G01 Z0.000000 F100.0(Penetrate)
G01 X12.022763 Y3.920003 Z0.000000  F13 (CUT)
G00 Z0.000100

(End cutting path id: line335)


(Start cutting path id: path337)
(Change tool to Default tool)

G00 Z0.000100
G00 X12.222627 Y3.920004 F70 (RAPID)

G01 Z0.000000 F100.0(Penetrate)
G03 X12.265985 Y3.976509 Z0.000000 I-0.105760 J0.126040  F13 (CUT)
G03 X12.281401 Y4.046044 Z0.000000 I-0.149119 J0.069535 F13 (CUT)
G03 X12.265985 Y4.115579 Z0.000000 I-0.164534 J0.000000 F13 (CUT)
G03 X12.222627 Y4.172084 Z0.000000 I-0.149119 J-0.069535 F13 (CUT)
G00 Z0.000100

(End cutting path id: path337)


(Start cutting path id: line333)
(Change tool to Default tool)

G00 Z0.000100
G00 X12.222627 Y4.172084 F70 (RAPID)

G01 Z0.000000 F100.0(Penetrate)
G01 X12.022763 Y4.172084 Z0.000000  F13 (CUT)
G00 Z0.000100

(End cutting path id: line333)


(Start cutting path id: path339)
(Change tool to Default tool)

G00 Z0.000100
G00 X12.022763 Y4.172084 F70 (RAPID)

G01 Z0.000000 F100.0(Penetrate)
G03 X11.979405 Y4.115579 Z0.000000 I0.105760 J-0.126040  F13 (CUT)
G03 X11.963989 Y4.046044 Z0.000000 I0.149119 J-0.069535 F13 (CUT)
G03 X11.979405 Y3.976509 Z0.000000 I0.164534 J-0.000000 F13 (CUT)
G03 X12.022763 Y3.920004 Z0.000000 I0.149119 J0.069535 F13 (CUT)
G00 Z0.000100

(End cutting path id: path339)


(Start cutting path id: line415)
(Change tool to Default tool)

G00 Z0.000100
G00 X12.222627 Y4.820292 F70 (RAPID)

G01 Z0.000000 F100.0(Penetrate)
G01 X12.022763 Y4.820292 Z0.000000  F13 (CUT)
G00 Z0.000100

(End cutting path id: line415)


(Start cutting path id: path417)
(Change tool to Default tool)

G00 Z0.000100
G00 X12.222627 Y4.820292 F70 (RAPID)

G01 Z0.000000 F100.0(Penetrate)
G03 X12.265985 Y4.876798 Z0.000000 I-0.105760 J0.126040  F13 (CUT)
G03 X12.281401 Y4.946333 Z0.000000 I-0.149119 J0.069535 F13 (CUT)
G03 X12.265985 Y5.015868 Z0.000000 I-0.164534 J0.000000 F13 (CUT)
G03 X12.222627 Y5.072373 Z0.000000 I-0.149119 J-0.069535 F13 (CUT)
G00 Z0.000100

(End cutting path id: path417)


(Start cutting path id: line413)
(Change tool to Default tool)

G00 Z0.000100
G00 X12.222627 Y5.072373 F70 (RAPID)

G01 Z0.000000 F100.0(Penetrate)
G01 X12.022763 Y5.072373 Z0.000000  F13 (CUT)
G00 Z0.000100

(End cutting path id: line413)


(Start cutting path id: path419)
(Change tool to Default tool)

G00 Z0.000100
G00 X12.022763 Y5.072373 F70 (RAPID)

G01 Z0.000000 F100.0(Penetrate)
G03 X11.979405 Y5.015868 Z0.000000 I0.105760 J-0.126040  F13 (CUT)
G03 X11.963989 Y4.946333 Z0.000000 I0.149119 J-0.069535 F13 (CUT)
G03 X11.979405 Y4.876798 Z0.000000 I0.164534 J0.000000 F13 (CUT)
G03 X12.022763 Y4.820292 Z0.000000 I0.149119 J0.069535 F13 (CUT)
G00 Z0.000100

(End cutting path id: path419)


(Start cutting path id: line495)
(Change tool to Default tool)

G00 Z0.000100
G00 X12.222627 Y5.720581 F70 (RAPID)

G01 Z0.000000 F100.0(Penetrate)
G01 X12.022763 Y5.720581 Z0.000000  F13 (CUT)
G00 Z0.000100

(End cutting path id: line495)


(Start cutting path id: path497)
(Change tool to Default tool)

G00 Z0.000100
G00 X12.222627 Y5.720581 F70 (RAPID)

G01 Z0.000000 F100.0(Penetrate)
G03 X12.265985 Y5.777087 Z0.000000 I-0.105760 J0.126040  F13 (CUT)
G03 X12.281401 Y5.846622 Z0.000000 I-0.149119 J0.069535 F13 (CUT)
G03 X12.265985 Y5.916157 Z0.000000 I-0.164534 J-0.000000 F13 (CUT)
G03 X12.222627 Y5.972662 Z0.000000 I-0.149119 J-0.069535 F13 (CUT)
G00 Z0.000100

(End cutting path id: path497)


(Start cutting path id: line493)
(Change tool to Default tool)

G00 Z0.000100
G00 X12.222627 Y5.972662 F70 (RAPID)

G01 Z0.000000 F100.0(Penetrate)
G01 X12.022763 Y5.972662 Z0.000000  F13 (CUT)
G00 Z0.000100

(End cutting path id: line493)


(Start cutting path id: path499)
(Change tool to Default tool)

G00 Z0.000100
G00 X12.022763 Y5.972662 F70 (RAPID)

G01 Z0.000000 F100.0(Penetrate)
G03 X11.979405 Y5.916157 Z0.000000 I0.105760 J-0.126040  F13 (CUT)
G03 X11.963989 Y5.846622 Z0.000000 I0.149119 J-0.069535 F13 (CUT)
G03 X11.979405 Y5.777087 Z0.000000 I0.164534 J0.000000 F13 (CUT)
G03 X12.022763 Y5.720581 Z0.000000 I0.149119 J0.069535 F13 (CUT)
G00 Z0.000100

(End cutting path id: path499)


(Start cutting path id: line575)
(Change tool to Default tool)

G00 Z0.000100
G00 X12.222627 Y6.620870 F70 (RAPID)

G01 Z0.000000 F100.0(Penetrate)
G01 X12.022763 Y6.620870 Z0.000000  F13 (CUT)
G00 Z0.000100

(End cutting path id: line575)


(Start cutting path id: path577)
(Change tool to Default tool)

G00 Z0.000100
G00 X12.222627 Y6.620870 F70 (RAPID)

G01 Z0.000000 F100.0(Penetrate)
G03 X12.265985 Y6.677376 Z0.000000 I-0.105760 J0.126040  F13 (CUT)
G03 X12.281401 Y6.746911 Z0.000000 I-0.149119 J0.069535 F13 (CUT)
G03 X12.265985 Y6.816446 Z0.000000 I-0.164534 J-0.000000 F13 (CUT)
G03 X12.222627 Y6.872951 Z0.000000 I-0.149119 J-0.069535 F13 (CUT)
G00 Z0.000100

(End cutting path id: path577)


(Start cutting path id: line573)
(Change tool to Default tool)

G00 Z0.000100
G00 X12.222627 Y6.872951 F70 (RAPID)

G01 Z0.000000 F100.0(Penetrate)
G01 X12.022763 Y6.872951 Z0.000000  F13 (CUT)
G00 Z0.000100

(End cutting path id: line573)


(Start cutting path id: path579)
(Change tool to Default tool)

G00 Z0.000100
G00 X12.022763 Y6.872951 F70 (RAPID)

G01 Z0.000000 F100.0(Penetrate)
G03 X11.979405 Y6.816446 Z0.000000 I0.105760 J-0.126040  F13 (CUT)
G03 X11.963989 Y6.746911 Z0.000000 I0.149119 J-0.069535 F13 (CUT)
G03 X11.979405 Y6.677376 Z0.000000 I0.164534 J0.000000 F13 (CUT)
G03 X12.022763 Y6.620870 Z0.000000 I0.149119 J0.069535 F13 (CUT)
G00 Z0.000100

(End cutting path id: path579)


(Start cutting path id: path571)
(Change tool to Default tool)

G00 Z0.000100
G00 X12.923052 Y6.872951 F70 (RAPID)

G01 Z0.000000 F100.0(Penetrate)
G03 X12.879694 Y6.816446 Z0.000000 I0.105760 J-0.126040  F13 (CUT)
G03 X12.864278 Y6.746911 Z0.000000 I0.149119 J-0.069535 F13 (CUT)
G03 X12.879694 Y6.677376 Z0.000000 I0.164534 J-0.000000 F13 (CUT)
G03 X12.923052 Y6.620870 Z0.000000 I0.149119 J0.069535 F13 (CUT)
G00 Z0.000100

(End cutting path id: path571)


(Start cutting path id: line567)
(Change tool to Default tool)

G00 Z0.000100
G00 X13.122916 Y6.620870 F70 (RAPID)

G01 Z0.000000 F100.0(Penetrate)
G01 X12.923052 Y6.620870 Z0.000000  F13 (CUT)
G00 Z0.000100

(End cutting path id: line567)


(Start cutting path id: path569)
(Change tool to Default tool)

G00 Z0.000100
G00 X13.122916 Y6.620870 F70 (RAPID)

G01 Z0.000000 F100.0(Penetrate)
G03 X13.166274 Y6.677376 Z0.000000 I-0.105760 J0.126040  F13 (CUT)
G03 X13.181690 Y6.746911 Z0.000000 I-0.149119 J0.069535 F13 (CUT)
G03 X13.166274 Y6.816446 Z0.000000 I-0.164534 J-0.000000 F13 (CUT)
G03 X13.122916 Y6.872951 Z0.000000 I-0.149119 J-0.069535 F13 (CUT)
G00 Z0.000100

(End cutting path id: path569)


(Start cutting path id: line565)
(Change tool to Default tool)

G00 Z0.000100
G00 X13.122916 Y6.872951 F70 (RAPID)

G01 Z0.000000 F100.0(Penetrate)
G01 X12.923052 Y6.872951 Z0.000000  F13 (CUT)
G00 Z0.000100

(End cutting path id: line565)


(Start cutting path id: path491)
(Change tool to Default tool)

G00 Z0.000100
G00 X12.923052 Y5.972662 F70 (RAPID)

G01 Z0.000000 F100.0(Penetrate)
G03 X12.879694 Y5.916157 Z0.000000 I0.105760 J-0.126040  F13 (CUT)
G03 X12.864278 Y5.846622 Z0.000000 I0.149119 J-0.069535 F13 (CUT)
G03 X12.879694 Y5.777087 Z0.000000 I0.164534 J-0.000000 F13 (CUT)
G03 X12.923052 Y5.720581 Z0.000000 I0.149119 J0.069535 F13 (CUT)
G00 Z0.000100

(End cutting path id: path491)


(Start cutting path id: line487)
(Change tool to Default tool)

G00 Z0.000100
G00 X13.122916 Y5.720581 F70 (RAPID)

G01 Z0.000000 F100.0(Penetrate)
G01 X12.923052 Y5.720581 Z0.000000  F13 (CUT)
G00 Z0.000100

(End cutting path id: line487)


(Start cutting path id: path489)
(Change tool to Default tool)

G00 Z0.000100
G00 X13.122916 Y5.720581 F70 (RAPID)

G01 Z0.000000 F100.0(Penetrate)
G03 X13.166274 Y5.777087 Z0.000000 I-0.105760 J0.126040  F13 (CUT)
G03 X13.181690 Y5.846622 Z0.000000 I-0.149119 J0.069535 F13 (CUT)
G03 X13.166274 Y5.916157 Z0.000000 I-0.164534 J-0.000000 F13 (CUT)
G03 X13.122916 Y5.972662 Z0.000000 I-0.149119 J-0.069535 F13 (CUT)
G00 Z0.000100

(End cutting path id: path489)


(Start cutting path id: line485)
(Change tool to Default tool)

G00 Z0.000100
G00 X13.122916 Y5.972662 F70 (RAPID)

G01 Z0.000000 F100.0(Penetrate)
G01 X12.923052 Y5.972662 Z0.000000  F13 (CUT)
G00 Z0.000100

(End cutting path id: line485)


(Start cutting path id: path411)
(Change tool to Default tool)

G00 Z0.000100
G00 X12.923052 Y5.072373 F70 (RAPID)

G01 Z0.000000 F100.0(Penetrate)
G03 X12.879694 Y5.015868 Z0.000000 I0.105760 J-0.126040  F13 (CUT)
G03 X12.864278 Y4.946333 Z0.000000 I0.149119 J-0.069535 F13 (CUT)
G03 X12.879694 Y4.876798 Z0.000000 I0.164534 J0.000000 F13 (CUT)
G03 X12.923052 Y4.820292 Z0.000000 I0.149119 J0.069535 F13 (CUT)
G00 Z0.000100

(End cutting path id: path411)


(Start cutting path id: line407)
(Change tool to Default tool)

G00 Z0.000100
G00 X13.122916 Y4.820292 F70 (RAPID)

G01 Z0.000000 F100.0(Penetrate)
G01 X12.923052 Y4.820292 Z0.000000  F13 (CUT)
G00 Z0.000100

(End cutting path id: line407)


(Start cutting path id: path409)
(Change tool to Default tool)

G00 Z0.000100
G00 X13.122916 Y4.820292 F70 (RAPID)

G01 Z0.000000 F100.0(Penetrate)
G03 X13.166274 Y4.876798 Z0.000000 I-0.105760 J0.126040  F13 (CUT)
G03 X13.181690 Y4.946333 Z0.000000 I-0.149119 J0.069535 F13 (CUT)
G03 X13.166274 Y5.015868 Z0.000000 I-0.164534 J0.000000 F13 (CUT)
G03 X13.122916 Y5.072373 Z0.000000 I-0.149119 J-0.069535 F13 (CUT)
G00 Z0.000100

