%
(Header)
(Generated by gcodetools from Inkscape.)
(Using default header. To add your own header create file "header" in the output dir.)
M3
(Header end.)
G20 (All units in inches)

(laser safety measures)
M9
G01 Z0.000000 F100.0(Penetrate)
G00 Z0.000100
M7

(Start cutting path id: line291)
(Change tool to Default tool)

G00 Z0.000100
G00 X16.166615 Y0.755715

G01 Z0.000000 F100.0(Penetrate)
G01 X-0.038584 Y0.755715 Z0.000000 F400.000000
G00 Z0.000100

(End cutting path id: line291)


(Start cutting path id: line285)
(Change tool to Default tool)

G00 Z0.000100
G00 X-0.038584 Y0.755715

G01 Z0.000000 F100.0(Penetrate)
G01 X-0.038584 Y14.710193 Z0.000000 F400.000000
G00 Z0.000100

(End cutting path id: line285)


(Start cutting path id: line287)
(Change tool to Default tool)

G00 Z0.000100
G00 X-0.038584 Y14.710193

G01 Z0.000000 F100.0(Penetrate)
G01 X16.166615 Y14.710193 Z0.000000 F400.000000
G00 Z0.000100

(End cutting path id: line287)


(Start cutting path id: line289)
(Change tool to Default tool)

G00 Z0.000100
G00 X16.166615 Y14.710193

G01 Z0.000000 F100.0(Penetrate)
G01 X16.166615 Y0.755715 Z0.000000 F400.000000
G00 Z0.000100

(End cutting path id: line289)


(Start cutting path id: line37)
(Change tool to Default tool)

G00 Z0.000100
G00 X15.500402 Y1.304891

G01 Z0.000000 F100.0(Penetrate)
G01 X15.500402 Y14.134008 Z0.000000 F400.000000
G00 Z0.000100

(End cutting path id: line37)


(Start cutting path id: path39)
(Change tool to Default tool)

G00 Z0.000100
G00 X15.500402 Y14.134008

G01 Z0.000000 F100.0(Penetrate)
G03 X15.406102 Y14.295436 Z0.000000 I-0.270087 J-0.049516 F400.000000
G03 X15.230315 Y14.359080 Z0.000000 I-0.175787 J-0.210944
G03 X15.054528 Y14.295436 Z0.000000 I0.000000 J-0.274588
G03 X14.960229 Y14.134008 Z0.000000 I0.175787 J-0.210944
G00 Z0.000100

(End cutting path id: path39)


(Start cutting path id: line41)
(Change tool to Default tool)

G00 Z0.000100
G00 X14.960229 Y14.134008

G01 Z0.000000 F100.0(Penetrate)
G01 X14.960229 Y1.304891 Z0.000000 F400.000000
G00 Z0.000100

(End cutting path id: line41)


(Start cutting path id: path43)
(Change tool to Default tool)

G00 Z0.000100
G00 X14.960229 Y1.304891

G01 Z0.000000 F100.0(Penetrate)
G03 X15.054528 Y1.143463 Z0.000000 I0.270087 J0.049516 F400.000000
G03 X15.230315 Y1.079819 Z0.000000 I0.175787 J0.210944
G03 X15.406102 Y1.143463 Z0.000000 I-0.000000 J0.274588
G03 X15.500402 Y1.304891 Z0.000000 I-0.175787 J0.210944
G00 Z0.000100

(End cutting path id: path43)


(Start cutting path id: line29)
(Change tool to Default tool)

G00 Z0.000100
G00 X14.600114 Y1.304891

G01 Z0.000000 F100.0(Penetrate)
G01 X14.600114 Y14.134008 Z0.000000 F400.000000
G00 Z0.000100

(End cutting path id: line29)


(Start cutting path id: path31)
(Change tool to Default tool)

G00 Z0.000100
G00 X14.600113 Y14.134008

G01 Z0.000000 F100.0(Penetrate)
G03 X14.505814 Y14.295436 Z0.000000 I-0.270087 J-0.049516 F400.000000
G03 X14.330027 Y14.359080 Z0.000000 I-0.175787 J-0.210944
G03 X14.154239 Y14.295436 Z0.000000 I-0.000000 J-0.274588
G03 X14.059940 Y14.134008 Z0.000000 I0.175787 J-0.210944
G00 Z0.000100

(End cutting path id: path31)


(Start cutting path id: line33)
(Change tool to Default tool)

G00 Z0.000100
G00 X14.059939 Y14.134008

G01 Z0.000000 F100.0(Penetrate)
G01 X14.059939 Y1.304891 Z0.000000 F400.000000
G00 Z0.000100

(End cutting path id: line33)


(Start cutting path id: path35)
(Change tool to Default tool)

G00 Z0.000100
G00 X14.059940 Y1.304891

G01 Z0.000000 F100.0(Penetrate)
G03 X14.154239 Y1.143463 Z0.000000 I0.270087 J0.049516 F400.000000
G03 X14.330027 Y1.079819 Z0.000000 I0.175787 J0.210944
G03 X14.505814 Y1.143463 Z0.000000 I-0.000000 J0.274588
G03 X14.600113 Y1.304891 Z0.000000 I-0.175787 J0.210944
G00 Z0.000100

(End cutting path id: path35)


(Start cutting path id: line121)
(Change tool to Default tool)

G00 Z0.000100
G00 X13.069622 Y1.169848

G01 Z0.000000 F100.0(Penetrate)
G01 X9.288409 Y1.169848 Z0.000000 F400.000000
G00 Z0.000100

(End cutting path id: line121)


(Start cutting path id: line117)
(Change tool to Default tool)

G00 Z0.000100
G00 X9.288409 Y1.710021

G01 Z0.000000 F100.0(Penetrate)
G01 X13.069622 Y1.710021 Z0.000000 F400.000000
G00 Z0.000100

(End cutting path id: line117)


(Start cutting path id: path103)
(Change tool to Default tool)

G00 Z0.000100
G00 X13.069622 Y2.070137

G01 Z0.000000 F100.0(Penetrate)
G03 X13.231051 Y2.164436 Z0.000000 I-0.049516 J0.270087 F400.000000
G03 X13.294694 Y2.340223 Z0.000000 I-0.210944 J0.175787
G03 X13.231051 Y2.516010 Z0.000000 I-0.274588 J-0.000000
G03 X13.069622 Y2.610310 Z0.000000 I-0.210944 J-0.175787
G00 Z0.000100

(End cutting path id: path103)


(Start cutting path id: path87)
(Change tool to Default tool)

G00 Z0.000100
G00 X13.069622 Y2.970426

G01 Z0.000000 F100.0(Penetrate)
G03 X13.231051 Y3.064725 Z0.000000 I-0.049516 J0.270087 F400.000000
G03 X13.294694 Y3.240512 Z0.000000 I-0.210944 J0.175787
G03 X13.231051 Y3.416299 Z0.000000 I-0.274588 J-0.000000
G03 X13.069622 Y3.510599 Z0.000000 I-0.210944 J-0.175787
G00 Z0.000100

(End cutting path id: path87)


(Start cutting path id: path71)
(Change tool to Default tool)

G00 Z0.000100
G00 X13.069622 Y3.870715

G01 Z0.000000 F100.0(Penetrate)
G03 X13.231051 Y3.965014 Z0.000000 I-0.049516 J0.270087 F400.000000
G03 X13.294694 Y4.140801 Z0.000000 I-0.210944 J0.175787
G03 X13.231051 Y4.316588 Z0.000000 I-0.274588 J-0.000000
G03 X13.069622 Y4.410888 Z0.000000 I-0.210944 J-0.175787
G00 Z0.000100

(End cutting path id: path71)


(Start cutting path id: path55)
(Change tool to Default tool)

G00 Z0.000100
G00 X13.069622 Y4.771003

G01 Z0.000000 F100.0(Penetrate)
G03 X13.231051 Y4.865303 Z0.000000 I-0.049516 J0.270087 F400.000000
G03 X13.294694 Y5.041090 Z0.000000 I-0.210944 J0.175787
G03 X13.231051 Y5.216877 Z0.000000 I-0.274588 J0.000000
G03 X13.069622 Y5.311177 Z0.000000 I-0.210944 J-0.175787
G00 Z0.000100

(End cutting path id: path55)


(Start cutting path id: path199)
(Change tool to Default tool)

G00 Z0.000100
G00 X13.069622 Y5.671292

G01 Z0.000000 F100.0(Penetrate)
G03 X13.231051 Y5.765592 Z0.000000 I-0.049516 J0.270087 F400.000000
G03 X13.294694 Y5.941379 Z0.000000 I-0.210944 J0.175787
G03 X13.231051 Y6.117166 Z0.000000 I-0.274588 J-0.000000
G03 X13.069622 Y6.211466 Z0.000000 I-0.210944 J-0.175787
G00 Z0.000100

(End cutting path id: path199)


(Start cutting path id: path183)
(Change tool to Default tool)

G00 Z0.000100
G00 X13.069622 Y6.571581

G01 Z0.000000 F100.0(Penetrate)
G03 X13.231051 Y6.665881 Z0.000000 I-0.049516 J0.270087 F400.000000
G03 X13.294694 Y6.841668 Z0.000000 I-0.210944 J0.175787
G03 X13.231051 Y7.017455 Z0.000000 I-0.274588 J-0.000000
G03 X13.069622 Y7.111755 Z0.000000 I-0.210944 J-0.175787
G00 Z0.000100

(End cutting path id: path183)


(Start cutting path id: line169)
(Change tool to Default tool)

G00 Z0.000100
G00 X13.069622 Y7.471870

G01 Z0.000000 F100.0(Penetrate)
G01 X9.288409 Y7.471870 Z0.000000 F400.000000
G00 Z0.000100

(End cutting path id: line169)


(Start cutting path id: line181)
(Change tool to Default tool)

G00 Z0.000100
G00 X9.288409 Y7.111755

G01 Z0.000000 F100.0(Penetrate)
G01 X13.069622 Y7.111755 Z0.000000 F400.000000
G00 Z0.000100

(End cutting path id: line181)


(Start cutting path id: path167)
(Change tool to Default tool)

G00 Z0.000100
G00 X13.069622 Y7.471870

G01 Z0.000000 F100.0(Penetrate)
G03 X13.231051 Y7.566170 Z0.000000 I-0.049516 J0.270087 F400.000000
G03 X13.294694 Y7.741957 Z0.000000 I-0.210944 J0.175787
G03 X13.231051 Y7.917744 Z0.000000 I-0.274588 J-0.000000
G03 X13.069622 Y8.012043 Z0.000000 I-0.210944 J-0.175787
G00 Z0.000100

(End cutting path id: path167)


(Start cutting path id: path151)
(Change tool to Default tool)

G00 Z0.000100
G00 X13.069622 Y8.372159

G01 Z0.000000 F100.0(Penetrate)
G03 X13.231051 Y8.466459 Z0.000000 I-0.049516 J0.270087 F400.000000
G03 X13.294694 Y8.642246 Z0.000000 I-0.210944 J0.175787
G03 X13.231051 Y8.818033 Z0.000000 I-0.274588 J0.000000
G03 X13.069622 Y8.912332 Z0.000000 I-0.210944 J-0.175787
G00 Z0.000100

(End cutting path id: path151)


(Start cutting path id: path135)
(Change tool to Default tool)

G00 Z0.000100
G00 X13.069622 Y9.272448

G01 Z0.000000 F100.0(Penetrate)
G03 X13.231051 Y9.366748 Z0.000000 I-0.049516 J0.270087 F400.000000
G03 X13.294694 Y9.542535 Z0.000000 I-0.210944 J0.175787
G03 X13.231051 Y9.718322 Z0.000000 I-0.274588 J0.000000
G03 X13.069622 Y9.812621 Z0.000000 I-0.210944 J-0.175787
G00 Z0.000100

(End cutting path id: path135)


(Start cutting path id: path279)
(Change tool to Default tool)

G00 Z0.000100
G00 X13.069622 Y10.172737

G01 Z0.000000 F100.0(Penetrate)
G03 X13.231051 Y10.267036 Z0.000000 I-0.049516 J0.270087 F400.000000
G03 X13.294694 Y10.442823 Z0.000000 I-0.210944 J0.175787
G03 X13.231051 Y10.618610 Z0.000000 I-0.274588 J-0.000000
G03 X13.069622 Y10.712910 Z0.000000 I-0.210944 J-0.175787
G00 Z0.000100

(End cutting path id: path279)


(Start cutting path id: path263)
(Change tool to Default tool)

G00 Z0.000100
G00 X13.069622 Y11.073026

G01 Z0.000000 F100.0(Penetrate)
G03 X13.231051 Y11.167325 Z0.000000 I-0.049516 J0.270087 F400.000000
G03 X13.294694 Y11.343112 Z0.000000 I-0.210944 J0.175787
G03 X13.231051 Y11.518899 Z0.000000 I-0.274588 J0.000000
G03 X13.069622 Y11.613199 Z0.000000 I-0.210944 J-0.175787
G00 Z0.000100

(End cutting path id: path263)


(Start cutting path id: line249)
(Change tool to Default tool)

G00 Z0.000100
G00 X13.069622 Y11.973314

G01 Z0.000000 F100.0(Penetrate)
G01 X9.288409 Y11.973314 Z0.000000 F400.000000
G00 Z0.000100

(End cutting path id: line249)


(Start cutting path id: path267)
(Change tool to Default tool)

G00 Z0.000100
G00 X9.288409 Y11.613199

G01 Z0.000000 F100.0(Penetrate)
G03 X9.126980 Y11.518899 Z0.000000 I0.049516 J-0.270087 F400.000000
G03 X9.063337 Y11.343112 Z0.000000 I0.210944 J-0.175787
G03 X9.126980 Y11.167325 Z0.000000 I0.274588 J-0.000000
G03 X9.288409 Y11.073026 Z0.000000 I0.210944 J0.175787
G00 Z0.000100

(End cutting path id: path267)


(Start cutting path id: path283)
(Change tool to Default tool)

G00 Z0.000100
G00 X9.288409 Y10.712910

G01 Z0.000000 F100.0(Penetrate)
G03 X9.126980 Y10.618610 Z0.000000 I0.049516 J-0.270087 F400.000000
G03 X9.063337 Y10.442823 Z0.000000 I0.210944 J-0.175787
G03 X9.126980 Y10.267036 Z0.000000 I0.274588 J0.000000
G03 X9.288409 Y10.172737 Z0.000000 I0.210944 J0.175787
G00 Z0.000100

(End cutting path id: path283)


(Start cutting path id: path139)
(Change tool to Default tool)

G00 Z0.000100
G00 X9.288409 Y9.812621

G01 Z0.000000 F100.0(Penetrate)
G03 X9.126980 Y9.718322 Z0.000000 I0.049516 J-0.270087 F400.000000
G03 X9.063337 Y9.542535 Z0.000000 I0.210944 J-0.175787
G03 X9.126980 Y9.366748 Z0.000000 I0.274588 J-0.000000
G03 X9.288409 Y9.272448 Z0.000000 I0.210944 J0.175787
G00 Z0.000100

(End cutting path id: path139)


(Start cutting path id: line149)
(Change tool to Default tool)

G00 Z0.000100
G00 X9.288409 Y8.912333

G01 Z0.000000 F100.0(Penetrate)
G01 X13.069622 Y8.912333 Z0.000000 F400.000000
G00 Z0.000100

(End cutting path id: line149)


(Start cutting path id: line137)
(Change tool to Default tool)

G00 Z0.000100
G00 X13.069622 Y9.272448

G01 Z0.000000 F100.0(Penetrate)
G01 X9.288409 Y9.272448 Z0.000000 F400.000000
G00 Z0.000100

(End cutting path id: line137)


(Start cutting path id: path155)
(Change tool to Default tool)

G00 Z0.000100
G00 X9.288409 Y8.912332

G01 Z0.000000 F100.0(Penetrate)
G03 X9.126980 Y8.818033 Z0.000000 I0.049516 J-0.270087 F400.000000
G03 X9.063337 Y8.642246 Z0.000000 I0.210944 J-0.175787
G03 X9.126980 Y8.466459 Z0.000000 I0.274588 J-0.000000
G03 X9.288409 Y8.372159 Z0.000000 I0.210944 J0.175787
G00 Z0.000100

(End cutting path id: path155)


(Start cutting path id: path171)
(Change tool to Default tool)

G00 Z0.000100
G00 X9.288409 Y8.012043

G01 Z0.000000 F100.0(Penetrate)
G03 X9.126980 Y7.917744 Z0.000000 I0.049516 J-0.270087 F400.000000
G03 X9.063337 Y7.741957 Z0.000000 I0.210944 J-0.175787
G03 X9.126980 Y7.566170 Z0.000000 I0.274588 J-0.000000
G03 X9.288409 Y7.471870 Z0.000000 I0.210944 J0.175787
G00 Z0.000100

(End cutting path id: path171)


(Start cutting path id: path187)
(Change tool to Default tool)

G00 Z0.000100
G00 X9.288409 Y7.111755

G01 Z0.000000 F100.0(Penetrate)
G03 X9.126980 Y7.017455 Z0.000000 I0.049516 J-0.270087 F400.000000
G03 X9.063337 Y6.841668 Z0.000000 I0.210944 J-0.175787
G03 X9.126980 Y6.665881 Z0.000000 I0.274588 J0.000000
G03 X9.288409 Y6.571581 Z0.000000 I0.210944 J0.175787
G00 Z0.000100

(End cutting path id: path187)


(Start cutting path id: path203)
(Change tool to Default tool)

G00 Z0.000100
G00 X9.288409 Y6.211466

G01 Z0.000000 F100.0(Penetrate)
G03 X9.126980 Y6.117166 Z0.000000 I0.049516 J-0.270087 F400.000000
G03 X9.063337 Y5.941379 Z0.000000 I0.210944 J-0.175787
G03 X9.126980 Y5.765592 Z0.000000 I0.274588 J0.000000
G03 X9.288409 Y5.671292 Z0.000000 I0.210944 J0.175787
G00 Z0.000100

(End cutting path id: path203)


(Start cutting path id: path59)
(Change tool to Default tool)

G00 Z0.000100
G00 X9.288409 Y5.311177

G01 Z0.000000 F100.0(Penetrate)
G03 X9.126980 Y5.216877 Z0.000000 I0.049516 J-0.270087 F400.000000
G03 X9.063337 Y5.041090 Z0.000000 I0.210944 J-0.175787
G03 X9.126980 Y4.865303 Z0.000000 I0.274588 J0.000000
G03 X9.288409 Y4.771003 Z0.000000 I0.210944 J0.175787
G00 Z0.000100

(End cutting path id: path59)


(Start cutting path id: path75)
(Change tool to Default tool)

G00 Z0.000100
G00 X9.288409 Y4.410888

G01 Z0.000000 F100.0(Penetrate)
G03 X9.126980 Y4.316588 Z0.000000 I0.049516 J-0.270087 F400.000000
G03 X9.063337 Y4.140801 Z0.000000 I0.210944 J-0.175787
G03 X9.126980 Y3.965014 Z0.000000 I0.274588 J0.000000
G03 X9.288409 Y3.870715 Z0.000000 I0.210944 J0.175787
G00 Z0.000100

(End cutting path id: path75)


(Start cutting path id: path91)
(Change tool to Default tool)

G00 Z0.000100
G00 X9.288409 Y3.510599

G01 Z0.000000 F100.0(Penetrate)
G03 X9.126980 Y3.416299 Z0.000000 I0.049516 J-0.270087 F400.000000
G03 X9.063337 Y3.240512 Z0.000000 I0.210944 J-0.175787
G03 X9.126980 Y3.064725 Z0.000000 I0.274588 J-0.000000
G03 X9.288409 Y2.970426 Z0.000000 I0.210944 J0.175787
G00 Z0.000100

(End cutting path id: path91)


(Start cutting path id: path107)
(Change tool to Default tool)

G00 Z0.000100
G00 X9.288409 Y2.610310

G01 Z0.000000 F100.0(Penetrate)
G03 X9.126980 Y2.516010 Z0.000000 I0.049516 J-0.270087 F400.000000
G03 X9.063337 Y2.340223 Z0.000000 I0.210944 J-0.175787
G03 X9.126980 Y2.164436 Z0.000000 I0.274588 J-0.000000
G03 X9.288409 Y2.070137 Z0.000000 I0.210944 J0.175787
G00 Z0.000100

(End cutting path id: path107)


(Start cutting path id: path123)
(Change tool to Default tool)

G00 Z0.000100
G00 X9.288409 Y1.710021

G01 Z0.000000 F100.0(Penetrate)
G03 X9.126980 Y1.615722 Z0.000000 I0.049516 J-0.270087 F400.000000
G03 X9.063337 Y1.439935 Z0.000000 I0.210944 J-0.175787
G03 X9.126980 Y1.264148 Z0.000000 I0.274588 J-0.000000
G03 X9.288409 Y1.169848 Z0.000000 I0.210944 J0.175787
G00 Z0.000100

(End cutting path id: path123)


(Start cutting path id: line101)
(Change tool to Default tool)

G00 Z0.000100
G00 X9.288409 Y2.610310

G01 Z0.000000 F100.0(Penetrate)
G01 X13.069622 Y2.610310 Z0.000000 F400.000000
G00 Z0.000100

(End cutting path id: line101)


(Start cutting path id: line89)
(Change tool to Default tool)

G00 Z0.000100
G00 X13.069622 Y2.970426

G01 Z0.000000 F100.0(Penetrate)
G01 X9.288409 Y2.970426 Z0.000000 F400.000000
G00 Z0.000100

(End cutting path id: line89)


(Start cutting path id: line85)
(Change tool to Default tool)

G00 Z0.000100
G00 X9.288409 Y3.510599

G01 Z0.000000 F100.0(Penetrate)
G01 X13.069622 Y3.510599 Z0.000000 F400.000000
G00 Z0.000100

(End cutting path id: line85)


(Start cutting path id: line73)
(Change tool to Default tool)

G00 Z0.000100
G00 X13.069622 Y3.870715

G01 Z0.000000 F100.0(Penetrate)
G01 X9.288409 Y3.870715 Z0.000000 F400.000000
G00 Z0.000100

(End cutting path id: line73)


(Start cutting path id: line69)
(Change tool to Default tool)

G00 Z0.000100
G00 X9.288409 Y4.410888

G01 Z0.000000 F100.0(Penetrate)
G01 X13.069622 Y4.410888 Z0.000000 F400.000000
G00 Z0.000100

(End cutting path id: line69)


(Start cutting path id: line57)
(Change tool to Default tool)

G00 Z0.000100
G00 X13.069622 Y4.771004

G01 Z0.000000 F100.0(Penetrate)
G01 X9.288409 Y4.771004 Z0.000000 F400.000000
G00 Z0.000100

(End cutting path id: line57)


(Start cutting path id: line53)
(Change tool to Default tool)

G00 Z0.000100
G00 X9.288409 Y5.311177

G01 Z0.000000 F100.0(Penetrate)
G01 X13.069622 Y5.311177 Z0.000000 F400.000000
G00 Z0.000100

(End cutting path id: line53)


(Start cutting path id: line201)
(Change tool to Default tool)

G00 Z0.000100
G00 X13.069622 Y5.671292

G01 Z0.000000 F100.0(Penetrate)
G01 X9.288409 Y5.671292 Z0.000000 F400.000000
G00 Z0.000100

(End cutting path id: line201)


(Start cutting path id: line197)
(Change tool to Default tool)

G00 Z0.000100
G00 X9.288409 Y6.211466

G01 Z0.000000 F100.0(Penetrate)
G01 X13.069622 Y6.211466 Z0.000000 F400.000000
G00 Z0.000100

(End cutting path id: line197)


(Start cutting path id: line185)
(Change tool to Default tool)

G00 Z0.000100
G00 X13.069622 Y6.571581

G01 Z0.000000 F100.0(Penetrate)
G01 X9.288409 Y6.571581 Z0.000000 F400.000000
G00 Z0.000100

(End cutting path id: line185)


(Start cutting path id: line165)
(Change tool to Default tool)

G00 Z0.000100
G00 X9.288409 Y8.012043

G01 Z0.000000 F100.0(Penetrate)
G01 X13.069622 Y8.012043 Z0.000000 F400.000000
G00 Z0.000100

(End cutting path id: line165)


(Start cutting path id: line153)
(Change tool to Default tool)

G00 Z0.000100
G00 X13.069622 Y8.372159

G01 Z0.000000 F100.0(Penetrate)
G01 X9.288409 Y8.372159 Z0.000000 F400.000000
G00 Z0.000100

(End cutting path id: line153)


(Start cutting path id: line133)
(Change tool to Default tool)

G00 Z0.000100
G00 X9.288409 Y9.812621

G01 Z0.000000 F100.0(Penetrate)
G01 X13.069622 Y9.812621 Z0.000000 F400.000000
G00 Z0.000100

(End cutting path id: line133)


(Start cutting path id: line281)
(Change tool to Default tool)

G00 Z0.000100
G00 X13.069622 Y10.172737

G01 Z0.000000 F100.0(Penetrate)
G01 X9.288409 Y10.172737 Z0.000000 F400.000000
G00 Z0.000100

(End cutting path id: line281)


(Start cutting path id: line277)
(Change tool to Default tool)

G00 Z0.000100
G00 X9.288409 Y10.712910

G01 Z0.000000 F100.0(Penetrate)
G01 X13.069622 Y10.712910 Z0.000000 F400.000000
G00 Z0.000100

(End cutting path id: line277)


(Start cutting path id: line265)
(Change tool to Default tool)

G00 Z0.000100
G00 X13.069622 Y11.073026

G01 Z0.000000 F100.0(Penetrate)
G01 X9.288409 Y11.073026 Z0.000000 F400.000000
G00 Z0.000100

(End cutting path id: line265)


(Start cutting path id: line261)
(Change tool to Default tool)

G00 Z0.000100
G00 X9.288409 Y11.613199

G01 Z0.000000 F100.0(Penetrate)
G01 X13.069622 Y11.613199 Z0.000000 F400.000000
G00 Z0.000100

(End cutting path id: line261)


(Start cutting path id: path247)
(Change tool to Default tool)

G00 Z0.000100
G00 X13.069622 Y11.973315

G01 Z0.000000 F100.0(Penetrate)
G03 X13.231051 Y12.067614 Z0.000000 I-0.049516 J0.270087 F400.000000
G03 X13.294694 Y12.243401 Z0.000000 I-0.210944 J0.175787
G03 X13.231051 Y12.419188 Z0.000000 I-0.274588 J0.000000
G03 X13.069622 Y12.513488 Z0.000000 I-0.210944 J-0.175787
G00 Z0.000100

(End cutting path id: path247)


(Start cutting path id: line233)
(Change tool to Default tool)

G00 Z0.000100
G00 X13.069622 Y12.873603

G01 Z0.000000 F100.0(Penetrate)
G01 X9.288409 Y12.873603 Z0.000000 F400.000000
G00 Z0.000100

(End cutting path id: line233)


(Start cutting path id: line245)
(Change tool to Default tool)

G00 Z0.000100
G00 X9.288409 Y12.513488

G01 Z0.000000 F100.0(Penetrate)
G01 X13.069622 Y12.513488 Z0.000000 F400.000000
G00 Z0.000100

(End cutting path id: line245)


(Start cutting path id: path231)
(Change tool to Default tool)

G00 Z0.000100
G00 X13.069622 Y12.873603

G01 Z0.000000 F100.0(Penetrate)
G03 X13.231051 Y12.967903 Z0.000000 I-0.049516 J0.270087 F400.000000
G03 X13.294694 Y13.143690 Z0.000000 I-0.210944 J0.175787
G03 X13.231051 Y13.319477 Z0.000000 I-0.274588 J0.000000
G03 X13.069622 Y13.413777 Z0.000000 I-0.210944 J-0.175787
G00 Z0.000100

(End cutting path id: path231)


(Start cutting path id: path215)
(Change tool to Default tool)

G00 Z0.000100
G00 X13.069622 Y13.773892

G01 Z0.000000 F100.0(Penetrate)
G03 X13.231051 Y13.868192 Z0.000000 I-0.049516 J0.270087 F400.000000
G03 X13.294694 Y14.043979 Z0.000000 I-0.210944 J0.175787
G03 X13.231051 Y14.219766 Z0.000000 I-0.274588 J0.000000
G03 X13.069622 Y14.314066 Z0.000000 I-0.210944 J-0.175787
G00 Z0.000100

(End cutting path id: path215)


(Start cutting path id: line217)
(Change tool to Default tool)

G00 Z0.000100
G00 X13.069622 Y13.773893

G01 Z0.000000 F100.0(Penetrate)
G01 X9.288409 Y13.773893 Z0.000000 F400.000000
G00 Z0.000100

(End cutting path id: line217)


(Start cutting path id: line229)
(Change tool to Default tool)

G00 Z0.000100
G00 X9.288409 Y13.413777

G01 Z0.000000 F100.0(Penetrate)
G01 X13.069622 Y13.413777 Z0.000000 F400.000000
G00 Z0.000100

(End cutting path id: line229)


(Start cutting path id: path235)
(Change tool to Default tool)

G00 Z0.000100
G00 X9.288409 Y13.413777

G01 Z0.000000 F100.0(Penetrate)
G03 X9.126980 Y13.319477 Z0.000000 I0.049516 J-0.270087 F400.000000
G03 X9.063337 Y13.143690 Z0.000000 I0.210944 J-0.175787
G03 X9.126980 Y12.967903 Z0.000000 I0.274588 J0.000000
G03 X9.288409 Y12.873603 Z0.000000 I0.210944 J0.175787
G00 Z0.000100

(End cutting path id: path235)


(Start cutting path id: path251)
(Change tool to Default tool)

G00 Z0.000100
G00 X9.288409 Y12.513488

G01 Z0.000000 F100.0(Penetrate)
G03 X9.126980 Y12.419188 Z0.000000 I0.049516 J-0.270087 F400.000000
G03 X9.063337 Y12.243401 Z0.000000 I0.210944 J-0.175787
G03 X9.126980 Y12.067614 Z0.000000 I0.274588 J0.000000
G03 X9.288409 Y11.973315 Z0.000000 I0.210944 J0.175787
G00 Z0.000100

(End cutting path id: path251)


(Start cutting path id: path219)
(Change tool to Default tool)

G00 Z0.000100
G00 X9.288409 Y14.314066

G01 Z0.000000 F100.0(Penetrate)
G03 X9.126980 Y14.219766 Z0.000000 I0.049516 J-0.270087 F400.000000
G03 X9.063337 Y14.043979 Z0.000000 I0.210944 J-0.175787
G03 X9.126980 Y13.868192 Z0.000000 I0.274588 J-0.000000
G03 X9.288409 Y13.773892 Z0.000000 I0.210944 J0.175787
G00 Z0.000100

(End cutting path id: path219)


(Start cutting path id: line213)
(Change tool to Default tool)

G00 Z0.000100
G00 X9.288409 Y14.314066

G01 Z0.000000 F100.0(Penetrate)
G01 X13.069622 Y14.314066 Z0.000000 F400.000000
G00 Z0.000100

(End cutting path id: line213)


(Start cutting path id: line209)
(Change tool to Default tool)

G00 Z0.000100
G00 X6.767600 Y13.773893

G01 Z0.000000 F100.0(Penetrate)
G01 X2.986387 Y13.773893 Z0.000000 F400.000000
G00 Z0.000100

(End cutting path id: line209)


(Start cutting path id: line221)
(Change tool to Default tool)

G00 Z0.000100
G00 X2.986387 Y13.413777

G01 Z0.000000 F100.0(Penetrate)
G01 X6.767600 Y13.413777 Z0.000000 F400.000000
G00 Z0.000100

(End cutting path id: line221)


(Start cutting path id: path207)
(Change tool to Default tool)

G00 Z0.000100
G00 X6.767600 Y13.773892

G01 Z0.000000 F100.0(Penetrate)
G03 X6.929028 Y13.868192 Z0.000000 I-0.049516 J0.270087 F400.000000
G03 X6.992672 Y14.043979 Z0.000000 I-0.210944 J0.175787
G03 X6.929028 Y14.219766 Z0.000000 I-0.274588 J-0.000000
G03 X6.767600 Y14.314066 Z0.000000 I-0.210944 J-0.175787
G00 Z0.000100

(End cutting path id: path207)


(Start cutting path id: path223)
(Change tool to Default tool)

G00 Z0.000100
G00 X6.767600 Y12.873603

G01 Z0.000000 F100.0(Penetrate)
G03 X6.929028 Y12.967903 Z0.000000 I-0.049516 J0.270087 F400.000000
G03 X6.992672 Y13.143690 Z0.000000 I-0.210944 J0.175787
G03 X6.929028 Y13.319477 Z0.000000 I-0.274588 J-0.000000
G03 X6.767600 Y13.413777 Z0.000000 I-0.210944 J-0.175787
G00 Z0.000100

(End cutting path id: path223)


(Start cutting path id: line225)
(Change tool to Default tool)

G00 Z0.000100
G00 X6.767600 Y12.873603

G01 Z0.000000 F100.0(Penetrate)
G01 X2.986387 Y12.873603 Z0.000000 F400.000000
G00 Z0.000100

(End cutting path id: line225)


(Start cutting path id: line237)
(Change tool to Default tool)

G00 Z0.000100
G00 X2.986387 Y12.513488

G01 Z0.000000 F100.0(Penetrate)
G01 X6.767600 Y12.513488 Z0.000000 F400.000000
G00 Z0.000100

(End cutting path id: line237)


(Start cutting path id: path239)
(Change tool to Default tool)

G00 Z0.000100
G00 X6.767600 Y11.973315

G01 Z0.000000 F100.0(Penetrate)
G03 X6.929028 Y12.067614 Z0.000000 I-0.049516 J0.270087 F400.000000
G03 X6.992672 Y12.243401 Z0.000000 I-0.210944 J0.175787
G03 X6.929028 Y12.419188 Z0.000000 I-0.274588 J-0.000000
G03 X6.767600 Y12.513488 Z0.000000 I-0.210944 J-0.175787
G00 Z0.000100

(End cutting path id: path239)


(Start cutting path id: line241)
(Change tool to Default tool)

G00 Z0.000100
G00 X6.767600 Y11.973314

G01 Z0.000000 F100.0(Penetrate)
G01 X2.986387 Y11.973314 Z0.000000 F400.000000
G00 Z0.000100

(End cutting path id: line241)


(Start cutting path id: path259)
(Change tool to Default tool)

G00 Z0.000100
G00 X2.986387 Y11.613199

G01 Z0.000000 F100.0(Penetrate)
G03 X2.824958 Y11.518899 Z0.000000 I0.049516 J-0.270087 F400.000000
G03 X2.761314 Y11.343112 Z0.000000 I0.210944 J-0.175787
G03 X2.824958 Y11.167325 Z0.000000 I0.274588 J0.000000
G03 X2.986387 Y11.073026 Z0.000000 I0.210944 J0.175787
G00 Z0.000100

(End cutting path id: path259)


(Start cutting path id: path275)
(Change tool to Default tool)

G00 Z0.000100
G00 X2.986387 Y10.712910

G01 Z0.000000 F100.0(Penetrate)
G03 X2.824958 Y10.618610 Z0.000000 I0.049516 J-0.270087 F400.000000
G03 X2.761314 Y10.442823 Z0.000000 I0.210944 J-0.175787
G03 X2.824958 Y10.267036 Z0.000000 I0.274588 J0.000000
G03 X2.986387 Y10.172737 Z0.000000 I0.210944 J0.175787
G00 Z0.000100

(End cutting path id: path275)


(Start cutting path id: path131)
(Change tool to Default tool)

G00 Z0.000100
G00 X2.986387 Y9.812621

G01 Z0.000000 F100.0(Penetrate)
G03 X2.824958 Y9.718322 Z0.000000 I0.049516 J-0.270087 F400.000000
G03 X2.761314 Y9.542535 Z0.000000 I0.210944 J-0.175787
G03 X2.824958 Y9.366748 Z0.000000 I0.274588 J-0.000000
G03 X2.986387 Y9.272448 Z0.000000 I0.210944 J0.175787
G00 Z0.000100

(End cutting path id: path131)


(Start cutting path id: line141)
(Change tool to Default tool)

G00 Z0.000100
G00 X2.986387 Y8.912333

G01 Z0.000000 F100.0(Penetrate)
G01 X6.767600 Y8.912333 Z0.000000 F400.000000
G00 Z0.000100

(End cutting path id: line141)


(Start cutting path id: line129)
(Change tool to Default tool)

G00 Z0.000100
G00 X6.767600 Y9.272448

G01 Z0.000000 F100.0(Penetrate)
G01 X2.986387 Y9.272448 Z0.000000 F400.000000
G00 Z0.000100

(End cutting path id: line129)


(Start cutting path id: path147)
(Change tool to Default tool)

G00 Z0.000100
G00 X2.986387 Y8.912332

G01 Z0.000000 F100.0(Penetrate)
G03 X2.824958 Y8.818033 Z0.000000 I0.049516 J-0.270087 F400.000000
G03 X2.761314 Y8.642246 Z0.000000 I0.210944 J-0.175787
G03 X2.824958 Y8.466459 Z0.000000 I0.274588 J-0.000000
G03 X2.986387 Y8.372159 Z0.000000 I0.210944 J0.175787
G00 Z0.000100

(End cutting path id: path147)


(Start cutting path id: path163)
(Change tool to Default tool)

G00 Z0.000100
G00 X2.986387 Y8.012043

G01 Z0.000000 F100.0(Penetrate)
G03 X2.824958 Y7.917744 Z0.000000 I0.049516 J-0.270087 F400.000000
G03 X2.761314 Y7.741957 Z0.000000 I0.210944 J-0.175787
G03 X2.824958 Y7.566170 Z0.000000 I0.274588 J-0.000000
G03 X2.986387 Y7.471870 Z0.000000 I0.210944 J0.175787
G00 Z0.000100

(End cutting path id: path163)


(Start cutting path id: path179)
(Change tool to Default tool)

G00 Z0.000100
G00 X2.986387 Y7.111755

G01 Z0.000000 F100.0(Penetrate)
G03 X2.824958 Y7.017455 Z0.000000 I0.049516 J-0.270087 F400.000000
G03 X2.761314 Y6.841668 Z0.000000 I0.210944 J-0.175787
G03 X2.824958 Y6.665881 Z0.000000 I0.274588 J0.000000
G03 X2.986387 Y6.571581 Z0.000000 I0.210944 J0.175787
G00 Z0.000100

(End cutting path id: path179)


(Start cutting path id: path195)
(Change tool to Default tool)

G00 Z0.000100
G00 X2.986387 Y6.211466

G01 Z0.000000 F100.0(Penetrate)
G03 X2.824958 Y6.117166 Z0.000000 I0.049516 J-0.270087 F400.000000
G03 X2.761314 Y5.941379 Z0.000000 I0.210944 J-0.175787
G03 X2.824958 Y5.765592 Z0.000000 I0.274588 J-0.000000
G03 X2.986387 Y5.671292 Z0.000000 I0.210944 J0.175787
G00 Z0.000100

(End cutting path id: path195)


(Start cutting path id: path51)
(Change tool to Default tool)

G00 Z0.000100
G00 X2.986387 Y5.311177

G01 Z0.000000 F100.0(Penetrate)
G03 X2.824958 Y5.216877 Z0.000000 I0.049516 J-0.270087 F400.000000
G03 X2.761314 Y5.041090 Z0.000000 I0.210944 J-0.175787
G03 X2.824958 Y4.865303 Z0.000000 I0.274588 J-0.000000
G03 X2.986387 Y4.771003 Z0.000000 I0.210944 J0.175787
G00 Z0.000100

(End cutting path id: path51)


(Start cutting path id: path67)
(Change tool to Default tool)

G00 Z0.000100
G00 X2.986387 Y4.410888

G01 Z0.000000 F100.0(Penetrate)
G03 X2.824958 Y4.316588 Z0.000000 I0.049516 J-0.270087 F400.000000
G03 X2.761314 Y4.140801 Z0.000000 I0.210944 J-0.175787
G03 X2.824958 Y3.965014 Z0.000000 I0.274588 J0.000000
G03 X2.986387 Y3.870715 Z0.000000 I0.210944 J0.175787
G00 Z0.000100

(End cutting path id: path67)


(Start cutting path id: path83)
(Change tool to Default tool)

G00 Z0.000100
G00 X2.986387 Y3.510599

G01 Z0.000000 F100.0(Penetrate)
G03 X2.824958 Y3.416299 Z0.000000 I0.049516 J-0.270087 F400.000000
G03 X2.761314 Y3.240512 Z0.000000 I0.210944 J-0.175787
G03 X2.824958 Y3.064725 Z0.000000 I0.274588 J0.000000
G03 X2.986387 Y2.970426 Z0.000000 I0.210944 J0.175787
G00 Z0.000100

(End cutting path id: path83)


(Start cutting path id: path99)
(Change tool to Default tool)

G00 Z0.000100
G00 X2.986387 Y2.610310

G01 Z0.000000 F100.0(Penetrate)
G03 X2.824958 Y2.516010 Z0.000000 I0.049516 J-0.270087 F400.000000
G03 X2.761314 Y2.340223 Z0.000000 I0.210944 J-0.175787
G03 X2.824958 Y2.164436 Z0.000000 I0.274588 J0.000000
G03 X2.986387 Y2.070137 Z0.000000 I0.210944 J0.175787
G00 Z0.000100

(End cutting path id: path99)


(Start cutting path id: path115)
(Change tool to Default tool)

G00 Z0.000100
G00 X2.986387 Y1.710021

G01 Z0.000000 F100.0(Penetrate)
G03 X2.824958 Y1.615722 Z0.000000 I0.049516 J-0.270087 F400.000000
G03 X2.761314 Y1.439935 Z0.000000 I0.210944 J-0.175787
G03 X2.824958 Y1.264148 Z0.000000 I0.274588 J0.000000
G03 X2.986387 Y1.169848 Z0.000000 I0.210944 J0.175787
G00 Z0.000100

(End cutting path id: path115)


(Start cutting path id: line109)
(Change tool to Default tool)

G00 Z0.000100
G00 X2.986387 Y1.710021

G01 Z0.000000 F100.0(Penetrate)
G01 X6.767600 Y1.710021 Z0.000000 F400.000000
G00 Z0.000100

(End cutting path id: line109)


(Start cutting path id: path95)
(Change tool to Default tool)

G00 Z0.000100
G00 X6.767600 Y2.070137

G01 Z0.000000 F100.0(Penetrate)
G03 X6.929028 Y2.164436 Z0.000000 I-0.049516 J0.270087 F400.000000
G03 X6.992672 Y2.340223 Z0.000000 I-0.210944 J0.175787
G03 X6.929028 Y2.516010 Z0.000000 I-0.274588 J0.000000
G03 X6.767600 Y2.610310 Z0.000000 I-0.210944 J-0.175787
G00 Z0.000100

(End cutting path id: path95)


(Start cutting path id: line81)
(Change tool to Default tool)

G00 Z0.000100
G00 X6.767600 Y2.970426

G01 Z0.000000 F100.0(Penetrate)
G01 X2.986387 Y2.970426 Z0.000000 F400.000000
G00 Z0.000100

(End cutting path id: line81)


(Start cutting path id: line93)
(Change tool to Default tool)

G00 Z0.000100
G00 X2.986387 Y2.610310

G01 Z0.000000 F100.0(Penetrate)
G01 X6.767600 Y2.610310 Z0.000000 F400.000000
G00 Z0.000100

(End cutting path id: line93)


(Start cutting path id: path79)
(Change tool to Default tool)

G00 Z0.000100
G00 X6.767600 Y2.970426

G01 Z0.000000 F100.0(Penetrate)
G03 X6.929028 Y3.064725 Z0.000000 I-0.049516 J0.270087 F400.000000
G03 X6.992672 Y3.240512 Z0.000000 I-0.210944 J0.175787
G03 X6.929028 Y3.416299 Z0.000000 I-0.274588 J0.000000
G03 X6.767600 Y3.510599 Z0.000000 I-0.210944 J-0.175787
G00 Z0.000100

(End cutting path id: path79)


(Start cutting path id: path63)
(Change tool to Default tool)

G00 Z0.000100
G00 X6.767600 Y3.870715

G01 Z0.000000 F100.0(Penetrate)
G03 X6.929028 Y3.965014 Z0.000000 I-0.049516 J0.270087 F400.000000
G03 X6.992672 Y4.140801 Z0.000000 I-0.210944 J0.175787
G03 X6.929028 Y4.316588 Z0.000000 I-0.274588 J0.000000
G03 X6.767600 Y4.410888 Z0.000000 I-0.210944 J-0.175787
G00 Z0.000100

(End cutting path id: path63)


(Start cutting path id: path47)
(Change tool to Default tool)

G00 Z0.000100
G00 X6.767600 Y4.771003

G01 Z0.000000 F100.0(Penetrate)
G03 X6.929028 Y4.865303 Z0.000000 I-0.049516 J0.270087 F400.000000
G03 X6.992672 Y5.041090 Z0.000000 I-0.210944 J0.175787
G03 X6.929028 Y5.216877 Z0.000000 I-0.274588 J0.000000
G03 X6.767600 Y5.311177 Z0.000000 I-0.210944 J-0.175787
G00 Z0.000100

(End cutting path id: path47)


(Start cutting path id: line193)
(Change tool to Default tool)

G00 Z0.000100
G00 X6.767600 Y5.671292

G01 Z0.000000 F100.0(Penetrate)
G01 X2.986387 Y5.671292 Z0.000000 F400.000000
G00 Z0.000100

(End cutting path id: line193)


(Start cutting path id: line45)
(Change tool to Default tool)

G00 Z0.000100
G00 X2.986387 Y5.311177

G01 Z0.000000 F100.0(Penetrate)
G01 X6.767600 Y5.311177 Z0.000000 F400.000000
G00 Z0.000100

(End cutting path id: line45)


(Start cutting path id: path191)
(Change tool to Default tool)

G00 Z0.000100
G00 X6.767600 Y5.671292

G01 Z0.000000 F100.0(Penetrate)
G03 X6.929028 Y5.765592 Z0.000000 I-0.049516 J0.270087 F400.000000
G03 X6.992672 Y5.941379 Z0.000000 I-0.210944 J0.175787
G03 X6.929028 Y6.117166 Z0.000000 I-0.274588 J-0.000000
G03 X6.767600 Y6.211466 Z0.000000 I-0.210944 J-0.175787
G00 Z0.000100

(End cutting path id: path191)


(Start cutting path id: line177)
(Change tool to Default tool)

G00 Z0.000100
G00 X6.767600 Y6.571581

G01 Z0.000000 F100.0(Penetrate)
G01 X2.986387 Y6.571581 Z0.000000 F400.000000
G00 Z0.000100

(End cutting path id: line177)


(Start cutting path id: line189)
(Change tool to Default tool)

G00 Z0.000100
G00 X2.986387 Y6.211466

G01 Z0.000000 F100.0(Penetrate)
G01 X6.767600 Y6.211466 Z0.000000 F400.000000
G00 Z0.000100

(End cutting path id: line189)


(Start cutting path id: path175)
(Change tool to Default tool)

G00 Z0.000100
G00 X6.767600 Y6.571581

G01 Z0.000000 F100.0(Penetrate)
G03 X6.929028 Y6.665881 Z0.000000 I-0.049516 J0.270087 F400.000000
G03 X6.992672 Y6.841668 Z0.000000 I-0.210944 J0.175787
G03 X6.929028 Y7.017455 Z0.000000 I-0.274588 J0.000000
G03 X6.767600 Y7.111755 Z0.000000 I-0.210944 J-0.175787
G00 Z0.000100

(End cutting path id: path175)


(Start cutting path id: line161)
(Change tool to Default tool)

G00 Z0.000100
G00 X6.767600 Y7.471870

G01 Z0.000000 F100.0(Penetrate)
G01 X2.986387 Y7.471870 Z0.000000 F400.000000
G00 Z0.000100

(End cutting path id: line161)


(Start cutting path id: line173)
(Change tool to Default tool)

G00 Z0.000100
G00 X2.986387 Y7.111755

G01 Z0.000000 F100.0(Penetrate)
G01 X6.767600 Y7.111755 Z0.000000 F400.000000
G00 Z0.000100

(End cutting path id: line173)


(Start cutting path id: path159)
(Change tool to Default tool)

G00 Z0.000100
G00 X6.767600 Y7.471870

G01 Z0.000000 F100.0(Penetrate)
G03 X6.929028 Y7.566170 Z0.000000 I-0.049516 J0.270087 F400.000000
G03 X6.992672 Y7.741957 Z0.000000 I-0.210944 J0.175787
G03 X6.929028 Y7.917744 Z0.000000 I-0.274588 J-0.000000
G03 X6.767600 Y8.012043 Z0.000000 I-0.210944 J-0.175787
G00 Z0.000100

(End cutting path id: path159)


(Start cutting path id: line145)
(Change tool to Default tool)

G00 Z0.000100
G00 X6.767600 Y8.372159

G01 Z0.000000 F100.0(Penetrate)
G01 X2.986387 Y8.372159 Z0.000000 F400.000000
G00 Z0.000100

(End cutting path id: line145)


(Start cutting path id: line157)
(Change tool to Default tool)

G00 Z0.000100
G00 X2.986387 Y8.012043

G01 Z0.000000 F100.0(Penetrate)
G01 X6.767600 Y8.012043 Z0.000000 F400.000000
G00 Z0.000100

(End cutting path id: line157)


(Start cutting path id: path143)
(Change tool to Default tool)

G00 Z0.000100
G00 X6.767600 Y8.372159

G01 Z0.000000 F100.0(Penetrate)
G03 X6.929028 Y8.466459 Z0.000000 I-0.049516 J0.270087 F400.000000
G03 X6.992672 Y8.642246 Z0.000000 I-0.210944 J0.175787
G03 X6.929028 Y8.818033 Z0.000000 I-0.274588 J0.000000
G03 X6.767600 Y8.912332 Z0.000000 I-0.210944 J-0.175787
G00 Z0.000100

(End cutting path id: path143)


(Start cutting path id: path127)
(Change tool to Default tool)

G00 Z0.000100
G00 X6.767600 Y9.272448

G01 Z0.000000 F100.0(Penetrate)
G03 X6.929028 Y9.366748 Z0.000000 I-0.049516 J0.270087 F400.000000
G03 X6.992672 Y9.542535 Z0.000000 I-0.210944 J0.175787
G03 X6.929028 Y9.718322 Z0.000000 I-0.274588 J0.000000
G03 X6.767600 Y9.812621 Z0.000000 I-0.210944 J-0.175787
G00 Z0.000100

(End cutting path id: path127)


(Start cutting path id: line273)
(Change tool to Default tool)

G00 Z0.000100
G00 X6.767600 Y10.172737

G01 Z0.000000 F100.0(Penetrate)
G01 X2.986387 Y10.172737 Z0.000000 F400.000000
G00 Z0.000100

(End cutting path id: line273)


(Start cutting path id: line125)
(Change tool to Default tool)

G00 Z0.000100
G00 X2.986387 Y9.812621

G01 Z0.000000 F100.0(Penetrate)
G01 X6.767600 Y9.812621 Z0.000000 F400.000000
G00 Z0.000100

(End cutting path id: line125)


(Start cutting path id: path271)
(Change tool to Default tool)

G00 Z0.000100
G00 X6.767600 Y10.172737

G01 Z0.000000 F100.0(Penetrate)
G03 X6.929028 Y10.267036 Z0.000000 I-0.049516 J0.270087 F400.000000
G03 X6.992672 Y10.442823 Z0.000000 I-0.210944 J0.175787
G03 X6.929028 Y10.618610 Z0.000000 I-0.274588 J0.000000
G03 X6.767600 Y10.712910 Z0.000000 I-0.210944 J-0.175787
G00 Z0.000100

(End cutting path id: path271)


(Start cutting path id: line257)
(Change tool to Default tool)

G00 Z0.000100
G00 X6.767600 Y11.073026

G01 Z0.000000 F100.0(Penetrate)
G01 X2.986387 Y11.073026 Z0.000000 F400.000000
G00 Z0.000100

(End cutting path id: line257)


(Start cutting path id: line269)
(Change tool to Default tool)

G00 Z0.000100
G00 X2.986387 Y10.712910

G01 Z0.000000 F100.0(Penetrate)
G01 X6.767600 Y10.712910 Z0.000000 F400.000000
G00 Z0.000100

(End cutting path id: line269)


(Start cutting path id: path255)
(Change tool to Default tool)

G00 Z0.000100
G00 X6.767600 Y11.073026

G01 Z0.000000 F100.0(Penetrate)
G03 X6.929028 Y11.167325 Z0.000000 I-0.049516 J0.270087 F400.000000
G03 X6.992672 Y11.343112 Z0.000000 I-0.210944 J0.175787
G03 X6.929028 Y11.518899 Z0.000000 I-0.274588 J0.000000
G03 X6.767600 Y11.613199 Z0.000000 I-0.210944 J-0.175787
G00 Z0.000100

(End cutting path id: path255)


(Start cutting path id: line253)
(Change tool to Default tool)

G00 Z0.000100
G00 X2.986387 Y11.613199

G01 Z0.000000 F100.0(Penetrate)
G01 X6.767600 Y11.613199 Z0.000000 F400.000000
G00 Z0.000100

(End cutting path id: line253)


(Start cutting path id: path243)
(Change tool to Default tool)

G00 Z0.000100
G00 X2.986387 Y12.513488

G01 Z0.000000 F100.0(Penetrate)
G03 X2.824958 Y12.419188 Z0.000000 I0.049516 J-0.270087 F400.000000
G03 X2.761314 Y12.243401 Z0.000000 I0.210944 J-0.175787
G03 X2.824958 Y12.067614 Z0.000000 I0.274588 J0.000000
G03 X2.986387 Y11.973315 Z0.000000 I0.210944 J0.175787
G00 Z0.000100

(End cutting path id: path243)


(Start cutting path id: path227)
(Change tool to Default tool)

G00 Z0.000100
G00 X2.986387 Y13.413777

G01 Z0.000000 F100.0(Penetrate)
G03 X2.824958 Y13.319477 Z0.000000 I0.049516 J-0.270087 F400.000000
G03 X2.761314 Y13.143690 Z0.000000 I0.210944 J-0.175787
G03 X2.824958 Y12.967903 Z0.000000 I0.274588 J0.000000
G03 X2.986387 Y12.873603 Z0.000000 I0.210944 J0.175787
G00 Z0.000100

(End cutting path id: path227)


(Start cutting path id: path211)
(Change tool to Default tool)

G00 Z0.000100
G00 X2.986387 Y14.314066

G01 Z0.000000 F100.0(Penetrate)
G03 X2.824958 Y14.219766 Z0.000000 I0.049516 J-0.270087 F400.000000
G03 X2.761314 Y14.043979 Z0.000000 I0.210944 J-0.175787
G03 X2.824958 Y13.868192 Z0.000000 I0.274588 J-0.000000
G03 X2.986387 Y13.773892 Z0.000000 I0.210944 J0.175787
G00 Z0.000100

(End cutting path id: path211)


(Start cutting path id: line205)
(Change tool to Default tool)

G00 Z0.000100
G00 X2.986387 Y14.314066

G01 Z0.000000 F100.0(Penetrate)
G01 X6.767600 Y14.314066 Z0.000000 F400.000000
G00 Z0.000100

(End cutting path id: line205)


(Start cutting path id: path23)
(Change tool to Default tool)

G00 Z0.000100
G00 X1.996069 Y14.134008

G01 Z0.000000 F100.0(Penetrate)
G03 X1.901769 Y14.295436 Z0.000000 I-0.270087 J-0.049516 F400.000000
G03 X1.725982 Y14.359080 Z0.000000 I-0.175787 J-0.210944
G03 X1.550195 Y14.295436 Z0.000000 I0.000000 J-0.274588
G03 X1.455895 Y14.134008 Z0.000000 I0.175787 J-0.210944
G00 Z0.000100

(End cutting path id: path23)


(Start cutting path id: line25)
(Change tool to Default tool)

G00 Z0.000100
G00 X1.455895 Y14.134008

G01 Z0.000000 F100.0(Penetrate)
G01 X1.455895 Y1.304891 Z0.000000 F400.000000
G00 Z0.000100

(End cutting path id: line25)


(Start cutting path id: path27)
(Change tool to Default tool)

G00 Z0.000100
G00 X1.455895 Y1.304891

G01 Z0.000000 F100.0(Penetrate)
G03 X1.550195 Y1.143463 Z0.000000 I0.270087 J0.049516 F400.000000
G03 X1.725982 Y1.079819 Z0.000000 I0.175787 J0.210944
G03 X1.901769 Y1.143463 Z0.000000 I-0.000000 J0.274588
G03 X1.996069 Y1.304891 Z0.000000 I-0.175787 J0.210944
G00 Z0.000100

(End cutting path id: path27)


(Start cutting path id: line21)
(Change tool to Default tool)

G00 Z0.000100
G00 X1.996069 Y1.304891

G01 Z0.000000 F100.0(Penetrate)
G01 X1.996069 Y14.134008 Z0.000000 F400.000000
G00 Z0.000100

(End cutting path id: line21)


(Start cutting path id: path15)
(Change tool to Default tool)

G00 Z0.000100
G00 X1.095780 Y14.134008

G01 Z0.000000 F100.0(Penetrate)
G03 X1.001480 Y14.295436 Z0.000000 I-0.270087 J-0.049516 F400.000000
G03 X0.825693 Y14.359080 Z0.000000 I-0.175787 J-0.210944
G03 X0.649906 Y14.295436 Z0.000000 I-0.000000 J-0.274588
G03 X0.555607 Y14.134008 Z0.000000 I0.175787 J-0.210944
G00 Z0.000100

(End cutting path id: path15)


(Start cutting path id: line17)
(Change tool to Default tool)

G00 Z0.000100
G00 X0.555607 Y14.134008

G01 Z0.000000 F100.0(Penetrate)
G01 X0.555607 Y1.304891 Z0.000000 F400.000000
G00 Z0.000100

(End cutting path id: line17)


(Start cutting path id: path19)
(Change tool to Default tool)

G00 Z0.000100
G00 X0.555607 Y1.304891

G01 Z0.000000 F100.0(Penetrate)
G03 X0.649906 Y1.143463 Z0.000000 I0.270087 J0.049516 F400.000000
G03 X0.825693 Y1.079819 Z0.000000 I0.175787 J0.210944
G03 X1.001480 Y1.143463 Z0.000000 I-0.000000 J0.274588
G03 X1.095780 Y1.304891 Z0.000000 I-0.175787 J0.210944
G00 Z0.000100

(End cutting path id: path19)


(Start cutting path id: line13)
(Change tool to Default tool)

G00 Z0.000100
G00 X1.095780 Y1.304891

G01 Z0.000000 F100.0(Penetrate)
G01 X1.095780 Y14.134008 Z0.000000 F400.000000
G00 Z0.000100

(End cutting path id: line13)


(Start cutting path id: line61)
(Change tool to Default tool)

G00 Z0.000100
G00 X2.986387 Y4.410888

G01 Z0.000000 F100.0(Penetrate)
G01 X6.767600 Y4.410888 Z0.000000 F400.000000
G00 Z0.000100

(End cutting path id: line61)


(Start cutting path id: line49)
(Change tool to Default tool)

G00 Z0.000100
G00 X6.767600 Y4.771004

G01 Z0.000000 F100.0(Penetrate)
G01 X2.986387 Y4.771004 Z0.000000 F400.000000
G00 Z0.000100

(End cutting path id: line49)


(Start cutting path id: line77)
(Change tool to Default tool)

G00 Z0.000100
G00 X2.986387 Y3.510599

G01 Z0.000000 F100.0(Penetrate)
G01 X6.767600 Y3.510599 Z0.000000 F400.000000
G00 Z0.000100

(End cutting path id: line77)


(Start cutting path id: line65)
(Change tool to Default tool)

G00 Z0.000100
G00 X6.767600 Y3.870715

G01 Z0.000000 F100.0(Penetrate)
G01 X2.986387 Y3.870715 Z0.000000 F400.000000
G00 Z0.000100

(End cutting path id: line65)


(Start cutting path id: line97)
(Change tool to Default tool)

G00 Z0.000100
G00 X6.767600 Y2.070137

G01 Z0.000000 F100.0(Penetrate)
G01 X2.986387 Y2.070137 Z0.000000 F400.000000
G00 Z0.000100

(End cutting path id: line97)


(Start cutting path id: line113)
(Change tool to Default tool)

G00 Z0.000100
G00 X6.767600 Y1.169848

G01 Z0.000000 F100.0(Penetrate)
G01 X2.986387 Y1.169848 Z0.000000 F400.000000
G00 Z0.000100

(End cutting path id: line113)


(Start cutting path id: path111)
(Change tool to Default tool)

G00 Z0.000100
G00 X6.767600 Y1.169848

G01 Z0.000000 F100.0(Penetrate)
G03 X6.929028 Y1.264148 Z0.000000 I-0.049516 J0.270087 F400.000000
G03 X6.992672 Y1.439935 Z0.000000 I-0.210944 J0.175787
G03 X6.929028 Y1.615722 Z0.000000 I-0.274588 J0.000000
G03 X6.767600 Y1.710021 Z0.000000 I-0.210944 J-0.175787
G00 Z0.000100

(End cutting path id: path111)


(Start cutting path id: line105)
(Change tool to Default tool)

G00 Z0.000100
G00 X13.069622 Y2.070137

G01 Z0.000000 F100.0(Penetrate)
G01 X9.288409 Y2.070137 Z0.000000 F400.000000
G00 Z0.000100

(End cutting path id: line105)


(Start cutting path id: path119)
(Change tool to Default tool)

G00 Z0.000100
G00 X13.069622 Y1.169848

G01 Z0.000000 F100.0(Penetrate)
G03 X13.231051 Y1.264148 Z0.000000 I-0.049516 J0.270087 F400.000000
G03 X13.294694 Y1.439935 Z0.000000 I-0.210944 J0.175787
G03 X13.231051 Y1.615722 Z0.000000 I-0.274588 J-0.000000
G03 X13.069622 Y1.710021 Z0.000000 I-0.210944 J-0.175787
G00 Z0.000100

(End cutting path id: path119)


(Footer)
M5
G00 X0.0000 Y0.0000
M2
(Using default footer. To add your own footer create file "footer" in the output dir.)
(end)
%
