%
(Header)
(Generated by gcodetools from Inkscape.)
(Using default header. To add your own header create file "header" in the output dir.)
M3
(Header end.)
G20 (All units in inches)

(Pass at depth -0.998999999952)
(Start cutting path id: path3171)
(Change tool to Default tool)

(Laser Safety stuff)
M9
G0 Z-0.01
G0 Z0.01
M7

G00 Z0.000100
G00 X9.467772 Y4.017527

G01 Z0.000000 F100.0(Penetrate)
G03 X9.424414 Y3.961022 Z0.000000 I0.105760 J-0.126040 F400.000000
G03 X9.408999 Y3.891487 Z0.000000 I0.149119 J-0.069535
G03 X9.424414 Y3.821952 Z0.000000 I0.164534 J0.000000
G03 X9.467772 Y3.765447 Z0.000000 I0.149119 J0.069535
G00 Z0.000100

(End cutting path id: path3171)

(Start cutting path id: path3169)
(Change tool to Default tool)

G00 Z0.000100
G00 X9.667637 Y3.765447

G01 Z0.000000 F100.0(Penetrate)
G03 X9.710995 Y3.821952 Z0.000000 I-0.105760 J0.126040 F400.000000
G03 X9.726410 Y3.891487 Z0.000000 I-0.149119 J0.069535
G03 X9.710995 Y3.961022 Z0.000000 I-0.164534 J0.000000
G03 X9.667637 Y4.017527 Z0.000000 I-0.149119 J-0.069535
G00 Z0.000100

(End cutting path id: path3169)

(Start cutting path id: line3165)
(Change tool to Default tool)

G00 Z0.000100
G00 X9.667637 Y4.017527

G01 Z0.000000 F100.0(Penetrate)
G01 X9.467772 Y4.017527 Z0.000000 F400.000000
G00 Z0.000100

(End cutting path id: line3165)

(Start cutting path id: line3167)
(Change tool to Default tool)

G00 Z0.000100
G00 X9.667637 Y3.765447

G01 Z0.000000 F100.0(Penetrate)
G01 X9.467772 Y3.765447 Z0.000000 F400.000000
G00 Z0.000100

(End cutting path id: line3167)

(Start cutting path id: path3163)
(Change tool to Default tool)

G00 Z0.000100
G00 X9.467772 Y3.117239

G01 Z0.000000 F100.0(Penetrate)
G03 X9.424414 Y3.060733 Z0.000000 I0.105760 J-0.126040 F400.000000
G03 X9.408999 Y2.991198 Z0.000000 I0.149119 J-0.069535
G03 X9.424414 Y2.921663 Z0.000000 I0.164534 J0.000000
G03 X9.467772 Y2.865158 Z0.000000 I0.149119 J0.069535
G00 Z0.000100

(End cutting path id: path3163)

(Start cutting path id: path3161)
(Change tool to Default tool)

G00 Z0.000100
G00 X9.667637 Y2.865158

G01 Z0.000000 F100.0(Penetrate)
G03 X9.710995 Y2.921663 Z0.000000 I-0.105760 J0.126040 F400.000000
G03 X9.726410 Y2.991198 Z0.000000 I-0.149119 J0.069535
G03 X9.710995 Y3.060733 Z0.000000 I-0.164534 J0.000000
G03 X9.667637 Y3.117239 Z0.000000 I-0.149119 J-0.069535
G00 Z0.000100

(End cutting path id: path3161)

(Start cutting path id: line3157)
(Change tool to Default tool)

G00 Z0.000100
G00 X9.667637 Y3.117238

G01 Z0.000000 F100.0(Penetrate)
G01 X9.467772 Y3.117238 Z0.000000 F400.000000
G00 Z0.000100

(End cutting path id: line3157)

(Start cutting path id: line3159)
(Change tool to Default tool)

G00 Z0.000100
G00 X9.667637 Y2.865158

G01 Z0.000000 F100.0(Penetrate)
G01 X9.467772 Y2.865158 Z0.000000 F400.000000
G00 Z0.000100

(End cutting path id: line3159)

(Start cutting path id: path3155)
(Change tool to Default tool)

G00 Z0.000100
G00 X9.467772 Y2.216950

G01 Z0.000000 F100.0(Penetrate)
G03 X9.424414 Y2.160444 Z0.000000 I0.105760 J-0.126040 F400.000000
G03 X9.408999 Y2.090909 Z0.000000 I0.149119 J-0.069535
G03 X9.424414 Y2.021374 Z0.000000 I0.164534 J0.000000
G03 X9.467772 Y1.964869 Z0.000000 I0.149119 J0.069535
G00 Z0.000100

(End cutting path id: path3155)

(Start cutting path id: path3153)
(Change tool to Default tool)

G00 Z0.000100
G00 X9.667637 Y1.964869

G01 Z0.000000 F100.0(Penetrate)
G03 X9.710995 Y2.021374 Z0.000000 I-0.105760 J0.126040 F400.000000
G03 X9.726410 Y2.090909 Z0.000000 I-0.149119 J0.069535
G03 X9.710995 Y2.160444 Z0.000000 I-0.164534 J0.000000
G03 X9.667637 Y2.216950 Z0.000000 I-0.149119 J-0.069535
G00 Z0.000100

(End cutting path id: path3153)

(Start cutting path id: line3149)
(Change tool to Default tool)

G00 Z0.000100
G00 X9.667637 Y2.216950

G01 Z0.000000 F100.0(Penetrate)
G01 X9.467772 Y2.216950 Z0.000000 F400.000000
G00 Z0.000100

(End cutting path id: line3149)

(Start cutting path id: line3151)
(Change tool to Default tool)

G00 Z0.000100
G00 X9.667637 Y1.964869

G01 Z0.000000 F100.0(Penetrate)
G01 X9.467772 Y1.964869 Z0.000000 F400.000000
G00 Z0.000100

(End cutting path id: line3151)

(Start cutting path id: line3147)
(Change tool to Default tool)

G00 Z0.000100
G00 X10.013348 Y0.965548

G01 Z0.000000 F100.0(Penetrate)
G01 X0.560314 Y0.965548 Z0.000000 F400.000000
G00 Z0.000100

(End cutting path id: line3147)

(Start cutting path id: line3141)
(Change tool to Default tool)

G00 Z0.000100
G00 X0.560314 Y0.965548

G01 Z0.000000 F100.0(Penetrate)
G01 X0.560314 Y5.016849 Z0.000000 F400.000000
G00 Z0.000100

(End cutting path id: line3141)

(Start cutting path id: line3143)
(Change tool to Default tool)

G00 Z0.000100
G00 X0.560314 Y5.016849

G01 Z0.000000 F100.0(Penetrate)
G01 X10.013348 Y5.016849 Z0.000000 F400.000000
G00 Z0.000100

(End cutting path id: line3143)

(Start cutting path id: line3145)
(Change tool to Default tool)

G00 Z0.000100
G00 X10.013348 Y5.016849

G01 Z0.000000 F100.0(Penetrate)
G01 X10.013348 Y0.965548 Z0.000000 F400.000000
G00 Z0.000100

(End cutting path id: line3145)

(Start cutting path id: path3129)
(Change tool to Default tool)

G00 Z0.000100
G00 X7.087409 Y1.775808

G01 Z0.000000 F100.0(Penetrate)
G03 X7.250434 Y1.897295 Z0.000000 I-0.108035 J0.315101 F400.000000
G03 X7.312481 Y2.090909 Z0.000000 I-0.271060 J0.193614
G03 X7.250434 Y2.284524 Z0.000000 I-0.333107 J-0.000000
G03 X7.087409 Y2.406010 Z0.000000 I-0.271060 J-0.193614
G00 Z0.000100

(End cutting path id: path3129)

(Start cutting path id: line3131)
(Change tool to Default tool)

G00 Z0.000100
G00 X7.087408 Y2.406010

G01 Z0.000000 F100.0(Penetrate)
G01 X3.126137 Y2.406010 Z0.000000 F400.000000
G00 Z0.000100

(End cutting path id: line3131)

(Start cutting path id: path3125)
(Change tool to Default tool)

G00 Z0.000100
G00 X3.126138 Y2.406010

G01 Z0.000000 F100.0(Penetrate)
G03 X2.968587 Y2.363795 Z0.000000 I0.000000 J-0.315101 F400.000000
G03 X2.853252 Y2.248460 Z0.000000 I0.157551 J-0.272886
G03 X2.811036 Y2.090909 Z0.000000 I0.272886 J-0.157551
G03 X2.853252 Y1.933359 Z0.000000 I0.315101 J0.000000
G03 X2.968587 Y1.818024 Z0.000000 I0.272886 J0.157551
G03 X3.126138 Y1.775808 Z0.000000 I0.157551 J0.272886
G00 Z0.000100

(End cutting path id: path3125)

(Start cutting path id: line3127)
(Change tool to Default tool)

G00 Z0.000100
G00 X3.126137 Y1.775808

G01 Z0.000000 F100.0(Penetrate)
G01 X7.087408 Y1.775808 Z0.000000 F400.000000
G00 Z0.000100

(End cutting path id: line3127)

(Start cutting path id: path3121)
(Change tool to Default tool)

G00 Z0.000100
G00 X7.087409 Y2.676097

G01 Z0.000000 F100.0(Penetrate)
G03 X7.250434 Y2.797584 Z0.000000 I-0.108035 J0.315101 F400.000000
G03 X7.312481 Y2.991198 Z0.000000 I-0.271060 J0.193614
G03 X7.250434 Y3.184813 Z0.000000 I-0.333107 J-0.000000
G03 X7.087409 Y3.306299 Z0.000000 I-0.271060 J-0.193614
G00 Z0.000100

(End cutting path id: path3121)

(Start cutting path id: line3123)
(Change tool to Default tool)

G00 Z0.000100
G00 X7.087408 Y3.306299

G01 Z0.000000 F100.0(Penetrate)
G01 X3.126137 Y3.306299 Z0.000000 F400.000000
G00 Z0.000100

(End cutting path id: line3123)

(Start cutting path id: path3117)
(Change tool to Default tool)

G00 Z0.000100
G00 X3.126138 Y3.306299

G01 Z0.000000 F100.0(Penetrate)
G03 X2.968587 Y3.264084 Z0.000000 I-0.000000 J-0.315101 F400.000000
G03 X2.853252 Y3.148749 Z0.000000 I0.157551 J-0.272886
G03 X2.811036 Y2.991198 Z0.000000 I0.272886 J-0.157551
G03 X2.853252 Y2.833648 Z0.000000 I0.315101 J0.000000
G03 X2.968587 Y2.718313 Z0.000000 I0.272886 J0.157551
G03 X3.126138 Y2.676097 Z0.000000 I0.157551 J0.272886
G00 Z0.000100

(End cutting path id: path3117)

(Start cutting path id: line3119)
(Change tool to Default tool)

G00 Z0.000100
G00 X3.126137 Y2.676097

G01 Z0.000000 F100.0(Penetrate)
G01 X7.087408 Y2.676097 Z0.000000 F400.000000
G00 Z0.000100

(End cutting path id: line3119)

(Start cutting path id: path3137)
(Change tool to Default tool)

G00 Z0.000100
G00 X7.087409 Y3.576386

G01 Z0.000000 F100.0(Penetrate)
G03 X7.250434 Y3.697873 Z0.000000 I-0.108035 J0.315101 F400.000000
G03 X7.312481 Y3.891487 Z0.000000 I-0.271060 J0.193614
G03 X7.250434 Y4.085101 Z0.000000 I-0.333107 J0.000000
G03 X7.087409 Y4.206588 Z0.000000 I-0.271060 J-0.193614
G00 Z0.000100

(End cutting path id: path3137)

(Start cutting path id: line3139)
(Change tool to Default tool)

G00 Z0.000100
G00 X7.087408 Y4.206588

G01 Z0.000000 F100.0(Penetrate)
G01 X3.126137 Y4.206588 Z0.000000 F400.000000
G00 Z0.000100

(End cutting path id: line3139)

(Start cutting path id: path3133)
(Change tool to Default tool)

G00 Z0.000100
G00 X3.126138 Y4.206588

G01 Z0.000000 F100.0(Penetrate)
G03 X2.968587 Y4.164373 Z0.000000 I0.000000 J-0.315101 F400.000000
G03 X2.853252 Y4.049038 Z0.000000 I0.157551 J-0.272886
G03 X2.811036 Y3.891487 Z0.000000 I0.272886 J-0.157551
G03 X2.853252 Y3.733936 Z0.000000 I0.315101 J-0.000000
G03 X2.968587 Y3.618601 Z0.000000 I0.272886 J0.157551
G03 X3.126138 Y3.576386 Z0.000000 I0.157551 J0.272886
G00 Z0.000100

(End cutting path id: path3133)

(Start cutting path id: line3135)
(Change tool to Default tool)

G00 Z0.000100
G00 X3.126137 Y3.576386

G01 Z0.000000 F100.0(Penetrate)
G01 X7.087408 Y3.576386 Z0.000000 F400.000000
G00 Z0.000100

(End cutting path id: line3135)

(Start cutting path id: circle3113)
(Change tool to Default tool)

G00 Z0.000100
G00 X1.170260 Y3.891487

G01 Z0.000000 F100.0(Penetrate)
G02 X1.123455 Y3.778490 Z0.000000 I-0.159801 J0.000000 F400.000000
G02 X1.010459 Y3.731686 Z0.000000 I-0.112997 J0.112997
G02 X0.897462 Y3.778490 Z0.000000 I0.000000 J0.159801
G02 X0.850657 Y3.891487 Z0.000000 I0.112997 J0.112997
G02 X0.897462 Y4.004484 Z0.000000 I0.159801 J-0.000000
G02 X1.010459 Y4.051288 Z0.000000 I0.112997 J-0.112996
G02 X1.123455 Y4.004484 Z0.000000 I-0.000000 J-0.159801
G02 X1.170260 Y3.891487 Z0.000000 I-0.112997 J-0.112996
G01 X1.170260 Y3.891487 Z0.000000
G00 Z0.000100

(End cutting path id: circle3113)

(Start cutting path id: circle3111)
(Change tool to Default tool)

G00 Z0.000100
G00 X1.170260 Y2.991198

G01 Z0.000000 F100.0(Penetrate)
G02 X1.123455 Y2.878201 Z0.000000 I-0.159801 J0.000000 F400.000000
G02 X1.010459 Y2.831397 Z0.000000 I-0.112997 J0.112997
G02 X0.897462 Y2.878201 Z0.000000 I0.000000 J0.159801
G02 X0.850657 Y2.991198 Z0.000000 I0.112997 J0.112997
G02 X0.897462 Y3.104195 Z0.000000 I0.159801 J0.000000
G02 X1.010459 Y3.150999 Z0.000000 I0.112997 J-0.112997
G02 X1.123455 Y3.104195 Z0.000000 I0.000000 J-0.159801
G02 X1.170260 Y2.991198 Z0.000000 I-0.112997 J-0.112997
G01 X1.170260 Y2.991198 Z0.000000
G00 Z0.000100

(End cutting path id: circle3111)

(Start cutting path id: circle3115)
(Change tool to Default tool)

G00 Z0.000100
G00 X1.170260 Y2.090909

G01 Z0.000000 F100.0(Penetrate)
G02 X1.123455 Y1.977913 Z0.000000 I-0.159801 J0.000000 F400.000000
G02 X1.010459 Y1.931108 Z0.000000 I-0.112997 J0.112997
G02 X0.897462 Y1.977913 Z0.000000 I0.000000 J0.159801
G02 X0.850657 Y2.090909 Z0.000000 I0.112997 J0.112997
G02 X0.897462 Y2.203906 Z0.000000 I0.159801 J0.000000
G02 X1.010459 Y2.250710 Z0.000000 I0.112997 J-0.112997
G02 X1.123455 Y2.203906 Z0.000000 I0.000000 J-0.159801
G02 X1.170260 Y2.090909 Z0.000000 I-0.112997 J-0.112997
G01 X1.170260 Y2.090909 Z0.000000
G00 Z0.000100

(End cutting path id: circle3115)


(Footer)
M5
G00 X0.0000 Y0.0000
M2

( Turn off flood and mist, and set Z-dir to UP )
M9
G0 Z-0.01
G0 Z0.01


(Using default footer. To add your own footer create file "footer" in the output dir.)
(end)

%